; LightBurn 1.1.04
; GRBL device profile, absolute coords
; Bounds: X40 Y40 to X94.43 Y124.39
G00 G17 G40 G21 G54
G90
M4
; Cut @ 500 mm/min, 20% power
M8
G0 X55.182Y40.009
G0 Z0
; Layer C04
G1 X55.207S200F500
G1 X86.367Y40.065
G1 X86.392
G1 X86.416Y40.083
G1 X86.435Y40.101
G1 X86.449Y40.124
G1 X86.624Y40.631
G1 X86.703Y40.825
G1 X86.799Y40.998
G1 X86.908Y41.15
G1 X87.029Y41.279
G1 X87.158Y41.383
G1 X87.29Y41.458
G1 X87.426Y41.505
G1 X87.563Y41.522
G1 X87.839
G1 X87.865
G1 X87.888Y41.544
G1 X87.907Y41.562
G1 X87.921Y41.585
G1 Y41.61
G1 X88.048Y61.233
G1 X88.439Y62.999
G1 X88.652Y63.903
G1 X88.883Y64.753
G1 X89.145Y65.589
G1 X89.448Y66.434
G1 X89.618Y66.866
G1 X89.803Y67.316
G1 X90.003Y67.78
G1 X90.221Y68.267
G1 X90.457Y68.777
G1 X90.713Y69.316
G1 X90.991Y69.885
G1 X91.589Y71.091
G1 X91.864Y71.661
G1 X92.118Y72.204
G1 X92.352Y72.724
G1 X92.568Y73.223
G1 X92.767Y73.707
G1 X92.95Y74.179
G1 X93.119Y74.643
G1 X93.417Y75.56
G1 X93.674Y76.491
G1 X93.791Y76.972
G1 X93.901Y77.466
G1 X94.005Y77.978
G1 X94.106Y78.513
G1 X94.239Y79.356
G1 X94.336Y80.228
G1 X94.399Y81.118
G1 X94.426Y82.013
G1 Y82.905
G1 X94.374Y83.781
G1 X94.295Y84.633
G1 X94.18Y85.448
G1 X93.943Y86.687
G1 X93.651Y87.918
G1 X93.306Y89.133
G1 X92.911Y90.324
G1 X92.469Y91.482
G1 X91.984Y92.6
G1 X91.724Y93.142
G1 X91.456Y93.671
G1 X91.177Y94.185
G1 X90.89Y94.684
G1 X90.726Y94.958
G1 X90.576Y95.205
G1 X90.433Y95.433
G1 X90.295Y95.646
G1 X90.018Y96.042
G1 X89.715Y96.429
G1 X89.544Y96.631
G1 X89.358Y96.842
G1 X89.15Y97.068
G1 X88.918Y97.314
G1 X88.658Y97.583
G1 X88.367Y97.881
G1 X87.674Y98.579
G1 X87.047Y99.204
G1 X86.764Y99.481
G1 X86.5Y99.736
G1 X86.252Y99.971
G1 X86.016Y100.19
G1 X85.791Y100.394
G1 X85.575Y100.585
G1 X85.158Y100.935
G1 X84.746Y101.258
G1 X84.321Y101.569
G1 X83.863Y101.886
G1 X83.352Y102.22
G1 X82.82Y102.545
G1 X82.269Y102.859
G1 X81.701Y103.162
G1 X81.119Y103.454
G1 X80.526Y103.733
G1 X79.924Y103.997
G1 X79.314Y104.247
G1 X78.7Y104.481
G1 X78.084Y104.699
G1 X77.469Y104.899
G1 X76.856Y105.08
G1 X76.248Y105.242
G1 X75.647Y105.383
G1 X75.056Y105.502
G1 X74.477Y105.6
G1 X73.745Y105.713
G1 X72.976Y105.837
G1 X72.258Y105.958
G1 X71.685Y106.06
G1 X71.213Y106.162
G1 X70.743Y106.291
G1 X70.292Y106.443
G1 X69.86Y106.617
G1 X69.431Y106.818
G1 X69.026Y107.037
G1 X68.635Y107.279
G1 X68.258Y107.544
G1 X67.908Y107.823
G1 X67.567Y108.129
G1 X67.255Y108.447
G1 X66.959Y108.786
G1 X66.688Y109.141
G1 X66.439Y109.514
G1 X66.216Y109.898
G1 X66.016Y110.301
G1 X65.921Y110.527
G1 X65.821Y110.803
G1 X65.72Y111.113
G1 X65.618Y111.461
G1 X65.516Y111.838
G1 X65.414Y112.248
G1 X65.315Y112.681
G1 X65.087Y113.757
G1 X64.949Y114.345
G1 X64.805Y114.901
G1 X64.652Y115.429
G1 X64.491Y115.929
G1 X64.318Y116.405
G1 X64.135Y116.859
G1 X63.939Y117.293
G1 X63.729Y117.71
G1 X63.504Y118.112
G1 X63.263Y118.502
G1 X63.004Y118.881
G1 X62.728Y119.252
G1 X62.432Y119.618
G1 X62.116Y119.98
G1 X61.778Y120.342
G1 X61.19Y120.917
G1 X60.578Y121.451
G1 X59.942Y121.942
G1 X59.286Y122.39
G1 X58.609Y122.794
G1 X57.914Y123.154
G1 X57.202Y123.469
G1 X56.474Y123.739
G1 X55.731Y123.963
G1 X54.976Y124.14
G1 X54.21Y124.271
G1 X53.433Y124.355
G1 X52.649Y124.391
G1 X51.857Y124.379
G1 X51.059Y124.318
G1 X50.257Y124.209
G1 X49.565Y124.067
G1 X48.875Y123.873
G1 X48.192Y123.631
G1 X47.517Y123.343
G1 X46.855Y123.011
G1 X46.207Y122.638
G1 X45.577Y122.225
G1 X44.969Y121.776
G1 X44.384Y121.293
G1 X43.827Y120.778
G1 X43.3Y120.233
G1 X42.806Y119.661
G1 X42.348Y119.065
G1 X41.929Y118.446
G1 X41.553Y117.807
G1 X41.222Y117.15
G1 X40.969Y116.571
G1 X40.746Y115.992
G1 X40.552Y115.41
G1 X40.387Y114.826
G1 X40.251Y114.241
G1 X40.145Y113.653
G1 X40.067Y113.063
G1 X40.019Y112.471
G1 X40Y111.876
G1 Y111.279
G1 X40.048Y110.679
G1 X40.116Y110.077
G1 X40.214Y109.472
G1 X40.34Y108.865
G1 X40.495Y108.254
G1 X40.679Y107.641
G1 X40.833Y107.201
G1 X41.007Y106.766
G1 X41.203Y106.337
G1 X41.421Y105.912
G1 X41.66Y105.491
G1 X41.922Y105.075
G1 X42.205Y104.662
G1 X42.511Y104.253
G1 X42.84Y103.847
G1 X43.192Y103.443
G1 X43.567Y103.043
G1 X43.965Y102.644
G1 X44.387Y102.247
G1 X44.833Y101.852
G1 X45.303Y101.457
G1 X46.194Y100.749
G1 X46.558Y100.444
G1 X46.899Y100.142
G1 X47.213Y99.844
G1 X47.505Y99.545
G1 X47.771Y99.251
G1 X48.016Y98.954
G1 X48.235Y98.661
G1 X48.44Y98.358
G1 X48.619Y98.058
G1 X48.782Y97.748
G1 X48.927Y97.434
G1 X49.056Y97.106
G1 X49.169Y96.773
G1 X49.265Y96.432
G1 X49.349Y96.074
G1 X49.464Y95.39
G1 X49.519Y94.718
G1 Y94.373
G1 Y94.028
G1 X49.48Y93.669
G1 X49.434Y93.305
G1 X49.37Y92.92
G1 X49.288Y92.524
G1 X49.188Y92.107
G1 X49.069Y91.67
G1 X48.932Y91.212
G1 X48.775Y90.723
G1 X48.598Y90.209
G1 X48.401Y89.664
G1 X48.313Y89.411
G1 X48.216Y89.103
G1 X48.113Y88.756
G1 X48.008Y88.379
G1 X47.802Y87.585
G1 X47.624Y86.812
G1 X47.506Y86.245
G1 X47.458Y85.996
G1 X47.415Y85.762
G1 X47.348Y85.32
G1 X47.301Y84.873
G1 X47.284Y84.634
G1 X47.271Y84.378
G1 Y84.099
G1 X47.254Y83.794
G1 Y83.453
G1 Y83.074
G1 Y81.716
G1 Y80.929
G1 Y80.593
G1 Y80.289
G1 X47.27Y80.012
G1 X47.282Y79.757
G1 X47.297Y79.52
G1 X47.34Y79.08
G1 X47.399Y78.654
G1 X47.436Y78.433
G1 X47.479Y78.204
G1 X47.581Y77.695
G1 X47.787Y76.783
G1 X48.022Y75.893
G1 X48.293Y75.01
G1 X48.609Y74.11
G1 X48.786Y73.648
G1 X48.977Y73.176
G1 X49.182Y72.689
G1 X49.403Y72.186
G1 X49.641Y71.664
G1 X49.897Y71.121
G1 X50.171Y70.554
G1 X50.747Y69.389
G1 X51.009Y68.849
G1 X51.25Y68.34
G1 X51.473Y67.853
G1 X51.678Y67.391
G1 X51.867Y66.945
G1 X52.043Y66.512
G1 X52.204Y66.092
G1 X52.493Y65.27
G1 X52.745Y64.443
G1 X52.971Y63.591
G1 X53.181Y62.681
G1 X53.523Y61.107
G1 X53.588Y47.482
G1 X53.608Y44.795
G1 X53.622Y43.667
G1 X53.635Y43.088
G1 X53.649Y42.629
G1 X53.666Y42.276
G1 X53.676Y42.134
G1 X53.687Y42.014
G1 X53.699Y41.913
G1 X53.712Y41.828
G1 X53.726Y41.758
G1 X53.76Y41.657
G1 Y41.641
G1 X53.816Y41.577
G1 X53.836Y41.56
G1 X53.891Y41.535
G1 X53.908
G1 X53.967
G1 X54.021Y41.517
G1 X54.089Y41.493
G1 X54.168Y41.452
G1 X54.258Y41.395
G1 X54.455Y41.243
G1 X54.657Y41.056
G1 X54.842Y40.854
G1 X54.993Y40.655
G1 X55.05Y40.563
G1 X55.091Y40.483
G1 X55.115Y40.415
G1 Y40.363
G1 Y40.091
G1 X55.129Y40.065
G1 X55.141Y40.042
G1 X55.159Y40.023
G1 X55.182Y40.009
M9
G1 S0
M5
G90
; return to user-defined finish pos
G0 X0 Y0
M2
