; LightBurn 1.1.04
; GRBL device profile, absolute coords
; Bounds: X40 Y40 to X94.43 Y124.39
G00 G17 G40 G21 G54
G90
M4
; Offset @ 500 mm/min, 30% power
M8
G0 X81.313Y80.141
G0 Z0
; Layer C05
G1 X81.271Y80.035S300F500
G1 X81.281Y80.008
G1 X81.313Y79.928
G1 Y80.141
G0 X81.413Y80.227
G1 X81.288Y80.351
G1 X81.181Y80.08
G1 X81.151Y80.032
G1 X81.191Y79.965
G1 X81.392Y79.449
G1 X81.413Y79.321
G1 Y80.227
G0 X81.313Y77.602
G1 X81.271Y77.495
G1 X81.282Y77.468
G1 X81.313Y77.388
G1 Y77.602
G0 X81.181Y77.541
G1 X81.151Y77.493
G1 X81.191Y77.424
G1 X81.392Y76.909
G1 X81.413Y76.78
G1 Y78.19
G1 X81.398Y78.087
G1 X81.181Y77.541
G0 X81.313Y75.068
G1 X81.281Y74.988
G1 X81.264Y74.958
G1 X81.281Y74.929
G1 X81.313Y74.848
G1 Y75.068
G0 X81.191Y75.031
G1 X81.148Y74.958
G1 X81.191Y74.885
G1 X81.25Y74.735
G1 X81.364Y74.75
G1 X81.413
G1 Y75.674
G1 X81.392Y75.546
G1 X81.191Y75.031
G0 X81.101Y75.075
G1 X81.033Y74.958
G1 X81.101Y74.842
G1 X81.185Y74.626
G1 X81.365Y74.65
G1 X81.513Y74.633
G1 Y80.268
G1 X81.251Y80.529
G1 X81.091Y80.125
G1 X81.035Y80.034
G1 X81.101Y79.921
G1 X81.295Y79.422
G1 X81.399Y78.782
G1 X81.301Y78.113
G1 X81.091Y77.586
G1 X81.035Y77.494
G1 X81.101Y77.38
G1 X81.295Y76.883
G1 X81.401Y76.228
G1 X81.295Y75.573
G1 X81.101Y75.075
G0 X81.01Y75.119
G1 X80.917Y74.958
G1 X81.01Y74.798
G1 X81.12Y74.517
G1 X81.366Y74.549
G1 X81.613Y74.521
G1 Y80.31
G1 X81.208Y80.713
G1 Y80.678
G1 X81.002Y80.17
G1 X80.918Y80.036
G1 X81.01Y79.877
G1 X81.198Y79.396
G1 X81.298Y78.781
G1 X81.203Y78.139
G1 X81.002Y77.631
G1 X80.918Y77.496
G1 X81.011Y77.337
G1 X81.198Y76.856
G1 X81.3Y76.228
G1 X81.198Y75.599
G1 X81.01Y75.119
G0 X80.92Y75.162
G1 X80.801Y74.958
G1 X80.92Y74.754
G1 X81.055Y74.408
G1 X81.367Y74.448
G1 X81.713Y74.409
G1 Y80.351
G1 X81.138Y80.925
G1 X81.106Y80.704
G1 X80.912Y80.216
G1 X80.801Y80.037
G1 X80.92Y79.833
G1 X81.101Y79.369
G1 X81.196Y78.78
G1 X81.106Y78.165
G1 X80.912Y77.676
G1 X80.801Y77.498
G1 X80.92Y77.293
G1 X81.101Y76.83
G1 X81.198Y76.228
G1 X81.101Y75.625
G1 X80.92Y75.162
G0 X80.83Y75.206
G1 X80.685Y74.958
G1 X80.83Y74.71
G1 X80.99Y74.299
G1 X81.368Y74.347
G1 X81.813Y74.297
G1 Y80.393
G1 X81.068Y81.136
G1 X81.009Y80.73
G1 X80.822Y80.261
G1 X80.684Y80.039
G1 X80.83Y79.79
G1 X81.004Y79.343
G1 X81.095Y78.78
G1 X81.009Y78.191
G1 X80.822Y77.721
G1 X80.684Y77.499
G1 X80.83Y77.25
G1 X81.004Y76.803
G1 X81.097Y76.228
G1 X81.004Y75.652
G1 X80.83Y75.206
G0 X80.74Y75.25
G1 X80.57Y74.958
G1 X80.74Y74.667
G1 X80.907Y74.237
G1 Y74.188
G1 X81.368Y74.247
G1 X81.913Y74.186
G1 Y80.434
G1 X80.988Y81.358
G1 Y81.318
G1 X80.912Y80.757
G1 X80.733Y80.306
G1 X80.568Y80.041
G1 X80.74Y79.746
G1 X80.907Y79.316
G1 X80.994Y78.779
G1 X80.912Y78.217
G1 X80.733Y77.766
G1 X80.568Y77.501
G1 X80.74Y77.206
G1 X80.907Y76.777
G1 X80.996Y76.228
G1 X80.907Y75.678
G1 X80.74Y75.25
G0 X80.649Y75.293
G1 X80.454Y74.958
G1 X80.649Y74.623
G1 X80.81Y74.211
G1 X80.832Y74.075
G1 X81.369Y74.146
G1 X81.896Y74.087
G1 X82.013Y74.046
G1 Y80.475
G1 X80.84Y81.647
G1 X80.893Y81.318
G1 X80.814Y80.783
G1 X80.643Y80.351
G1 X80.451Y80.042
G1 X80.649Y79.703
G1 X80.81Y79.29
G1 X80.893Y78.778
G1 X80.814Y78.243
G1 X80.643Y77.812
G1 X80.451Y77.502
G1 X80.649Y77.162
G1 X80.81Y76.75
G1 X80.895Y76.228
G1 X80.81Y75.705
G1 X80.649Y75.293
G0 X80.559Y75.337
G1 X80.356Y74.989
G1 X80.331Y74.958
G1 X80.355Y74.928
G1 X80.559Y74.58
G1 X80.713Y74.184
G1 X80.753Y73.939
G1 X80.862Y73.979
G1 X81.37Y74.045
G1 X81.874Y73.989
G1 X82.113Y73.905
G1 Y80.517
G1 X80.642Y81.986
G1 X80.713Y81.803
G1 X80.792Y81.317
G1 X80.717Y80.809
G1 X80.553Y80.396
G1 X80.342Y80.056
G1 X80.328Y80.04
G1 X80.355Y80.007
G1 X80.559Y79.659
G1 X80.713Y79.264
G1 X80.792Y78.777
G1 X80.717Y78.269
G1 X80.553Y77.857
G1 X80.342Y77.517
G1 X80.328Y77.5
G1 X80.356Y77.467
G1 X80.559Y77.119
G1 X80.713Y76.724
G1 X80.793Y76.228
G1 X80.713Y75.731
G1 X80.559Y75.337
G0 X80.469Y75.38
G1 X80.273Y75.046
G1 X80.201Y74.958
G1 X80.273Y74.871
G1 X80.469Y74.536
G1 X80.616Y74.158
G1 X80.673Y73.803
G1 X80.886Y73.882
G1 X81.371Y73.945
G1 X81.851Y73.891
G1 X82.213Y73.763
G1 Y80.558
G1 X80.247Y82.522
G1 X80.273Y82.489
G1 X80.469Y82.155
G1 X80.616Y81.777
G1 X80.69Y81.316
G1 X80.62Y80.835
G1 X80.464Y80.442
G1 X80.261Y80.115
G1 X80.198Y80.041
G1 X80.273Y79.95
G1 X80.469Y79.615
G1 X80.616Y79.237
G1 X80.69Y78.777
G1 X80.62Y78.295
G1 X80.464Y77.902
G1 X80.261Y77.576
G1 X80.198Y77.501
G1 X80.273Y77.41
G1 X80.469Y77.075
G1 X80.616Y76.698
G1 X80.692Y76.228
G1 X80.616Y75.758
G1 X80.469Y75.38
G0 X80.378Y75.424
G1 X80.191Y75.103
G1 X80.072Y74.958
G1 X80.191Y74.813
G1 X80.378Y74.492
G1 X80.519Y74.131
G1 X80.591Y73.688
G1 Y73.664
G1 X80.91Y73.784
G1 X81.372Y73.844
G1 X81.829Y73.792
G1 X82.249Y73.644
G1 X82.313Y73.605
G1 Y80.6
G1 X80.186Y82.724
G1 X80.068Y82.582
G1 X80.191Y82.432
G1 X80.378Y82.111
G1 X80.519Y81.75
G1 X80.589Y81.315
G1 X80.523Y80.861
G1 X80.374Y80.487
G1 X80.18Y80.174
G1 X80.068Y80.042
G1 X80.191Y79.892
G1 X80.378Y79.572
G1 X80.519Y79.211
G1 X80.589Y78.776
G1 X80.523Y78.321
G1 X80.374Y77.947
G1 X80.18Y77.635
G1 X80.068Y77.502
G1 X80.191Y77.353
G1 X80.378Y77.031
G1 X80.519Y76.671
G1 X80.591Y76.228
G1 X80.519Y75.784
G1 X80.378Y75.424
G0 X80.288Y75.468
G1 X80.109Y75.161
G1 X79.942Y74.958
G1 X80.109Y74.756
G1 X80.288Y74.449
G1 X80.422Y74.105
G1 X80.489Y73.688
G1 X80.458Y73.491
G1 X80.537Y73.539
G1 X80.934Y73.687
G1 X81.373Y73.743
G1 X81.806Y73.694
G1 X82.206Y73.553
G1 X82.413Y73.427
G1 Y80.641
G1 X80.167Y82.884
G1 X80.099Y82.774
G1 X79.938Y82.583
G1 X80.109Y82.375
G1 X80.288Y82.067
G1 X80.422Y81.724
G1 X80.488Y81.315
G1 X80.425Y80.887
G1 X80.284Y80.532
G1 X80.099Y80.233
G1 X79.937Y80.043
G1 X80.109Y79.835
G1 X80.288Y79.528
G1 X80.422Y79.184
G1 X80.488Y78.775
G1 X80.425Y78.347
G1 X80.284Y77.992
G1 X80.099Y77.694
G1 X79.937Y77.503
G1 X80.109Y77.295
G1 X80.288Y76.988
G1 X80.422Y76.645
G1 X80.489Y76.228
G1 X80.422Y75.811
G1 X80.288Y75.468
G0 X80.198Y75.511
G1 X80.026Y75.218
G1 X79.813Y74.958
G1 X80.026Y74.698
G1 X80.198Y74.405
G1 X80.325Y74.079
G1 X80.388Y73.688
G1 X80.325Y73.298
G1 X80.581Y73.449
G1 X80.958Y73.589
G1 X81.374Y73.642
G1 X81.784Y73.596
G1 X82.163Y73.463
G1 X82.498Y73.258
G1 X82.513Y73.245
G1 Y80.682
G1 X80.201Y82.991
G1 X80.149Y83.043
G1 X80.018Y82.833
G1 X79.809Y82.585
G1 X80.026Y82.317
G1 X80.198Y82.024
G1 X80.325Y81.698
G1 X80.387Y81.314
G1 X80.328Y80.913
G1 X80.195Y80.577
G1 X80.018Y80.292
G1 X79.809Y80.046
G1 X80.026Y79.778
G1 X80.198Y79.484
G1 X80.325Y79.158
G1 X80.387Y78.774
G1 X80.328Y78.373
G1 X80.195Y78.038
G1 X80.018Y77.753
G1 X79.809Y77.506
G1 X80.026Y77.238
G1 X80.198Y76.944
G1 X80.325Y76.618
G1 X80.388Y76.228
G1 X80.325Y75.837
G1 X80.198Y75.511
G0 X80.107Y75.555
G1 X79.944Y75.275
G1 X79.733Y75.019
G1 X79.659Y74.958
G1 X79.733Y74.897
G1 X79.944Y74.641
G1 X80.107Y74.361
G1 X80.228Y74.052
G1 X80.287Y73.688
G1 X80.228Y73.324
G1 X80.107Y73.015
G1 X80.085Y72.977
G1 X80.311Y73.17
G1 X80.624Y73.358
G1 X80.982Y73.491
G1 X81.374Y73.542
G1 X81.761Y73.498
G1 X82.12Y73.372
G1 X82.439Y73.177
G1 X82.613Y73.025
G1 Y80.724
G1 X80.274Y83.059
G1 X80.124Y83.208
G1 X80.105Y83.162
G1 X79.937Y82.892
G1 X79.737Y82.655
G1 X79.655Y82.582
G1 X79.739Y82.509
G1 X79.944Y82.26
G1 X80.107Y81.98
G1 X80.228Y81.671
G1 X80.286Y81.313
G1 X80.231Y80.939
G1 X80.105Y80.622
G1 X79.937Y80.352
G1 X79.737Y80.116
G1 X79.654Y80.042
G1 X79.739Y79.969
G1 X79.944Y79.72
G1 X80.107Y79.441
G1 X80.228Y79.131
G1 X80.286Y78.773
G1 X80.231Y78.399
G1 X80.105Y78.083
G1 X79.937Y77.812
G1 X79.737Y77.576
G1 X79.654Y77.502
G1 X79.733Y77.437
G1 X79.944Y77.181
G1 X80.107Y76.901
G1 X80.228Y76.592
G1 X80.287Y76.228
G1 X80.228Y75.864
G1 X80.107Y75.555
G0 X80.017Y75.599
G1 X79.862Y75.333
G1 X79.662Y75.09
G1 X79.502Y74.958
G1 X79.662Y74.826
G1 X79.862Y74.583
G1 X80.017Y74.318
G1 X80.131Y74.026
G1 X80.186Y73.688
G1 X80.131Y73.351
G1 X80.017Y73.059
G1 X79.862Y72.793
G1 X79.662Y72.55
G1 X79.502Y72.418
G1 X79.662Y72.287
G1 X79.688Y72.256
G1 X79.706Y72.306
G1 X79.886Y72.605
G1 X80.108Y72.866
G1 X80.369Y73.088
G1 X80.668Y73.268
G1 X81.006Y73.393
G1 X81.375Y73.441
G1 X81.739Y73.4
G1 X82.077Y73.281
G1 X82.379Y73.096
G1 X82.649Y72.861
G1 X82.713Y72.788
G1 Y80.766
G1 X80.345Y83.13
G1 X80.086Y83.386
G1 X80.015Y83.207
G1 X79.856Y82.951
G1 X79.665Y82.725
G1 X79.503Y82.581
G1 X79.667Y82.439
G1 X79.862Y82.203
G1 X80.017Y81.937
G1 X80.131Y81.645
G1 X80.185Y81.312
G1 X80.134Y80.965
G1 X80.015Y80.667
G1 X79.856Y80.411
G1 X79.665Y80.186
G1 X79.503Y80.041
G1 X79.667Y79.899
G1 X79.862Y79.663
G1 X80.017Y79.397
G1 X80.131Y79.105
G1 X80.185Y78.773
G1 X80.134Y78.426
G1 X80.015Y78.128
G1 X79.856Y77.871
G1 X79.666Y77.646
G1 X79.5Y77.499
G1 X79.662Y77.366
G1 X79.862Y77.123
G1 X80.017Y76.857
G1 X80.131Y76.565
G1 X80.186Y76.228
G1 X80.131Y75.89
G1 X80.017Y75.599
G0 X79.927Y75.642
G1 X79.78Y75.39
G1 X79.591Y75.161
G1 X79.362Y74.972
G1 X79.337Y74.958
G1 X79.362Y74.944
G1 X79.591Y74.755
G1 X79.779Y74.526
G1 X79.927Y74.274
G1 X80.034Y73.999
G1 X80.084Y73.688
G1 X80.034Y73.377
G1 X79.927Y73.102
G1 X79.779Y72.85
G1 X79.591Y72.621
G1 X79.362Y72.433
G1 X79.337Y72.418
G1 X79.362Y72.404
G1 X79.591Y72.216
G1 X79.721Y72.058
G1 X79.797Y72.263
G1 X79.967Y72.546
G1 X80.179Y72.795
G1 X80.428Y73.007
G1 X80.711Y73.177
G1 X81.031Y73.296
G1 X81.376Y73.34
G1 X81.716Y73.302
G1 X82.033Y73.19
G1 X82.32Y73.015
G1 X82.578Y72.79
G1 X82.803Y72.531
G1 Y72.516
G1 Y80.807
G1 X80.413Y83.204
G1 X80.042Y83.57
G1 Y83.531
G1 X79.926Y83.252
G1 X79.775Y83.01
G1 X79.594Y82.795
G1 X79.384Y82.609
G1 X79.34Y82.581
G1 X79.376Y82.558
G1 X79.595Y82.369
G1 X79.78Y82.145
G1 X79.927Y81.893
G1 X80.034Y81.618
G1 X80.083Y81.312
G1 X80.036Y80.991
G1 X79.926Y80.713
G1 X79.775Y80.47
G1 X79.594Y80.256
G1 X79.384Y80.069
G1 X79.34Y80.041
G1 X79.376Y80.019
G1 X79.595Y79.829
G1 X79.779Y79.605
G1 X79.927Y79.354
G1 X80.034Y79.079
G1 X80.083Y78.772
G1 X80.036Y78.452
G1 X79.926Y78.173
G1 X79.775Y77.93
G1 X79.594Y77.716
G1 X79.384Y77.529
G1 X79.336Y77.498
G1 X79.362Y77.483
G1 X79.591Y77.295
G1 X79.78Y77.066
G1 X79.927Y76.813
G1 X80.034Y76.539
G1 X80.084Y76.228
G1 X80.034Y75.917
G1 X79.927Y75.642
G0 X79.836Y75.686
G1 X79.697Y75.447
G1 X79.52Y75.232
G1 X79.304Y75.054
G1 X79.139Y74.958
G1 X79.304Y74.861
G1 X79.52Y74.684
G1 X79.697Y74.469
G1 X79.836Y74.23
G1 X79.937Y73.973
G1 X79.983Y73.688
G1 X79.937Y73.404
G1 X79.836Y73.146
G1 X79.697Y72.908
G1 X79.52Y72.692
G1 X79.304Y72.515
G1 X79.139Y72.418
G1 X79.304Y72.322
G1 X79.52Y72.145
G1 X79.697Y71.929
G1 X79.763Y71.816
G1 X79.776Y71.919
G1 X79.887Y72.219
G1 X80.049Y72.488
G1 X80.25Y72.724
G1 X80.487Y72.926
G1 X80.755Y73.087
G1 X81.055Y73.198
G1 X81.377Y73.24
G1 X81.694Y73.204
G1 X81.99Y73.099
G1 X82.26Y72.934
G1 X82.507Y72.719
G1 X82.722Y72.472
G1 X82.887Y72.202
G1 X82.913Y72.13
G1 Y80.849
G1 X80.485Y83.273
G1 X79.972Y83.781
G1 X79.939Y83.557
G1 X79.836Y83.298
G1 X79.694Y83.069
G1 X79.522Y82.865
G1 X79.323Y82.688
G1 X79.153Y82.578
G1 X79.317Y82.478
G1 X79.523Y82.299
G1 X79.697Y82.088
G1 X79.836Y81.849
G1 X79.937Y81.592
G1 X79.982Y81.311
G1 X79.939Y81.017
G1 X79.836Y80.758
G1 X79.694Y80.529
G1 X79.522Y80.326
G1 X79.323Y80.149
G1 X79.153Y80.038
G1 X79.317Y79.938
G1 X79.524Y79.759
G1 X79.697Y79.548
G1 X79.836Y79.31
G1 X79.937Y79.052
G1 X79.982Y78.771
G1 X79.939Y78.478
G1 X79.836Y78.218
G1 X79.694Y77.989
G1 X79.522Y77.786
G1 X79.323Y77.609
G1 X79.146Y77.494
G1 X79.304Y77.401
G1 X79.52Y77.224
G1 X79.697Y77.009
G1 X79.836Y76.77
G1 X79.937Y76.512
G1 X79.983Y76.228
G1 X79.937Y75.943
G1 X79.836Y75.686
G0 X60.204Y92.882
G1 X60.235Y92.921
G1 Y92.931
G1 X60.219Y92.955
G1 X60.18Y92.986
G1 X60.17
G1 X60.146Y92.97
G1 X60.115Y92.931
G1 X60.132Y92.896
G1 X60.169Y92.866
G1 X60.18
G1 X60.204Y92.882
G0 X60.277Y92.814
G1 X60.319Y92.866
G1 X60.339Y92.903
G1 Y92.927
G1 Y92.937
G1 Y92.959
G1 X60.325Y92.986
G1 X60.287Y93.029
G1 X60.235Y93.07
G1 X60.197Y93.091
G1 X60.174
G1 X60.164
G1 X60.142
G1 X60.115Y93.077
G1 X60.073Y93.039
G1 X60.031Y92.986
G1 X60.01Y92.949
G1 Y92.925
G1 Y92.914
G1 Y92.894
G1 X60.024Y92.867
G1 X60.063Y92.823
G1 X60.114Y92.783
G1 X60.153Y92.762
G1 X60.176
G1 X60.194
G1 X60.207
G1 X60.234Y92.776
G1 X60.277Y92.814
G0 X60.349Y92.744
G1 X60.402Y92.811
G1 X60.432Y92.866
G1 X60.445Y92.907
G1 Y92.939
G1 Y92.967
G1 X60.433Y93.001
G1 X60.406Y93.046
G1 X60.357Y93.101
G1 X60.29Y93.154
G1 X60.235Y93.184
G1 X60.194Y93.197
G1 X60.162
G1 X60.133
G1 X60.1Y93.184
G1 X60.055Y93.157
G1 X60Y93.108
G1 X59.947Y93.041
G1 X59.917Y92.986
G1 X59.905Y92.945
G1 Y92.913
G1 Y92.885
G1 X59.917Y92.851
G1 X59.944Y92.807
G1 X59.993Y92.751
G1 X60.059Y92.699
G1 X60.115Y92.669
G1 X60.156Y92.656
G1 X60.188
G1 X60.216
G1 X60.25Y92.669
G1 X60.294Y92.695
G1 X60.349Y92.744
G0 X60.424Y92.677
G1 X60.485Y92.754
G1 X60.525Y92.827
G1 X60.544Y92.888
G1 Y92.94
G1 Y92.991
G1 X60.524Y93.044
G1 X60.487Y93.105
G1 X60.425Y93.175
G1 X60.347Y93.237
G1 X60.274Y93.276
G1 X60.213Y93.295
G1 X60.161
G1 X60.11
G1 X60.057Y93.275
G1 X59.995Y93.238
G1 X59.926Y93.176
G1 X59.864Y93.098
G1 X59.825Y93.025
G1 X59.806Y92.964
G1 Y92.912
G1 Y92.863
G1 X59.826Y92.809
G1 X59.863Y92.747
G1 X59.925Y92.678
G1 X60.004Y92.615
G1 X60.075Y92.576
G1 X60.136Y92.557
G1 X60.188
G1 X60.24
G1 X60.292Y92.577
G1 X60.354Y92.615
G1 X60.424Y92.677
G0 X60.496Y92.607
G1 X60.57Y92.7
G1 X60.617Y92.788
G1 X60.642Y92.869
G1 Y92.942
G1 Y93.014
G1 X60.615Y93.086
G1 X60.567Y93.165
G1 X60.494Y93.248
G1 X60.401Y93.321
G1 X60.313Y93.369
G1 X60.232Y93.394
G1 X60.159
G1 X60.087
G1 X60.015Y93.366
G1 X59.936Y93.319
G1 X59.853Y93.245
G1 X59.78Y93.152
G1 X59.732Y93.065
G1 X59.707Y92.984
G1 Y92.911
G1 Y92.839
G1 X59.735Y92.766
G1 X59.782Y92.688
G1 X59.856Y92.604
G1 X59.948Y92.531
G1 X60.036Y92.484
G1 X60.117Y92.459
G1 X60.19
G1 X60.262
G1 X60.334Y92.486
G1 X60.414Y92.534
G1 X60.496Y92.607
G0 X60.569Y92.538
G1 X60.653Y92.644
G1 X60.71Y92.748
G1 X60.741Y92.848
G1 Y92.944
G1 Y93.037
G1 X60.705Y93.13
G1 X60.649Y93.224
G1 X60.563Y93.321
G1 X60.457Y93.405
G1 X60.353Y93.461
G1 X60.253Y93.492
G1 X60.157
G1 X60.064
G1 X59.971Y93.457
G1 X59.877Y93.4
G1 X59.781Y93.314
G1 X59.696Y93.208
G1 X59.64Y93.104
G1 X59.609Y93.003
G1 Y92.909
G1 Y92.817
G1 X59.644Y92.722
G1 X59.701Y92.628
G1 X59.786Y92.532
G1 X59.893Y92.447
G1 X59.997Y92.391
G1 X60.097Y92.36
G1 X60.192
G1 X60.285
G1 X60.379Y92.396
G1 X60.473Y92.452
G1 X60.569Y92.538
G0 X60.642Y92.469
G1 X60.737Y92.589
G1 X60.803Y92.711
G1 X60.839Y92.828
G1 X60.85Y92.946
G1 X60.836Y93.059
G1 X60.797Y93.172
G1 X60.73Y93.284
G1 X60.632Y93.393
G1 X60.512Y93.488
G1 X60.39Y93.554
G1 X60.273Y93.591
G1 X60.156Y93.602
G1 X60.042Y93.588
G1 X59.929Y93.548
G1 X59.817Y93.481
G1 X59.708Y93.383
G1 X59.613Y93.264
G1 X59.547Y93.142
G1 X59.51Y93.024
G1 X59.499Y92.907
G1 X59.513Y92.793
G1 X59.553Y92.68
G1 X59.62Y92.569
G1 X59.717Y92.46
G1 X59.838Y92.364
G1 X59.959Y92.298
G1 X60.077Y92.262
G1 X60.194Y92.251
G1 X60.308Y92.265
G1 X60.421Y92.305
G1 X60.532Y92.371
G1 X60.642Y92.469
G0 X60.715Y92.4
G1 X60.821Y92.533
G1 X60.895Y92.671
G1 X60.938Y92.809
G1 X60.951Y92.946
G1 X60.934Y93.083
G1 X60.887Y93.215
G1 X60.81Y93.344
G1 X60.701Y93.466
G1 X60.568Y93.572
G1 X60.43Y93.647
G1 X60.292Y93.689
G1 X60.155Y93.702
G1 X60.019Y93.685
G1 X59.886Y93.639
G1 X59.757Y93.562
G1 X59.635Y93.452
G1 X59.529Y93.319
G1 X59.454Y93.181
G1 X59.412Y93.044
G1 X59.399Y92.904
G1 X59.415Y92.771
G1 X59.462Y92.637
G1 X59.54Y92.509
G1 X59.649Y92.386
G1 X59.782Y92.28
G1 X59.92Y92.206
G1 X60.057Y92.163
G1 X60.195Y92.15
G1 X60.331Y92.167
G1 X60.464Y92.214
G1 X60.593Y92.291
G1 X60.715Y92.4
G0 X60.788Y92.331
G1 X60.905Y92.479
G1 X60.988Y92.632
G1 X61.037Y92.79
G1 X61.051Y92.948
G1 X61.032Y93.105
G1 X60.979Y93.258
G1 X60.891Y93.403
G1 X60.77Y93.539
G1 X60.623Y93.656
G1 X60.469Y93.739
G1 X60.312Y93.788
G1 X60.153Y93.803
G1 X59.996Y93.783
G1 X59.843Y93.73
G1 X59.698Y93.643
G1 X59.562Y93.521
G1 X59.445Y93.374
G1 X59.362Y93.22
G1 X59.313Y93.063
G1 X59.298Y92.904
G1 X59.318Y92.747
G1 X59.371Y92.595
G1 X59.458Y92.449
G1 X59.58Y92.313
G1 X59.727Y92.196
G1 X59.881Y92.113
G1 X60.038Y92.064
G1 X60.197Y92.05
G1 X60.354Y92.069
G1 X60.506Y92.123
G1 X60.652Y92.21
G1 X60.788Y92.331
G0 X60.951Y92.15
G1 X60.776Y92.001
G1 X60.584Y91.885
G1 X60.381Y91.81
G1 X60.175Y91.783
G1 X59.969Y91.81
G1 X59.766Y91.885
G1 X59.573Y92.001
G1 X59.398Y92.15
G1 X59.25Y92.325
G1 X59.134Y92.517
G1 X59.059Y92.72
G1 X59.032Y92.926
G1 X59.059Y93.132
G1 X59.134Y93.335
G1 X59.25Y93.528
G1 X59.398Y93.703
G1 X59.573Y93.852
G1 X59.766Y93.967
G1 X59.969Y94.042
G1 X60.175Y94.069
G1 X60.375Y94.047
G1 X60.568Y93.979
G1 X60.757Y93.863
G1 X60.947Y93.698
G1 X61.111Y93.509
G1 X61.227Y93.32
G1 X61.295Y93.126
G1 X61.318Y92.926
G1 X61.291Y92.72
G1 X61.216Y92.517
G1 X61.1Y92.325
G1 X60.951Y92.15
G0 X61.022Y92.079
G1 X60.835Y91.919
G1 X60.627Y91.795
G1 X60.405Y91.712
G1 X60.175Y91.683
G1 X59.945Y91.712
G1 X59.722Y91.795
G1 X59.514Y91.919
G1 X59.327Y92.079
G1 X59.168Y92.266
G1 X59.043Y92.474
G1 X58.961Y92.697
G1 X58.931Y92.926
G1 X58.961Y93.156
G1 X59.043Y93.379
G1 X59.168Y93.586
G1 X59.327Y93.773
G1 X59.514Y93.933
G1 X59.722Y94.058
G1 X59.945Y94.14
G1 X60.174Y94.17
G1 X60.397Y94.145
G1 X60.611Y94.069
G1 X60.817Y93.944
G1 X61.017Y93.769
G1 X61.192Y93.568
G1 X61.318Y93.363
G1 X61.393Y93.149
G1 X61.418Y92.926
G1 X61.389Y92.696
G1 X61.306Y92.474
G1 X61.182Y92.266
G1 X61.022Y92.079
G0 X61.093Y92.008
G1 X60.894Y91.838
G1 X60.671Y91.704
G1 X60.429Y91.615
G1 X60.175Y91.582
G1 X59.921Y91.615
G1 X59.679Y91.704
G1 X59.456Y91.838
G1 X59.257Y92.008
G1 X59.087Y92.208
G1 X58.952Y92.43
G1 X58.863Y92.672
G1 X58.83Y92.926
G1 X58.863Y93.18
G1 X58.952Y93.422
G1 X59.087Y93.645
G1 X59.257Y93.844
G1 X59.456Y94.014
G1 X59.679Y94.148
G1 X59.921Y94.238
G1 X60.173Y94.271
G1 X60.42Y94.243
G1 X60.655Y94.16
G1 X60.876Y94.025
G1 X61.088Y93.84
G1 X61.273Y93.628
G1 X61.409Y93.406
G1 X61.491Y93.171
G1 X61.519Y92.925
G1 X61.487Y92.672
G1 X61.397Y92.43
G1 X61.263Y92.208
G1 X61.093Y92.008
G0 X61.164Y91.937
G1 X60.952Y91.757
G1 X60.714Y91.614
G1 X60.453Y91.517
G1 X60.175Y91.481
G1 X59.896Y91.517
G1 X59.635Y91.614
G1 X59.397Y91.757
G1 X59.186Y91.937
G1 X59.005Y92.149
G1 X58.862Y92.387
G1 X58.765Y92.648
G1 X58.729Y92.926
G1 X58.765Y93.204
G1 X58.862Y93.466
G1 X59.005Y93.704
G1 X59.186Y93.915
G1 X59.397Y94.096
G1 X59.635Y94.239
G1 X59.896Y94.336
G1 X60.172Y94.371
G1 X60.442Y94.341
G1 X60.698Y94.251
G1 X60.935Y94.105
G1 X61.159Y93.911
G1 X61.354Y93.687
G1 X61.5Y93.449
G1 X61.589Y93.194
G1 X61.62Y92.924
G1 X61.584Y92.648
G1 X61.487Y92.387
G1 X61.344Y92.149
G1 X61.164Y91.937
G0 X81.316Y92.921
G1 X81.337Y92.897
G1 X81.376Y92.866
G1 X81.41Y92.882
G1 X81.441Y92.921
G1 Y92.931
G1 X81.425Y92.955
G1 X81.386Y92.986
G1 X81.352Y92.97
G1 X81.321Y92.931
G0 X81.23Y92.867
G1 X81.269Y92.824
G1 X81.321Y92.782
G1 X81.359Y92.762
G1 X81.382
G1 X81.392
G1 X81.414
G1 X81.44Y92.776
G1 X81.483Y92.814
G1 X81.525Y92.866
G1 X81.545Y92.903
G1 Y92.927
G1 Y92.937
G1 Y92.959
G1 X81.532Y92.986
G1 X81.493Y93.029
G1 X81.441Y93.07
G1 X81.404Y93.091
G1 X81.38
G1 X81.362
G1 X81.348
G1 X81.322Y93.077
G1 X81.279Y93.039
G1 X81.237Y92.986
G1 X81.217Y92.949
G1 Y92.925
G1 Y92.907
G1 Y92.894
G1 X81.23Y92.867
G0 X81.15Y92.807
G1 X81.199Y92.752
G1 X81.266Y92.699
G1 X81.321Y92.669
G1 X81.362Y92.656
G1 X81.394
G1 X81.423
G1 X81.456Y92.668
G1 X81.501Y92.695
G1 X81.556Y92.744
G1 X81.609Y92.811
G1 X81.639Y92.866
G1 X81.651Y92.907
G1 Y92.939
G1 Y92.967
G1 X81.639Y93.001
G1 X81.612Y93.046
G1 X81.563Y93.101
G1 X81.497Y93.154
G1 X81.441Y93.184
G1 X81.4Y93.197
G1 X81.368
G1 X81.34
G1 X81.306Y93.184
G1 X81.261Y93.157
G1 X81.207Y93.108
G1 X81.153Y93.041
G1 X81.124Y92.986
G1 X81.111Y92.945
G1 Y92.913
G1 Y92.885
G1 X81.123Y92.851
G1 X81.15Y92.807
G0 X81.069Y92.747
G1 X81.131Y92.677
G1 X81.209Y92.616
G1 X81.282Y92.576
G1 X81.343Y92.557
G1 X81.395
G1 X81.446
G1 X81.499Y92.577
G1 X81.561Y92.615
G1 X81.63Y92.677
G1 X81.692Y92.754
G1 X81.731Y92.827
G1 X81.75Y92.888
G1 Y92.94
G1 Y92.991
G1 X81.73Y93.044
G1 X81.693Y93.105
G1 X81.631Y93.175
G1 X81.553Y93.237
G1 X81.48Y93.276
G1 X81.419Y93.295
G1 X81.367
G1 X81.316
G1 X81.264Y93.275
G1 X81.202Y93.238
G1 X81.132Y93.176
G1 X81.071Y93.098
G1 X81.031Y93.025
G1 X81.012Y92.964
G1 Y92.913
G1 Y92.862
G1 X81.032Y92.809
G1 X81.069Y92.747
G0 X80.989Y92.688
G1 X81.062Y92.605
G1 X81.155Y92.531
G1 X81.242Y92.484
G1 X81.323Y92.459
G1 X81.397
G1 X81.469
G1 X81.541Y92.486
G1 X81.62Y92.534
G1 X81.703Y92.607
G1 X81.776Y92.7
G1 X81.823Y92.788
G1 X81.849Y92.869
G1 Y92.942
G1 Y93.014
G1 X81.821Y93.086
G1 X81.774Y93.165
G1 X81.7Y93.248
G1 X81.607Y93.321
G1 X81.52Y93.369
G1 X81.439Y93.394
G1 X81.365
G1 X81.294
G1 X81.221Y93.366
G1 X81.142Y93.319
G1 X81.06Y93.245
G1 X80.986Y93.152
G1 X80.939Y93.065
G1 X80.914Y92.984
G1 Y92.911
G1 Y92.839
G1 X80.941Y92.766
G1 X80.989Y92.688
G0 X80.907Y92.628
G1 X80.993Y92.532
G1 X81.099Y92.448
G1 X81.203Y92.391
G1 X81.303Y92.36
G1 X81.398
G1 X81.491
G1 X81.585Y92.396
G1 X81.679Y92.452
G1 X81.775Y92.538
G1 X81.86Y92.644
G1 X81.916Y92.748
G1 X81.947Y92.848
G1 Y92.944
G1 Y93.037
G1 X81.912Y93.13
G1 X81.855Y93.224
G1 X81.769Y93.321
G1 X81.663Y93.405
G1 X81.559Y93.461
G1 X81.459Y93.492
G1 X81.364
G1 X81.271
G1 X81.177Y93.457
G1 X81.083Y93.4
G1 X80.987Y93.314
G1 X80.903Y93.208
G1 X80.846Y93.104
G1 X80.815Y93.004
G1 Y92.909
G1 Y92.816
G1 X80.851Y92.722
G1 X80.907Y92.628
G0 X80.826Y92.569
G1 X80.924Y92.459
G1 X81.043Y92.364
G1 X81.166Y92.298
G1 X81.283Y92.262
G1 X81.4Y92.251
G1 X81.514Y92.265
G1 X81.627Y92.304
G1 X81.739Y92.371
G1 X81.848Y92.469
G1 X81.943Y92.589
G1 X82.009Y92.711
G1 X82.046Y92.828
G1 X82.056Y92.946
G1 X82.042Y93.059
G1 X82.003Y93.172
G1 X81.936Y93.284
G1 X81.838Y93.393
G1 X81.719Y93.488
G1 X81.596Y93.554
G1 X81.479Y93.591
G1 X81.362Y93.602
G1 X81.248Y93.588
G1 X81.135Y93.548
G1 X81.024Y93.481
G1 X80.914Y93.383
G1 X80.819Y93.264
G1 X80.753Y93.142
G1 X80.717Y93.024
G1 X80.706Y92.907
G1 X80.72Y92.793
G1 X80.759Y92.68
G1 X80.826Y92.569
G0 X80.746Y92.509
G1 X80.855Y92.386
G1 X80.988Y92.28
G1 X81.126Y92.206
G1 X81.263Y92.163
G1 X81.401Y92.15
G1 X81.537Y92.167
G1 X81.67Y92.214
G1 X81.799Y92.291
G1 X81.921Y92.4
G1 X82.027Y92.533
G1 X82.102Y92.671
G1 X82.144Y92.809
G1 X82.157Y92.946
G1 X82.14Y93.083
G1 X82.094Y93.215
G1 X82.016Y93.344
G1 X81.907Y93.466
G1 X81.774Y93.572
G1 X81.636Y93.647
G1 X81.499Y93.689
G1 X81.361Y93.702
G1 X81.225Y93.685
G1 X81.092Y93.639
G1 X80.963Y93.562
G1 X80.841Y93.452
G1 X80.735Y93.319
G1 X80.661Y93.181
G1 X80.618Y93.044
G1 X80.605Y92.906
G1 X80.622Y92.77
G1 X80.668Y92.637
G1 X80.746Y92.509
G0 X80.665Y92.449
G1 X80.786Y92.313
G1 X80.933Y92.196
G1 X81.087Y92.113
G1 X81.244Y92.064
G1 X81.403Y92.05
G1 X81.56Y92.069
G1 X81.713Y92.123
G1 X81.858Y92.21
G1 X81.994Y92.331
G1 X82.111Y92.479
G1 X82.194Y92.632
G1 X82.243Y92.79
G1 X82.258Y92.948
G1 X82.238Y93.105
G1 X82.185Y93.258
G1 X82.097Y93.403
G1 X81.976Y93.539
G1 X81.829Y93.656
G1 X81.675Y93.739
G1 X81.518Y93.788
G1 X81.359Y93.803
G1 X81.202Y93.783
G1 X81.05Y93.73
G1 X80.904Y93.643
G1 X80.768Y93.521
G1 X80.651Y93.374
G1 X80.568Y93.22
G1 X80.519Y93.063
G1 X80.505Y92.904
G1 X80.524Y92.747
G1 X80.577Y92.595
G1 X80.665Y92.449
G0 X80.445Y92.344
G1 X80.329Y92.533
G1 X80.26Y92.726
G1 X80.238Y92.926
G1 X80.265Y93.132
G1 X80.34Y93.335
G1 X80.456Y93.528
G1 X80.605Y93.703
G1 X80.78Y93.852
G1 X80.972Y93.967
G1 X81.175Y94.042
G1 X81.381Y94.069
G1 X81.581Y94.047
G1 X81.774Y93.979
G1 X81.964Y93.863
G1 X82.153Y93.698
G1 X82.318Y93.509
G1 X82.433Y93.32
G1 X82.501Y93.126
G1 X82.524Y92.926
G1 X82.501Y92.726
G1 X82.433Y92.533
G1 X82.318Y92.344
G1 X82.153Y92.155
G1 X81.964Y91.99
G1 X81.774Y91.874
G1 X81.581Y91.806
G1 X81.381Y91.783
G1 X81.181Y91.806
G1 X80.988Y91.874
G1 X80.798Y91.99
G1 X80.609Y92.155
G1 X80.445Y92.344
G0 X80.364Y92.284
G1 X80.238Y92.49
G1 X80.162Y92.704
G1 X80.137Y92.927
G1 X80.167Y93.156
G1 X80.25Y93.379
G1 X80.374Y93.586
G1 X80.534Y93.774
G1 X80.721Y93.933
G1 X80.929Y94.058
G1 X81.151Y94.14
G1 X81.38Y94.17
G1 X81.604Y94.145
G1 X81.818Y94.069
G1 X82.023Y93.944
G1 X82.224Y93.769
G1 X82.398Y93.568
G1 X82.524Y93.363
G1 X82.6Y93.149
G1 X82.625Y92.926
G1 X82.6Y92.704
G1 X82.524Y92.49
G1 X82.398Y92.284
G1 X82.224Y92.084
G1 X82.023Y91.909
G1 X81.818Y91.783
G1 X81.604Y91.708
G1 X81.381Y91.683
G1 X81.158Y91.708
G1 X80.945Y91.783
G1 X80.739Y91.909
G1 X80.539Y92.084
G1 X80.364Y92.284
G0 X80.283Y92.225
G1 X80.147Y92.447
G1 X80.064Y92.681
G1 X80.037Y92.928
G1 X80.069Y93.18
G1 X80.159Y93.422
G1 X80.293Y93.645
G1 X80.463Y93.844
G1 X80.662Y94.014
G1 X80.885Y94.148
G1 X81.127Y94.238
G1 X81.379Y94.271
G1 X81.626Y94.243
G1 X81.861Y94.16
G1 X82.083Y94.025
G1 X82.295Y93.84
G1 X82.479Y93.628
G1 X82.615Y93.406
G1 X82.698Y93.171
G1 X82.725Y92.926
G1 X82.698Y92.681
G1 X82.615Y92.447
G1 X82.479Y92.225
G1 X82.295Y92.013
G1 X82.083Y91.828
G1 X81.861Y91.692
G1 X81.626Y91.61
G1 X81.381Y91.582
G1 X81.136Y91.61
G1 X80.901Y91.692
G1 X80.68Y91.828
G1 X80.468Y92.013
G1 X80.283Y92.225
G0 X80.202Y92.166
G1 X80.056Y92.403
G1 X79.966Y92.659
G1 X79.936Y92.929
G1 X79.972Y93.205
G1 X80.069Y93.466
G1 X80.211Y93.704
G1 X80.392Y93.916
G1 X80.604Y94.096
G1 X80.842Y94.239
G1 X81.103Y94.336
G1 X81.378Y94.371
G1 X81.649Y94.341
G1 X81.904Y94.251
G1 X82.142Y94.105
G1 X82.365Y93.911
G1 X82.56Y93.687
G1 X82.706Y93.449
G1 X82.796Y93.194
G1 X82.826Y92.926
G1 X82.796Y92.659
G1 X82.706Y92.404
G1 X82.56Y92.166
G1 X82.365Y91.942
G1 X82.142Y91.747
G1 X81.904Y91.602
G1 X81.649Y91.512
G1 X81.381Y91.481
G1 X81.114Y91.512
G1 X80.858Y91.602
G1 X80.62Y91.747
G1 X80.397Y91.942
G1 X80.202Y92.166
G0 X60.219Y71.621
G1 X60.18Y71.653
G1 X60.17
G1 X60.146Y71.637
G1 X60.115Y71.598
G1 X60.131Y71.564
G1 X60.169Y71.533
G1 X60.18
G1 X60.204Y71.549
G1 X60.234Y71.588
G1 X60.219Y71.621
G0 X60.287Y71.695
G1 X60.235Y71.737
G1 X60.197Y71.757
G1 X60.174
G1 X60.164
G1 X60.142
G1 X60.115Y71.744
G1 X60.072Y71.705
G1 X60.031Y71.653
G1 X60.01Y71.615
G1 Y71.592
G1 Y71.581
G1 Y71.561
G1 X60.024Y71.534
G1 X60.063Y71.49
G1 X60.115Y71.449
G1 X60.153Y71.429
G1 X60.176
G1 X60.187
G1 X60.207
G1 X60.234Y71.442
G1 X60.277Y71.481
G1 X60.319Y71.533
G1 X60.339Y71.571
G1 Y71.594
G1 Y71.604
G1 Y71.625
G1 X60.325Y71.652
G1 X60.287Y71.695
G0 X60.357Y71.768
G1 X60.29Y71.821
G1 X60.235Y71.851
G1 X60.194Y71.863
G1 X60.162
G1 X60.133
G1 X60.1Y71.851
G1 X60.055Y71.824
G1 X60Y71.775
G1 X59.947Y71.708
G1 X59.917Y71.653
G1 X59.905Y71.612
G1 Y71.58
G1 Y71.551
G1 X59.917Y71.518
G1 X59.943Y71.474
G1 X59.993Y71.418
G1 X60.059Y71.365
G1 X60.115Y71.336
G1 X60.156Y71.323
G1 X60.188
G1 X60.216
G1 X60.25Y71.336
G1 X60.294Y71.362
G1 X60.349Y71.411
G1 X60.402Y71.478
G1 X60.432Y71.533
G1 X60.445Y71.573
G1 Y71.606
G1 Y71.633
G1 X60.432Y71.669
G1 X60.406Y71.713
G1 X60.357Y71.768
G0 X60.425Y71.842
G1 X60.347Y71.904
G1 X60.274Y71.943
G1 X60.213Y71.962
G1 X60.161
G1 X60.11
G1 X60.057Y71.942
G1 X59.995Y71.905
G1 X59.926Y71.843
G1 X59.864Y71.765
G1 X59.825Y71.692
G1 X59.806Y71.631
G1 Y71.578
G1 Y71.529
G1 X59.826Y71.475
G1 X59.862Y71.415
G1 X59.925Y71.345
G1 X60.004Y71.282
G1 X60.075Y71.243
G1 X60.137Y71.224
G1 X60.189
G1 X60.239
G1 X60.292Y71.244
G1 X60.354Y71.281
G1 X60.424Y71.343
G1 X60.485Y71.421
G1 X60.525Y71.494
G1 X60.544Y71.555
G1 Y71.607
G1 Y71.658
G1 X60.524Y71.71
G1 X60.487Y71.772
G1 X60.425Y71.842
G0 X60.494Y71.915
G1 X60.401Y71.988
G1 X60.313Y72.035
G1 X60.232Y72.061
G1 X60.159
G1 X60.087
G1 X60.015Y72.033
G1 X59.936Y71.986
G1 X59.853Y71.912
G1 X59.78Y71.819
G1 X59.732Y71.732
G1 X59.707Y71.651
G1 Y71.577
G1 Y71.505
G1 X59.735Y71.432
G1 X59.781Y71.355
G1 X59.856Y71.271
G1 X59.948Y71.198
G1 X60.036Y71.151
G1 X60.117Y71.125
G1 X60.19
G1 X60.262
G1 X60.334Y71.153
G1 X60.414Y71.2
G1 X60.496Y71.274
G1 X60.57Y71.367
G1 X60.617Y71.454
G1 X60.642Y71.535
G1 Y71.608
G1 Y71.68
G1 X60.615Y71.753
G1 X60.567Y71.832
G1 X60.494Y71.915
G0 X60.563Y71.987
G1 X60.457Y72.072
G1 X60.353Y72.128
G1 X60.253Y72.159
G1 X60.157
G1 X60.064
G1 X59.971Y72.124
G1 X59.877Y72.067
G1 X59.781Y71.981
G1 X59.696Y71.875
G1 X59.64Y71.771
G1 X59.609Y71.67
G1 Y71.576
G1 Y71.483
G1 X59.644Y71.39
G1 X59.701Y71.294
G1 X59.786Y71.199
G1 X59.893Y71.114
G1 X59.997Y71.058
G1 X60.098Y71.027
G1 X60.192
G1 X60.284
G1 X60.379Y71.063
G1 X60.473Y71.119
G1 X60.569Y71.205
G1 X60.653Y71.311
G1 X60.71Y71.415
G1 X60.741Y71.515
G1 Y71.61
G1 Y71.703
G1 X60.705Y71.797
G1 X60.649Y71.891
G1 X60.563Y71.987
G0 X60.632Y72.06
G1 X60.512Y72.155
G1 X60.39Y72.221
G1 X60.273Y72.258
G1 X60.156Y72.268
G1 X60.042Y72.254
G1 X59.929Y72.215
G1 X59.817Y72.148
G1 X59.708Y72.05
G1 X59.613Y71.931
G1 X59.547Y71.808
G1 X59.51Y71.691
G1 X59.499Y71.574
G1 X59.513Y71.459
G1 X59.552Y71.348
G1 X59.62Y71.235
G1 X59.717Y71.126
G1 X59.838Y71.03
G1 X59.959Y70.965
G1 X60.077Y70.928
G1 X60.194Y70.917
G1 X60.308Y70.932
G1 X60.421Y70.971
G1 X60.532Y71.038
G1 X60.642Y71.136
G1 X60.737Y71.255
G1 X60.803Y71.378
G1 X60.839Y71.494
G1 X60.85Y71.612
G1 X60.836Y71.726
G1 X60.797Y71.839
G1 X60.73Y71.95
G1 X60.632Y72.06
G0 X60.701Y72.133
G1 X60.568Y72.239
G1 X60.43Y72.313
G1 X60.292Y72.356
G1 X60.155Y72.369
G1 X60.019Y72.352
G1 X59.886Y72.306
G1 X59.757Y72.228
G1 X59.635Y72.119
G1 X59.529Y71.986
G1 X59.454Y71.848
G1 X59.412Y71.711
G1 X59.399Y71.571
G1 X59.415Y71.438
G1 X59.462Y71.304
G1 X59.54Y71.175
G1 X59.649Y71.053
G1 X59.782Y70.947
G1 X59.92Y70.873
G1 X60.057Y70.83
G1 X60.196Y70.817
G1 X60.33Y70.833
G1 X60.464Y70.881
G1 X60.593Y70.958
G1 X60.715Y71.067
G1 X60.821Y71.2
G1 X60.895Y71.338
G1 X60.938Y71.475
G1 X60.951Y71.613
G1 X60.934Y71.748
G1 X60.887Y71.882
G1 X60.81Y72.011
G1 X60.701Y72.133
G0 X60.77Y72.206
G1 X60.623Y72.323
G1 X60.469Y72.406
G1 X60.312Y72.455
G1 X60.153Y72.469
G1 X59.996Y72.45
G1 X59.843Y72.397
G1 X59.698Y72.309
G1 X59.562Y72.188
G1 X59.445Y72.041
G1 X59.362Y71.887
G1 X59.313Y71.73
G1 X59.298Y71.571
G1 X59.318Y71.414
G1 X59.371Y71.261
G1 X59.458Y71.116
G1 X59.58Y70.98
G1 X59.727Y70.863
G1 X59.881Y70.78
G1 X60.038Y70.731
G1 X60.197Y70.716
G1 X60.354Y70.736
G1 X60.506Y70.789
G1 X60.652Y70.877
G1 X60.788Y70.998
G1 X60.905Y71.145
G1 X60.988Y71.299
G1 X61.037Y71.456
G1 X61.051Y71.615
G1 X61.032Y71.772
G1 X60.979Y71.925
G1 X60.891Y72.07
G1 X60.77Y72.206
G0 X60.947Y72.365
G1 X61.111Y72.176
G1 X61.227Y71.986
G1 X61.295Y71.793
G1 X61.318Y71.593
G1 X61.291Y71.387
G1 X61.216Y71.184
G1 X61.1Y70.991
G1 X60.951Y70.817
G1 X60.776Y70.668
G1 X60.584Y70.552
G1 X60.381Y70.477
G1 X60.175Y70.45
G1 X59.969Y70.477
G1 X59.766Y70.552
G1 X59.573Y70.668
G1 X59.398Y70.817
G1 X59.25Y70.991
G1 X59.134Y71.184
G1 X59.059Y71.387
G1 X59.032Y71.593
G1 X59.059Y71.799
G1 X59.134Y72.002
G1 X59.25Y72.195
G1 X59.398Y72.369
G1 X59.573Y72.518
G1 X59.766Y72.634
G1 X59.969Y72.709
G1 X60.175Y72.736
G1 X60.375Y72.713
G1 X60.568Y72.645
G1 X60.757Y72.53
G1 X60.947Y72.365
G0 X61.017Y72.436
G1 X61.192Y72.235
G1 X61.318Y72.03
G1 X61.393Y71.816
G1 X61.418Y71.592
G1 X61.389Y71.363
G1 X61.306Y71.14
G1 X61.182Y70.933
G1 X61.022Y70.746
G1 X60.835Y70.586
G1 X60.627Y70.461
G1 X60.405Y70.379
G1 X60.175Y70.349
G1 X59.945Y70.379
G1 X59.722Y70.461
G1 X59.514Y70.586
G1 X59.327Y70.746
G1 X59.168Y70.933
G1 X59.043Y71.14
G1 X58.961Y71.363
G1 X58.931Y71.593
G1 X58.961Y71.823
G1 X59.043Y72.045
G1 X59.168Y72.253
G1 X59.327Y72.44
G1 X59.514Y72.6
G1 X59.722Y72.725
G1 X59.945Y72.807
G1 X60.174Y72.837
G1 X60.397Y72.812
G1 X60.611Y72.736
G1 X60.817Y72.61
G1 X61.017Y72.436
G0 X61.088Y72.507
G1 X61.273Y72.294
G1 X61.409Y72.073
G1 X61.491Y71.838
G1 X61.519Y71.591
G1 X61.487Y71.339
G1 X61.397Y71.097
G1 X61.263Y70.874
G1 X61.093Y70.675
G1 X60.894Y70.505
G1 X60.671Y70.371
G1 X60.429Y70.281
G1 X60.175Y70.249
G1 X59.921Y70.281
G1 X59.679Y70.371
G1 X59.456Y70.505
G1 X59.257Y70.675
G1 X59.087Y70.874
G1 X58.952Y71.097
G1 X58.863Y71.339
G1 X58.83Y71.593
G1 X58.863Y71.847
G1 X58.952Y72.089
G1 X59.087Y72.312
G1 X59.257Y72.511
G1 X59.456Y72.681
G1 X59.679Y72.815
G1 X59.921Y72.905
G1 X60.173Y72.937
G1 X60.42Y72.91
G1 X60.655Y72.827
G1 X60.876Y72.691
G1 X61.088Y72.507
G0 X61.159Y72.577
G1 X61.354Y72.354
G1 X61.5Y72.116
G1 X61.589Y71.861
G1 X61.62Y71.591
G1 X61.584Y71.315
G1 X61.487Y71.053
G1 X61.344Y70.815
G1 X61.164Y70.604
G1 X60.952Y70.423
G1 X60.714Y70.28
G1 X60.453Y70.184
G1 X60.175Y70.148
G1 X59.897Y70.184
G1 X59.635Y70.28
G1 X59.397Y70.423
G1 X59.186Y70.604
G1 X59.005Y70.815
G1 X58.862Y71.053
G1 X58.765Y71.315
G1 X58.729Y71.593
G1 X58.765Y71.871
G1 X58.862Y72.132
G1 X59.005Y72.371
G1 X59.186Y72.582
G1 X59.397Y72.763
G1 X59.635Y72.906
G1 X59.896Y73.002
G1 X60.172Y73.038
G1 X60.442Y73.008
G1 X60.698Y72.918
G1 X60.935Y72.772
G1 X61.159Y72.577
G0 X81.316Y71.588
G1 X81.337Y71.564
G1 X81.376Y71.533
G1 X81.41Y71.55
G1 X81.441Y71.588
G1 X81.426Y71.621
G1 X81.386Y71.653
G1 X81.352Y71.637
G1 X81.321Y71.598
G0 X81.23Y71.534
G1 X81.269Y71.491
G1 X81.321Y71.449
G1 X81.359Y71.429
G1 X81.382
G1 X81.393
G1 X81.414
G1 X81.44Y71.442
G1 X81.484Y71.481
G1 X81.525Y71.532
G1 X81.545Y71.571
G1 Y71.594
G1 Y71.604
G1 Y71.625
G1 X81.532Y71.652
G1 X81.493Y71.695
G1 X81.441Y71.737
G1 X81.404Y71.757
G1 X81.38
G1 X81.362
G1 X81.348
G1 X81.322Y71.744
G1 X81.278Y71.705
G1 X81.237Y71.653
G1 X81.217Y71.615
G1 Y71.592
G1 Y71.574
G1 Y71.56
G1 X81.23Y71.534
G0 X81.15Y71.473
G1 X81.199Y71.418
G1 X81.266Y71.365
G1 X81.321Y71.335
G1 X81.362Y71.323
G1 X81.394
G1 X81.423
G1 X81.456Y71.335
G1 X81.501Y71.362
G1 X81.556Y71.411
G1 X81.609Y71.477
G1 X81.638Y71.533
G1 X81.651Y71.573
G1 Y71.606
G1 Y71.633
G1 X81.638Y71.669
G1 X81.612Y71.713
G1 X81.563Y71.768
G1 X81.497Y71.821
G1 X81.441Y71.851
G1 X81.4Y71.863
G1 X81.368
G1 X81.34
G1 X81.306Y71.851
G1 X81.261Y71.824
G1 X81.207Y71.775
G1 X81.154Y71.708
G1 X81.124Y71.653
G1 X81.111Y71.612
G1 Y71.58
G1 Y71.552
G1 X81.123Y71.518
G1 X81.15Y71.473
G0 X81.069Y71.414
G1 X81.131Y71.344
G1 X81.209Y71.282
G1 X81.282Y71.243
G1 X81.343Y71.224
G1 X81.396
G1 X81.445
G1 X81.499Y71.244
G1 X81.561Y71.281
G1 X81.629Y71.343
G1 X81.692Y71.422
G1 X81.731Y71.493
G1 X81.75Y71.555
G1 Y71.607
G1 Y71.658
G1 X81.73Y71.71
G1 X81.693Y71.772
G1 X81.631Y71.842
G1 X81.553Y71.904
G1 X81.48Y71.943
G1 X81.419Y71.962
G1 X81.367
G1 X81.316
G1 X81.264Y71.942
G1 X81.202Y71.905
G1 X81.132Y71.843
G1 X81.071Y71.765
G1 X81.031Y71.692
G1 X81.012Y71.631
G1 Y71.579
G1 Y71.528
G1 X81.032Y71.475
G1 X81.069Y71.414
G0 X80.989Y71.354
G1 X81.062Y71.271
G1 X81.155Y71.198
G1 X81.242Y71.151
G1 X81.323Y71.125
G1 X81.397
G1 X81.469
G1 X81.541Y71.153
G1 X81.62Y71.2
G1 X81.703Y71.275
G1 X81.776Y71.366
G1 X81.823Y71.454
G1 X81.849Y71.535
G1 Y71.608
G1 Y71.68
G1 X81.821Y71.753
G1 X81.774Y71.832
G1 X81.7Y71.915
G1 X81.607Y71.988
G1 X81.52Y72.035
G1 X81.439Y72.061
G1 X81.365
G1 X81.294
G1 X81.221Y72.033
G1 X81.142Y71.986
G1 X81.06Y71.912
G1 X80.986Y71.819
G1 X80.939Y71.732
G1 X80.914Y71.651
G1 Y71.577
G1 Y71.505
G1 X80.941Y71.433
G1 X80.989Y71.354
G0 X80.907Y71.295
G1 X80.993Y71.198
G1 X81.099Y71.115
G1 X81.203Y71.058
G1 X81.304Y71.027
G1 X81.398
G1 X81.49
G1 X81.585Y71.063
G1 X81.679Y71.119
G1 X81.775Y71.205
G1 X81.86Y71.311
G1 X81.916Y71.414
G1 X81.947Y71.515
G1 Y71.61
G1 Y71.703
G1 X81.912Y71.797
G1 X81.855Y71.891
G1 X81.769Y71.987
G1 X81.663Y72.072
G1 X81.559Y72.128
G1 X81.459Y72.159
G1 X81.364
G1 X81.271
G1 X81.177Y72.124
G1 X81.083Y72.067
G1 X80.987Y71.981
G1 X80.903Y71.875
G1 X80.846Y71.771
G1 X80.815Y71.671
G1 Y71.575
G1 Y71.483
G1 X80.851Y71.389
G1 X80.907Y71.295
G0 X80.826Y71.236
G1 X80.924Y71.126
G1 X81.043Y71.031
G1 X81.166Y70.965
G1 X81.283Y70.928
G1 X81.4Y70.917
G1 X81.514Y70.932
G1 X81.627Y70.971
G1 X81.739Y71.038
G1 X81.848Y71.135
G1 X81.944Y71.256
G1 X82.009Y71.377
G1 X82.045Y71.494
G1 X82.056Y71.612
G1 X82.042Y71.726
G1 X82.003Y71.839
G1 X81.936Y71.95
G1 X81.838Y72.06
G1 X81.719Y72.155
G1 X81.596Y72.221
G1 X81.479Y72.258
G1 X81.362Y72.268
G1 X81.248Y72.254
G1 X81.135Y72.215
G1 X81.024Y72.148
G1 X80.914Y72.05
G1 X80.819Y71.931
G1 X80.753Y71.808
G1 X80.717Y71.691
G1 X80.706Y71.574
G1 X80.72Y71.46
G1 X80.759Y71.347
G1 X80.826Y71.236
G0 X80.746Y71.175
G1 X80.855Y71.053
G1 X80.988Y70.947
G1 X81.126Y70.873
G1 X81.263Y70.83
G1 X81.402Y70.817
G1 X81.536Y70.833
G1 X81.67Y70.88
G1 X81.799Y70.958
G1 X81.921Y71.067
G1 X82.027Y71.2
G1 X82.102Y71.338
G1 X82.144Y71.475
G1 X82.157Y71.613
G1 X82.14Y71.748
G1 X82.094Y71.882
G1 X82.016Y72.011
G1 X81.907Y72.133
G1 X81.774Y72.239
G1 X81.636Y72.313
G1 X81.499Y72.356
G1 X81.361Y72.369
G1 X81.225Y72.352
G1 X81.092Y72.306
G1 X80.963Y72.228
G1 X80.841Y72.119
G1 X80.735Y71.986
G1 X80.661Y71.848
G1 X80.618Y71.711
G1 X80.605Y71.573
G1 X80.622Y71.437
G1 X80.668Y71.304
G1 X80.746Y71.175
G0 X80.665Y71.116
G1 X80.786Y70.98
G1 X80.933Y70.863
G1 X81.087Y70.78
G1 X81.244Y70.731
G1 X81.403Y70.716
G1 X81.56Y70.736
G1 X81.713Y70.789
G1 X81.858Y70.877
G1 X81.994Y70.998
G1 X82.111Y71.145
G1 X82.194Y71.299
G1 X82.243Y71.456
G1 X82.258Y71.615
G1 X82.238Y71.772
G1 X82.185Y71.925
G1 X82.097Y72.07
G1 X81.976Y72.206
G1 X81.829Y72.323
G1 X81.675Y72.406
G1 X81.518Y72.455
G1 X81.359Y72.469
G1 X81.202Y72.45
G1 X81.05Y72.397
G1 X80.904Y72.309
G1 X80.768Y72.188
G1 X80.651Y72.041
G1 X80.568Y71.887
G1 X80.519Y71.73
G1 X80.505Y71.571
G1 X80.524Y71.414
G1 X80.577Y71.261
G1 X80.665Y71.116
G0 X80.445Y71.01
G1 X80.329Y71.2
G1 X80.26Y71.393
G1 X80.238Y71.593
G1 X80.265Y71.799
G1 X80.34Y72.002
G1 X80.456Y72.195
G1 X80.605Y72.369
G1 X80.78Y72.518
G1 X80.972Y72.634
G1 X81.175Y72.709
G1 X81.381Y72.736
G1 X81.581Y72.713
G1 X81.774Y72.645
G1 X81.964Y72.53
G1 X82.153Y72.365
G1 X82.318Y72.176
G1 X82.433Y71.986
G1 X82.501Y71.793
G1 X82.524Y71.593
G1 X82.501Y71.393
G1 X82.433Y71.2
G1 X82.318Y71.01
G1 X82.153Y70.821
G1 X81.964Y70.656
G1 X81.774Y70.541
G1 X81.581Y70.472
G1 X81.381Y70.45
G1 X81.181Y70.472
G1 X80.988Y70.541
G1 X80.798Y70.656
G1 X80.609Y70.821
G1 X80.445Y71.01
G0 X80.364Y70.951
G1 X80.238Y71.156
G1 X80.162Y71.37
G1 X80.137Y71.594
G1 X80.167Y71.823
G1 X80.25Y72.045
G1 X80.374Y72.253
G1 X80.534Y72.44
G1 X80.721Y72.6
G1 X80.929Y72.725
G1 X81.151Y72.807
G1 X81.38Y72.837
G1 X81.604Y72.812
G1 X81.818Y72.736
G1 X82.023Y72.61
G1 X82.224Y72.436
G1 X82.398Y72.235
G1 X82.524Y72.03
G1 X82.6Y71.816
G1 X82.625Y71.593
G1 X82.6Y71.37
G1 X82.524Y71.156
G1 X82.398Y70.951
G1 X82.224Y70.75
G1 X82.023Y70.576
G1 X81.818Y70.45
G1 X81.604Y70.374
G1 X81.381Y70.35
G1 X81.158Y70.374
G1 X80.945Y70.45
G1 X80.739Y70.576
G1 X80.539Y70.75
G1 X80.364Y70.951
G0 X80.283Y70.892
G1 X80.147Y71.113
G1 X80.064Y71.348
G1 X80.037Y71.595
G1 X80.069Y71.847
G1 X80.159Y72.089
G1 X80.293Y72.312
G1 X80.463Y72.511
G1 X80.662Y72.681
G1 X80.885Y72.815
G1 X81.127Y72.905
G1 X81.379Y72.937
G1 X81.626Y72.91
G1 X81.861Y72.827
G1 X82.083Y72.691
G1 X82.295Y72.506
G1 X82.479Y72.294
G1 X82.615Y72.073
G1 X82.698Y71.838
G1 X82.725Y71.593
G1 X82.698Y71.348
G1 X82.615Y71.113
G1 X82.479Y70.892
G1 X82.295Y70.679
G1 X82.083Y70.495
G1 X81.861Y70.359
G1 X81.626Y70.276
G1 X81.381Y70.249
G1 X81.136Y70.276
G1 X80.901Y70.359
G1 X80.68Y70.495
G1 X80.468Y70.679
G1 X80.283Y70.892
G0 X80.202Y70.832
G1 X80.056Y71.07
G1 X79.966Y71.325
G1 X79.936Y71.596
G1 X79.972Y71.871
G1 X80.069Y72.132
G1 X80.211Y72.37
G1 X80.392Y72.582
G1 X80.604Y72.763
G1 X80.842Y72.906
G1 X81.103Y73.002
G1 X81.379Y73.038
G1 X81.649Y73.008
G1 X81.904Y72.918
G1 X82.142Y72.772
G1 X82.365Y72.577
G1 X82.56Y72.354
G1 X82.706Y72.116
G1 X82.796Y71.861
G1 X82.826Y71.593
G1 X82.796Y71.325
G1 X82.706Y71.07
G1 X82.56Y70.832
G1 X82.365Y70.609
G1 X82.142Y70.414
G1 X81.904Y70.268
G1 X81.649Y70.178
G1 X81.381Y70.148
G1 X81.114Y70.178
G1 X80.858Y70.268
G1 X80.62Y70.414
G1 X80.397Y70.609
G1 X80.202Y70.832
G0 X52.623Y111.711
G1 Y111.732
G1 Y111.794
G1 X52.602
G1 X52.574Y111.777
G1 X52.56Y111.755
G1 X52.579Y111.732
G1 X52.6Y111.719
G1 X52.623
G0 X52.605Y111.612
G1 X52.657
G1 X52.681
G1 X52.705Y111.636
G1 X52.73Y111.718
G1 Y111.822
G1 X52.703Y111.869
G1 X52.651Y111.896
G1 X52.573
G1 X52.502Y111.852
G1 X52.459Y111.78
G1 Y111.757
G1 Y111.722
G1 X52.483Y111.687
G1 X52.515Y111.654
G1 X52.558Y111.628
G1 X52.605Y111.612
G0 X52.587Y111.513
G1 X52.664
G1 X52.73
G1 X52.793Y111.582
G1 X52.831Y111.706
G1 Y111.847
G1 X52.777Y111.942
G1 X52.673Y111.997
G1 X52.545
G1 X52.43Y111.926
G1 X52.362Y111.813
G1 Y111.75
G1 Y111.687
G1 X52.403Y111.627
G1 X52.451Y111.576
G1 X52.515Y111.537
G1 X52.587Y111.513
G0 X52.568Y111.414
G1 X52.672
G1 X52.778Y111.43
G1 X52.881Y111.527
G1 X52.931Y111.692
G1 Y111.873
G1 X52.852Y112.016
G1 X52.695Y112.098
G1 X52.516
G1 X52.359Y112
G1 X52.264Y111.845
G1 Y111.745
G1 X52.275Y111.651
G1 X52.321Y111.567
G1 X52.388Y111.497
G1 X52.472Y111.445
G1 X52.568Y111.414
G0 Y111.188
G1 X52.409Y111.249
G1 X52.248Y111.354
G1 X52.145Y111.437
G1 X52.07Y111.505
G1 X52.021Y111.566
G1 X51.996Y111.626
G1 Y111.691
G1 X52.015Y111.768
G1 X52.056Y111.863
G1 X52.116Y111.982
G1 X52.203Y112.118
G1 X52.308Y112.224
G1 X52.425Y112.301
G1 X52.55Y112.346
G1 X52.679Y112.36
G1 X52.807Y112.34
G1 X52.93Y112.286
G1 X53.044Y112.197
G1 X53.102Y112.106
G1 X53.145Y111.977
G1 X53.167Y111.826
G1 Y111.671
G1 X53.128Y111.497
G1 X53.061Y111.358
G1 X52.966Y111.257
G1 X52.85Y111.193
G1 X52.715Y111.17
G1 X52.567Y111.188
G0 X52.542Y111.09
G1 X52.364Y111.16
G1 X52.189Y111.273
G1 X52.08Y111.361
G1 X51.997Y111.437
G1 X51.934Y111.515
G1 X51.897Y111.605
G1 Y111.703
G1 X51.92Y111.801
G1 X51.965Y111.905
G1 X52.029Y112.032
G1 X52.125Y112.181
G1 X52.244Y112.302
G1 X52.38Y112.391
G1 X52.528Y112.445
G1 X52.682Y112.461
G1 X52.836Y112.437
G1 X52.982Y112.372
G1 X53.119Y112.265
G1 X53.193Y112.149
G1 X53.242Y112
G1 X53.267Y111.833
G1 Y111.66
G1 X53.223Y111.464
G1 X53.144Y111.301
G1 X53.028Y111.177
G1 X52.883Y111.098
G1 X52.717Y111.069
G1 X52.542Y111.09
G0 X52.518Y110.992
G1 X52.318Y111.07
G1 X52.13Y111.192
G1 X52.015Y111.285
G1 X51.924Y111.368
G1 X51.847Y111.463
G1 X51.797Y111.584
G1 Y111.715
G1 X51.825Y111.834
G1 X51.874Y111.948
G1 X51.942Y112.082
G1 X52.046Y112.243
G1 X52.18Y112.38
G1 X52.335Y112.481
G1 X52.505Y112.543
G1 X52.684Y112.562
G1 X52.864Y112.533
G1 X53.034Y112.459
G1 X53.194Y112.333
G1 X53.284Y112.193
G1 X53.34Y112.023
G1 X53.367Y111.839
G1 Y111.648
G1 X53.319Y111.431
G1 X53.227Y111.244
G1 X53.09Y111.096
G1 X52.916Y111.002
G1 X52.72Y110.968
G1 X52.518Y110.992
G0 X52.493Y110.895
G1 X52.272Y110.981
G1 X52.071Y111.111
G1 X51.95Y111.209
G1 X51.851Y111.299
G1 X51.76Y111.412
G1 X51.698Y111.563
G1 Y111.726
G1 X51.73Y111.866
G1 X51.784Y111.99
G1 X51.855Y112.131
G1 X51.968Y112.306
G1 X52.116Y112.458
G1 X52.29Y112.571
G1 X52.482Y112.641
G1 X52.687Y112.662
G1 X52.892Y112.63
G1 X53.086Y112.545
G1 X53.269Y112.402
G1 X53.375Y112.236
G1 X53.438Y112.046
G1 X53.467Y111.846
G1 Y111.637
G1 X53.414Y111.399
G1 X53.311Y111.187
G1 X53.152Y111.016
G1 X52.949Y110.906
G1 X52.722Y110.867
G1 X52.493Y110.895
G0 X52.469Y110.797
G1 X52.226Y110.891
G1 X52.012Y111.03
G1 X51.885Y111.133
G1 X51.778Y111.231
G1 X51.673Y111.36
G1 X51.598Y111.542
G1 Y111.738
G1 X51.636Y111.899
G1 X51.693Y112.032
G1 X51.768Y112.181
G1 X51.889Y112.369
G1 X52.052Y112.535
G1 X52.245Y112.661
G1 X52.46Y112.739
G1 X52.689Y112.763
G1 X52.92Y112.727
G1 X53.137Y112.632
G1 X53.344Y112.47
G1 X53.467Y112.28
G1 X53.535Y112.069
G1 X53.567Y111.853
G1 Y111.626
G1 X53.51Y111.366
G1 X53.394Y111.129
G1 X53.214Y110.936
G1 X52.983Y110.811
G1 X52.725Y110.766
G1 X52.469Y110.797
G0 X78.48Y73.791
G1 X78.451Y73.768
G1 X78.431Y73.735
G1 Y73.701
G1 Y73.666
G1 X78.479Y73.598
G1 X78.51Y73.572
G1 X78.609Y73.658
G1 X78.633Y73.716
G1 X78.621Y73.738
G1 X78.6Y73.76
G1 X78.535Y73.796
G1 X78.506
G1 X78.48
G0 X78.432Y73.88
G1 X78.375Y73.834
G1 X78.336Y73.771
G1 X78.323Y73.701
G1 X78.339Y73.625
G1 X78.404Y73.531
G1 X78.472Y73.473
G1 X78.499Y73.462
G1 X78.516
G1 X78.573Y73.49
G1 X78.692Y73.598
G1 X78.735Y73.699
G1 Y73.722
G1 Y73.758
G1 X78.701Y73.799
G1 X78.661Y73.84
G1 X78.566Y73.893
G1 X78.496
G1 X78.432Y73.88
G0 X78.384Y73.97
G1 X78.299Y73.902
G1 X78.241Y73.808
G1 X78.221Y73.699
G1 X78.245Y73.584
G1 X78.33Y73.462
G1 X78.419Y73.387
G1 X78.484Y73.36
G1 X78.542
G1 X78.629Y73.407
G1 X78.775Y73.539
G1 X78.835Y73.677
G1 Y73.735
G1 X78.818Y73.797
G1 X78.781Y73.861
G1 X78.724Y73.919
G1 X78.597Y73.991
G1 X78.485Y74.002
G1 X78.384Y73.97
G0 X78.335Y74.059
G1 X78.222Y73.969
G1 X78.146Y73.844
G1 X78.119Y73.698
G1 X78.152Y73.544
G1 X78.255Y73.395
G1 X78.367Y73.3
G1 X78.467Y73.258
G1 X78.569
G1 X78.685Y73.323
G1 X78.858Y73.479
G1 X78.935Y73.657
G1 Y73.748
G1 X78.911Y73.837
G1 X78.861Y73.922
G1 X78.785Y74
G1 X78.628Y74.088
G1 X78.474Y74.104
G1 X78.335Y74.059
G0 X78.03Y74.45
G1 X78.2Y74.549
G1 X78.372Y74.616
G1 X78.524Y74.641
G1 X78.676Y74.616
G1 X78.848Y74.549
G1 X79.018Y74.45
G1 X79.165Y74.329
G1 X79.286Y74.182
G1 X79.385Y74.012
G1 X79.452Y73.841
G1 X79.476Y73.688
G1 X79.452Y73.536
G1 X79.385Y73.364
G1 X79.286Y73.195
G1 X79.165Y73.048
G1 X79.018Y72.927
G1 X78.848Y72.827
G1 X78.676Y72.76
G1 X78.524Y72.736
G1 X78.372Y72.76
G1 X78.2Y72.827
G1 X78.03Y72.927
G1 X77.883Y73.048
G1 X77.762Y73.195
G1 X77.663Y73.364
G1 X77.596Y73.536
G1 X77.572Y73.688
G1 X77.596Y73.841
G1 X77.663Y74.012
G1 X77.762Y74.182
G1 X77.883Y74.329
G1 X78.03Y74.45
G0 X77.973Y74.532
G1 X78.156Y74.639
G1 X78.345Y74.713
G1 X78.524Y74.742
G1 X78.703Y74.713
G1 X78.892Y74.639
G1 X79.075Y74.532
G1 X79.236Y74.4
G1 X79.368Y74.239
G1 X79.475Y74.056
G1 X79.549Y73.867
G1 X79.578Y73.688
G1 X79.549Y73.51
G1 X79.475Y73.321
G1 X79.368Y73.137
G1 X79.236Y72.977
G1 X79.075Y72.844
G1 X78.892Y72.737
G1 X78.703Y72.664
G1 X78.524Y72.635
G1 X78.345Y72.664
G1 X78.156Y72.737
G1 X77.973Y72.844
G1 X77.812Y72.977
G1 X77.68Y73.137
G1 X77.573Y73.321
G1 X77.499Y73.51
G1 X77.47Y73.688
G1 X77.499Y73.867
G1 X77.573Y74.056
G1 X77.68Y74.239
G1 X77.812Y74.4
G1 X77.973Y74.532
G0 X77.916Y74.615
G1 X78.113Y74.73
G1 X78.319Y74.81
G1 X78.524Y74.843
G1 X78.729Y74.81
G1 X78.935Y74.73
G1 X79.132Y74.615
G1 X79.307Y74.471
G1 X79.45Y74.297
G1 X79.565Y74.1
G1 X79.646Y73.894
G1 X79.679Y73.688
G1 X79.646Y73.483
G1 X79.565Y73.277
G1 X79.45Y73.08
G1 X79.307Y72.906
G1 X79.132Y72.762
G1 X78.935Y72.647
G1 X78.729Y72.566
G1 X78.524Y72.533
G1 X78.319Y72.566
G1 X78.113Y72.647
G1 X77.916Y72.762
G1 X77.741Y72.906
G1 X77.598Y73.08
G1 X77.482Y73.277
G1 X77.402Y73.483
G1 X77.369Y73.688
G1 X77.402Y73.894
G1 X77.482Y74.1
G1 X77.598Y74.297
G1 X77.741Y74.471
G1 X77.916Y74.615
G0 X77.858Y74.697
G1 X78.069Y74.82
G1 X78.292Y74.907
G1 X78.524Y74.945
G1 X78.756Y74.907
G1 X78.979Y74.82
G1 X79.19Y74.697
G1 X79.378Y74.542
G1 X79.532Y74.354
G1 X79.656Y74.143
G1 X79.743Y73.92
G1 X79.78Y73.688
G1 X79.743Y73.457
G1 X79.656Y73.233
G1 X79.532Y73.022
G1 X79.378Y72.834
G1 X79.19Y72.68
G1 X78.979Y72.556
G1 X78.756Y72.469
G1 X78.524Y72.432
G1 X78.292Y72.469
G1 X78.069Y72.556
G1 X77.858Y72.68
G1 X77.67Y72.834
G1 X77.515Y73.022
G1 X77.392Y73.233
G1 X77.305Y73.457
G1 X77.268Y73.688
G1 X77.305Y73.92
G1 X77.392Y74.143
G1 X77.515Y74.354
G1 X77.67Y74.542
G1 X77.858Y74.697
G0 X58.144Y77.687
G1 X58.069Y77.74
G1 X57.826Y77.728
G1 Y77.702
G1 X57.909
G1 X58.144Y77.687
G0 X58.165Y77.585
G1 X58.472
G1 X58.586
G1 X58.521Y77.597
G1 X58.274Y77.717
G1 X58.125Y77.823
G1 X58.086Y77.849
G1 X57.698Y77.818
G1 X57.72Y77.764
G1 X57.744Y77.607
G1 X57.907Y77.596
G1 X58.165Y77.585
G0 Y77.486
G1 X58.471
G1 X58.849Y77.475
G1 X60.19
G1 X60.891
G1 X61.182
G1 X61.425
G1 X61.629Y77.49
G1 X61.807
G1 X61.852Y77.502
G1 X61.83
G1 X61.538Y77.516
G1 X61.154
G1 X60.133
G1 X59.715Y77.531
G1 X59.371Y77.545
G1 X59.079Y77.571
G1 X58.812Y77.614
G1 X58.557Y77.69
G1 X58.325Y77.803
G1 X58.181Y77.906
G1 X58.112Y77.951
G1 X57.656Y77.915
G1 X57.542Y77.939
G1 X57.623Y77.738
G1 X57.656Y77.515
G1 X57.693
G1 X57.904Y77.496
G1 X58.158Y77.486
G0 Y77.385
G1 X58.47
G1 X58.848Y77.375
G1 X60.19
G1 X60.892
G1 X61.178
G1 X61.429
G1 X61.637Y77.39
G1 X61.808
G1 X61.945Y77.408
G1 X62.127Y77.431
G1 X62.202Y77.45
G1 X62.219
G1 X62.276Y77.497
G1 X62.211Y77.543
G1 X62.193
G1 X62.146Y77.567
G1 X62.034Y77.586
G1 X61.838Y77.603
G1 X61.544Y77.615
G1 X61.146
G1 X60.134Y77.625
G1 X59.718
G1 X59.377Y77.645
G1 X59.091Y77.67
G1 X58.835Y77.712
G1 X58.594Y77.783
G1 X58.377Y77.89
G1 X58.239Y77.987
G1 X58.155Y78.043
G1 X58.141
G1 X58.114
G1 X57.663Y78.016
G1 X57.369Y78.077
G1 X57.396Y78.034
G1 X57.526Y77.711
G1 X57.569Y77.425
G1 X57.691Y77.411
G1 X57.893Y77.396
G1 X58.164Y77.385
G0 Y77.286
G1 X58.476
G1 X58.841Y77.274
G1 X60.19
G1 X60.898
G1 X61.18
G1 X61.433
G1 X61.635Y77.29
G1 X61.821
G1 X61.95Y77.308
G1 X62.147Y77.333
G1 X62.235Y77.355
G1 X62.27Y77.372
G1 X62.455Y77.499
G1 X62.342Y77.573
G1 X62.263Y77.629
G1 X62.23Y77.645
G1 X62.171Y77.664
G1 X62.046Y77.686
G1 X61.845Y77.703
G1 X61.54Y77.716
G1 X61.155
G1 X60.135
G1 X59.721Y77.731
G1 X59.384Y77.745
G1 X59.103Y77.769
G1 X58.857Y77.81
G1 X58.63Y77.877
G1 X58.428Y77.976
G1 X58.296Y78.069
G1 X58.2Y78.133
G1 X58.165Y78.146
G1 X58.118
G1 X57.669Y78.117
G1 X57.302Y78.193
G1 X57.078Y78.328
G1 X57.139Y78.256
G1 X57.306Y77.989
G1 X57.429Y77.685
G1 X57.471Y77.401
G1 Y77.338
G1 X57.515
G1 X57.678Y77.311
G1 X57.89Y77.297
G1 X58.16Y77.286
G0 Y77.186
G1 X58.468
G1 X58.846Y77.175
G1 X60.191
G1 X60.895
G1 X61.182
G1 X61.435
G1 X61.639Y77.19
G1 X61.822
G1 X61.961Y77.209
G1 X62.166Y77.235
G1 X62.269Y77.261
G1 X62.319Y77.284
G1 X62.591Y77.472
G1 X62.653Y77.501
G1 X62.583Y77.534
G1 X62.398Y77.656
G1 X62.315Y77.715
G1 X62.268Y77.738
G1 X62.193Y77.761
G1 X62.059Y77.785
G1 X61.848Y77.803
G1 X61.555Y77.815
G1 X61.149
G1 X60.136
G1 X59.724Y77.832
G1 X59.39Y77.845
G1 X59.116Y77.868
G1 X58.879Y77.907
G1 X58.667Y77.97
G1 X58.479Y78.062
G1 X58.352Y78.152
G1 X58.246Y78.223
G1 X58.19Y78.244
G1 X58.12
G1 X57.676Y78.218
G1 X57.339Y78.288
G1 X57.044Y78.465
G1 X56.934Y78.565
G1 Y78.343
G1 X57.058Y78.197
G1 X57.217Y77.943
G1 X57.332Y77.658
G1 X57.372Y77.391
G1 Y77.255
G1 X57.389
G1 X57.5Y77.231
G1 X57.671Y77.211
G1 X57.888Y77.196
G1 X58.153Y77.186
G0 Y77.086
G1 X58.471
G1 X58.845Y77.074
G1 X60.191
G1 X60.896
G1 X61.184
G1 X61.432
G1 X61.646Y77.09
G1 X61.832
G1 X61.972Y77.109
G1 X62.185Y77.136
G1 X62.301Y77.166
G1 X62.368Y77.197
G1 X62.642Y77.385
G1 X62.865Y77.491
G1 X62.901
G1 X62.848Y77.518
G1 X62.632Y77.621
G1 X62.454Y77.739
G1 X62.367Y77.8
G1 X62.305Y77.832
G1 X62.216Y77.859
G1 X62.074Y77.884
G1 X61.855Y77.903
G1 X61.551Y77.915
G1 X61.151
G1 X60.137Y77.925
G1 X59.727
G1 X59.396Y77.945
G1 X59.128Y77.968
G1 X58.902Y78.005
G1 X58.703Y78.064
G1 X58.53Y78.148
G1 X58.408Y78.235
G1 X58.293Y78.312
G1 X58.214Y78.342
G1 X58.121Y78.353
G1 X57.682Y78.318
G1 X57.376Y78.382
G1 X57.104Y78.545
G1 X56.847Y78.779
G1 X56.833Y78.795
G1 Y78.407
G1 X56.717Y78.423
G1 X56.794Y78.354
G1 X56.977Y78.138
G1 X57.127Y77.898
G1 X57.234Y77.632
G1 X57.272Y77.381
G1 Y77.195
G1 X57.285Y77.178
G1 X57.364Y77.155
G1 X57.488Y77.132
G1 X57.664Y77.112
G1 X57.876Y77.097
G1 X58.147Y77.086
G0 X56.037Y75.425
G1 X55.963
G1 X56.037
G0 X56.064Y75.529
G1 X55.671Y75.509
G1 X55.758Y75.334
G1 X55.905
G1 X56.158Y75.322
G1 X56.339
G1 X56.175Y75.448
G1 X56.064Y75.529
G0 X56.116Y75.615
G1 X56.082Y75.631
G1 X56.065
G1 X55.618Y75.606
G1 X55.45Y75.643
G1 X55.584Y75.459
G1 X55.694Y75.237
G1 X55.712
G1 X55.912
G1 X56.149Y75.222
G1 X56.453
G1 X56.793
G1 X56.631Y75.268
G1 X56.392Y75.405
G1 X56.236Y75.527
G1 X56.116Y75.615
G0 X61.114Y107.095
G1 X61.212Y107.181
G1 X61.237Y107.24
G1 X61.224Y107.262
G1 X61.204Y107.283
G1 X61.139Y107.32
G1 X61.109
G1 X61.083
G1 X61.055Y107.292
G1 X61.035Y107.259
G1 Y107.225
G1 Y107.189
G1 X61.082Y107.123
G1 X61.114Y107.095
G0 X61.176Y107.014
G1 X61.295Y107.122
G1 X61.338Y107.223
G1 Y107.246
G1 Y107.282
G1 X61.304Y107.323
G1 X61.265Y107.363
G1 X61.17Y107.417
G1 X61.098
G1 X61.035Y107.404
G1 X60.979Y107.359
G1 X60.939Y107.295
G1 X60.926Y107.225
G1 X60.942Y107.148
G1 X61.008Y107.054
G1 X61.075Y106.997
G1 X61.103Y106.986
G1 X61.119
G1 X61.176Y107.014
G0 X61.232Y106.93
G1 X61.378Y107.063
G1 X61.438Y107.201
G1 Y107.259
G1 X61.422Y107.321
G1 X61.384Y107.384
G1 X61.326Y107.444
G1 X61.2Y107.514
G1 X61.089Y107.526
G1 X60.986Y107.493
G1 X60.902Y107.426
G1 X60.845Y107.332
G1 X60.824Y107.223
G1 X60.849Y107.108
G1 X60.933Y106.987
G1 X61.023Y106.91
G1 X61.087Y106.884
G1 X61.146
G1 X61.232Y106.93
G0 X61.288Y106.847
G1 X61.461Y107.003
G1 X61.538Y107.181
G1 Y107.271
G1 X61.514Y107.361
G1 X61.464Y107.445
G1 X61.388Y107.524
G1 X61.231Y107.612
G1 X61.078Y107.627
G1 X60.938Y107.583
G1 X60.826Y107.492
G1 X60.75Y107.368
G1 X60.722Y107.222
G1 X60.755Y107.068
G1 X60.858Y106.919
G1 X60.97Y106.824
G1 X61.071Y106.782
G1 X61.172
G1 X61.288Y106.847
G0 X60.673Y106.348
G1 X60.467Y106.641
G1 X60.297Y106.89
G1 X60.156Y107.112
G1 X60.04Y107.308
G1 X59.95Y107.483
G1 X59.836Y107.786
G1 X59.799Y108.05
G1 X59.812Y108.264
G1 X59.857Y108.449
G1 X59.932Y108.603
G1 X60.039Y108.726
G1 X60.175Y108.818
G1 X60.342Y108.878
G1 X60.538Y108.906
G1 X60.764
G1 X60.917Y108.885
G1 X61.047Y108.855
G1 X61.164Y108.803
G1 X61.279Y108.721
G1 X61.401Y108.599
G1 X61.541Y108.429
G1 X61.708Y108.203
G1 X61.914Y107.91
G1 X62.084Y107.661
G1 X62.226Y107.439
G1 X62.341Y107.243
G1 X62.431Y107.068
G1 X62.545Y106.765
G1 X62.582Y106.501
G1 X62.569Y106.287
G1 X62.525Y106.102
G1 X62.449Y105.948
G1 X62.343Y105.825
G1 X62.206Y105.733
G1 X62.039Y105.673
G1 X61.843Y105.644
G1 X61.617
G1 X61.464Y105.665
G1 X61.334Y105.696
G1 X61.217Y105.748
G1 X61.103Y105.83
G1 X60.981Y105.952
G1 X60.841Y106.122
G1 X60.673Y106.348
G0 X60.592Y106.29
G1 X60.385Y106.584
G1 X60.214Y106.835
G1 X60.07Y107.059
G1 X59.953Y107.26
G1 X59.858Y107.442
G1 X59.738Y107.761
G1 X59.699Y108.046
G1 X59.713Y108.279
G1 X59.762Y108.483
G1 X59.848Y108.659
G1 X59.972Y108.802
G1 X60.13Y108.908
G1 X60.317Y108.976
G1 X60.532Y109.007
G1 X60.77
G1 X60.934Y108.984
G1 X61.079Y108.95
G1 X61.214Y108.891
G1 X61.344Y108.797
G1 X61.475Y108.667
G1 X61.619Y108.491
G1 X61.789Y108.261
G1 X61.996Y107.967
G1 X62.167Y107.716
G1 X62.311Y107.492
G1 X62.429Y107.292
G1 X62.523Y107.109
G1 X62.643Y106.79
G1 X62.683Y106.505
G1 X62.668Y106.272
G1 X62.619Y106.068
G1 X62.533Y105.892
G1 X62.41Y105.75
G1 X62.252Y105.643
G1 X62.064Y105.575
G1 X61.849Y105.544
G1 X61.611
G1 X61.447Y105.567
G1 X61.302Y105.6
G1 X61.167Y105.66
G1 X61.038Y105.754
G1 X60.907Y105.885
G1 X60.762Y106.06
G1 X60.592Y106.29
G0 X60.511Y106.231
G1 X60.302Y106.527
G1 X60.13Y106.78
G1 X59.985Y107.007
G1 X59.865Y107.211
G1 X59.767Y107.402
G1 X59.641Y107.736
G1 X59.598Y108.042
G1 X59.614Y108.294
G1 X59.667Y108.517
G1 X59.764Y108.714
G1 X59.905Y108.877
G1 X60.084Y108.998
G1 X60.293Y109.073
G1 X60.526Y109.107
G1 X60.777
G1 X60.951Y109.083
G1 X61.111Y109.046
G1 X61.264Y108.978
G1 X61.408Y108.874
G1 X61.549Y108.734
G1 X61.698Y108.552
G1 X61.87Y108.32
G1 X62.079Y108.024
G1 X62.251Y107.771
G1 X62.396Y107.544
G1 X62.516Y107.34
G1 X62.615Y107.149
G1 X62.74Y106.815
G1 X62.783Y106.509
G1 X62.768Y106.257
G1 X62.714Y106.034
G1 X62.617Y105.837
G1 X62.477Y105.674
G1 X62.297Y105.553
G1 X62.088Y105.478
G1 X61.856Y105.444
G1 X61.604
G1 X61.43Y105.468
G1 X61.271Y105.505
G1 X61.117Y105.573
G1 X60.973Y105.677
G1 X60.833Y105.817
G1 X60.683Y105.998
G1 X60.511Y106.231
G0 X59.078Y105.843
G1 X59.065Y105.865
G1 X59.045Y105.886
G1 X58.98Y105.923
G1 X58.95
G1 X58.924
G1 X58.896Y105.895
G1 X58.876Y105.862
G1 Y105.828
G1 Y105.792
G1 X58.924Y105.725
G1 X58.955Y105.698
G1 X59.053Y105.785
G1 X59.078Y105.843
G0 X59.17Y105.885
G1 X59.146Y105.926
G1 X59.106Y105.967
G1 X59.011Y106.02
G1 X58.94
G1 X58.876Y106.007
G1 X58.819Y105.961
G1 X58.781Y105.898
G1 X58.768Y105.827
G1 X58.783Y105.752
G1 X58.849Y105.657
G1 X58.916Y105.6
G1 X58.944Y105.589
G1 X58.96
G1 X59.017Y105.617
G1 X59.136Y105.725
G1 X59.18Y105.827
G1 Y105.849
G1 X59.17Y105.885
G0 X59.263Y105.925
G1 X59.226Y105.987
G1 X59.168Y106.046
G1 X59.042Y106.117
G1 X58.929Y106.129
G1 X58.828Y106.097
G1 X58.743Y106.028
G1 X58.686Y105.935
G1 X58.666Y105.826
G1 X58.69Y105.711
G1 X58.774Y105.59
G1 X58.864Y105.513
G1 X58.928Y105.487
G1 X58.987
G1 X59.073Y105.534
G1 X59.219Y105.666
G1 X59.279Y105.805
G1 Y105.862
G1 X59.263Y105.925
G0 X59.356Y105.964
G1 X59.305Y106.049
G1 X59.229Y106.127
G1 X59.073Y106.215
G1 X58.919Y106.23
G1 X58.78Y106.186
G1 X58.667Y106.095
G1 X58.591Y105.971
G1 X58.564Y105.825
G1 X58.596Y105.671
G1 X58.699Y105.522
G1 X58.811Y105.427
G1 X58.912Y105.385
G1 X59.014
G1 X59.13Y105.45
G1 X59.303Y105.606
G1 X59.379Y105.784
G1 Y105.875
G1 X59.356Y105.964
G0 X59.925Y106.264
G1 X60.067Y106.043
G1 X60.182Y105.846
G1 X60.273Y105.671
G1 X60.387Y105.368
G1 X60.424Y105.105
G1 X60.41Y104.89
G1 X60.366Y104.705
G1 X60.29Y104.551
G1 X60.184Y104.428
G1 X60.047Y104.336
G1 X59.881Y104.276
G1 X59.684Y104.248
G1 X59.458
G1 X59.306Y104.269
G1 X59.176Y104.299
G1 X59.059Y104.351
G1 X58.944Y104.433
G1 X58.822Y104.555
G1 X58.682Y104.725
G1 X58.514Y104.951
G1 X58.308Y105.244
G1 X58.138Y105.493
G1 X57.997Y105.715
G1 X57.882Y105.911
G1 X57.791Y106.086
G1 X57.677Y106.389
G1 X57.64Y106.653
G1 X57.653Y106.868
G1 X57.698Y107.052
G1 X57.774Y107.206
G1 X57.88Y107.329
G1 X58.017Y107.421
G1 X58.183Y107.481
G1 X58.38Y107.51
G1 X58.605
G1 X58.758Y107.489
G1 X58.888Y107.458
G1 X59.005Y107.406
G1 X59.12Y107.324
G1 X59.242Y107.202
G1 X59.382Y107.032
G1 X59.55Y106.806
G1 X59.755Y106.514
G1 X59.925Y106.264
G0 X60.009Y106.319
G1 X60.152Y106.095
G1 X60.27Y105.895
G1 X60.364Y105.712
G1 X60.484Y105.393
G1 X60.524Y105.109
G1 X60.51Y104.875
G1 X60.46Y104.671
G1 X60.374Y104.496
G1 X60.251Y104.353
G1 X60.093Y104.247
G1 X59.905Y104.179
G1 X59.691Y104.147
G1 X59.452
G1 X59.289Y104.17
G1 X59.144Y104.204
G1 X59.009Y104.264
G1 X58.879Y104.357
G1 X58.748Y104.488
G1 X58.603Y104.663
G1 X58.433Y104.893
G1 X58.226Y105.187
G1 X58.055Y105.438
G1 X57.912Y105.662
G1 X57.794Y105.863
G1 X57.699Y106.046
G1 X57.58Y106.364
G1 X57.54Y106.649
G1 X57.554Y106.883
G1 X57.604Y107.086
G1 X57.69Y107.262
G1 X57.813Y107.405
G1 X57.971Y107.511
G1 X58.159Y107.579
G1 X58.373Y107.61
G1 X58.612
G1 X58.775Y107.587
G1 X58.92Y107.554
G1 X59.055Y107.494
G1 X59.185Y107.4
G1 X59.316Y107.27
G1 X59.46Y107.094
G1 X59.631Y106.865
G1 X59.838Y106.571
G1 X60.009Y106.319
G0 X60.092Y106.374
G1 X60.238Y106.147
G1 X60.357Y105.943
G1 X60.456Y105.752
G1 X60.582Y105.418
G1 X60.625Y105.113
G1 X60.609Y104.86
G1 X60.555Y104.637
G1 X60.458Y104.44
G1 X60.318Y104.277
G1 X60.138Y104.157
G1 X59.929Y104.081
G1 X59.697Y104.047
G1 X59.446
G1 X59.271Y104.071
G1 X59.112Y104.108
G1 X58.958Y104.177
G1 X58.814Y104.281
G1 X58.674Y104.42
G1 X58.524Y104.602
G1 X58.352Y104.834
G1 X58.144Y105.13
G1 X57.971Y105.383
G1 X57.826Y105.61
G1 X57.706Y105.814
G1 X57.608Y106.005
G1 X57.482Y106.339
G1 X57.439Y106.645
G1 X57.455Y106.897
G1 X57.509Y107.121
G1 X57.605Y107.317
G1 X57.746Y107.48
G1 X57.926Y107.601
G1 X58.134Y107.676
G1 X58.367Y107.71
G1 X58.618
G1 X58.792Y107.686
G1 X58.952Y107.649
G1 X59.105Y107.581
G1 X59.25Y107.477
G1 X59.39Y107.337
G1 X59.539Y107.156
G1 X59.712Y106.923
G1 X59.92Y106.627
G1 X60.092Y106.374
G0 X56.906Y104.469
G1 X56.886Y104.489
G1 X56.822Y104.526
G1 X56.792
G1 X56.765
G1 X56.737Y104.498
G1 X56.717Y104.465
G1 Y104.431
G1 Y104.396
G1 X56.765Y104.328
G1 X56.796Y104.302
G1 X56.894Y104.388
G1 X56.919Y104.445
G1 X56.906Y104.469
G0 X56.986Y104.53
G1 X56.948Y104.569
G1 X56.852Y104.623
G1 X56.781
G1 X56.717Y104.61
G1 X56.661Y104.565
G1 X56.622Y104.501
G1 X56.609Y104.431
G1 X56.625Y104.354
G1 X56.69Y104.26
G1 X56.758Y104.203
G1 X56.785Y104.192
G1 X56.801
G1 X56.858Y104.221
G1 X56.978Y104.329
G1 X57.021Y104.429
G1 Y104.452
G1 X57.011Y104.488
G1 X56.986Y104.53
G0 X57.066Y104.591
G1 X57.009Y104.65
G1 X56.883Y104.72
G1 X56.771Y104.732
G1 X56.669Y104.7
G1 X56.584Y104.632
G1 X56.528Y104.538
G1 X56.507Y104.429
G1 X56.531Y104.315
G1 X56.616Y104.193
G1 X56.706Y104.117
G1 X56.769Y104.09
G1 X56.828
G1 X56.915Y104.137
G1 X57.061Y104.269
G1 X57.121Y104.408
G1 Y104.465
G1 X57.104Y104.528
G1 X57.066Y104.591
G0 X57.147Y104.652
G1 X57.071Y104.73
G1 X56.914Y104.818
G1 X56.76Y104.833
G1 X56.621Y104.79
G1 X56.508Y104.699
G1 X56.432Y104.574
G1 X56.405Y104.428
G1 X56.437Y104.274
G1 X56.541Y104.125
G1 X56.652Y104.031
G1 X56.753Y103.989
G1 X56.855
G1 X56.971Y104.053
G1 X57.144Y104.209
G1 X57.22Y104.387
G1 Y104.478
G1 X57.197Y104.567
G1 X57.147Y104.652
G0 X57.721Y105.007
G1 X57.864Y104.767
G1 X57.985Y104.538
G1 X58.084Y104.321
G1 X58.16Y104.115
G1 X58.214Y103.923
G1 X58.247Y103.744
G1 Y103.579
G1 Y103.428
G1 X58.212Y103.294
G1 X58.157Y103.175
G1 X58.081Y103.072
G1 X57.984Y102.987
G1 X57.865Y102.92
G1 X57.725Y102.871
G1 X57.563Y102.841
G1 X57.381
G1 X57.196
G1 X57.039Y102.866
G1 X56.897Y102.928
G1 X56.759Y103.034
G1 X56.613Y103.196
G1 X56.445Y103.426
G1 X56.35Y103.57
G1 X56.245Y103.735
G1 X55.999Y104.135
G1 X55.86Y104.374
G1 X55.744Y104.602
G1 X55.65Y104.817
G1 X55.577Y105.019
G1 X55.526Y105.208
G1 X55.497Y105.382
G1 Y105.542
G1 Y105.688
G1 X55.537Y105.818
G1 X55.593Y105.932
G1 X55.67Y106.03
G1 X55.768Y106.112
G1 X55.887Y106.176
G1 X56.027Y106.222
G1 X56.188Y106.25
G1 X56.369
G1 X56.551
G1 X56.701Y106.231
G1 X56.835Y106.177
G1 X56.965Y106.08
G1 X57.105Y105.927
G1 X57.269Y105.705
G1 X57.364Y105.565
G1 X57.47Y105.403
G1 X57.721Y105.007
G0 X57.806Y105.06
G1 X57.951Y104.816
G1 X58.075Y104.582
G1 X58.176Y104.359
G1 X58.255Y104.146
G1 X58.312Y103.945
G1 X58.346Y103.756
G1 X58.357Y103.578
G1 X58.344Y103.413
G1 X58.307Y103.26
G1 X58.244Y103.123
G1 X58.155Y103.004
G1 X58.042Y102.905
G1 X57.906Y102.828
G1 X57.75Y102.774
G1 X57.575Y102.741
G1 X57.382Y102.731
G1 X57.185
G1 X57.009Y102.77
G1 X56.846Y102.841
G1 X56.691Y102.96
G1 X56.535Y103.133
G1 X56.363Y103.369
G1 X56.266Y103.515
G1 X56.16Y103.682
G1 X55.913Y104.083
G1 X55.772Y104.326
G1 X55.654Y104.559
G1 X55.557Y104.78
G1 X55.482Y104.989
G1 X55.428Y105.186
G1 X55.397Y105.371
G1 Y105.545
G1 Y105.706
G1 X55.443Y105.853
G1 X55.508Y105.986
G1 X55.598Y106.1
G1 X55.712Y106.195
G1 X55.847Y106.268
G1 X56.003Y106.319
G1 X56.177Y106.35
G1 X56.368
G1 X56.56
G1 X56.728Y106.328
G1 X56.884Y106.265
G1 X57.032Y106.154
G1 X57.183Y105.99
G1 X57.351Y105.763
G1 X57.447Y105.62
G1 X57.554Y105.457
G1 X57.806Y105.06
G0 X57.892Y105.112
G1 X58.039Y104.865
G1 X58.165Y104.626
G1 X58.269Y104.397
G1 X58.35Y104.177
G1 X58.409Y103.968
G1 X58.446Y103.768
G1 X58.457Y103.577
G1 X58.444Y103.397
G1 X58.402Y103.228
G1 X58.33Y103.072
G1 X58.229Y102.936
G1 X58.1Y102.823
G1 X57.948Y102.737
G1 X57.776Y102.677
G1 X57.587Y102.642
G1 X57.383Y102.631
G1 X57.174
G1 X56.98Y102.674
G1 X56.795Y102.754
G1 X56.623Y102.886
G1 X56.457Y103.07
G1 X56.281Y103.312
G1 X56.182Y103.461
G1 X56.075Y103.629
G1 X55.827Y104.032
G1 X55.685Y104.279
G1 X55.563Y104.516
G1 X55.464Y104.743
G1 X55.386Y104.959
G1 X55.331Y105.165
G1 X55.297Y105.36
G1 Y105.547
G1 Y105.723
G1 X55.349Y105.889
G1 X55.422Y106.039
G1 X55.526Y106.171
G1 X55.656Y106.278
G1 X55.808Y106.36
G1 X55.978Y106.416
G1 X56.165Y106.449
G1 X56.367Y106.46
G1 X56.569
G1 X56.755Y106.425
G1 X56.934Y106.353
G1 X57.1Y106.229
G1 X57.26Y106.054
G1 X57.432Y105.821
G1 X57.531Y105.676
G1 X57.638Y105.511
G1 X57.892Y105.112
G0 X54.748Y103.199
G1 X54.727Y103.22
G1 X54.663Y103.256
G1 X54.633
G1 X54.606
G1 X54.578Y103.228
G1 X54.559Y103.195
G1 Y103.162
G1 Y103.125
G1 X54.606Y103.059
G1 X54.637Y103.032
G1 X54.736Y103.118
G1 X54.76Y103.176
G1 X54.748Y103.199
G0 X54.828Y103.26
G1 X54.789Y103.3
G1 X54.693Y103.353
G1 X54.622
G1 X54.559Y103.341
G1 X54.502Y103.295
G1 X54.464Y103.232
G1 X54.45Y103.161
G1 X54.466Y103.085
G1 X54.531Y102.991
G1 X54.6Y102.933
G1 X54.626Y102.922
G1 X54.643
G1 X54.699Y102.951
G1 X54.819Y103.058
G1 X54.862Y103.16
G1 Y103.182
G1 Y103.218
G1 X54.828Y103.26
G0 X54.908Y103.321
G1 X54.85Y103.38
G1 X54.724Y103.451
G1 X54.613Y103.462
G1 X54.51Y103.43
G1 X54.426Y103.362
G1 X54.369Y103.269
G1 X54.348Y103.159
G1 X54.372Y103.045
G1 X54.457Y102.923
G1 X54.546Y102.847
G1 X54.611Y102.82
G1 X54.669
G1 X54.756Y102.867
G1 X54.902Y102.999
G1 X54.962Y103.138
G1 Y103.195
G1 X54.945Y103.258
G1 X54.908Y103.321
G0 X54.988Y103.382
G1 X54.912Y103.46
G1 X54.755Y103.548
G1 X54.601Y103.564
G1 X54.462Y103.52
G1 X54.349Y103.429
G1 X54.274Y103.304
G1 X54.246Y103.158
G1 X54.279Y103.004
G1 X54.382Y102.855
G1 X54.494Y102.761
G1 X54.594Y102.719
G1 X54.696
G1 X54.812Y102.783
G1 X54.985Y102.939
G1 X55.062Y103.117
G1 Y103.208
G1 X55.038Y103.297
G1 X54.988Y103.382
G0 X55.563Y103.61
G1 X55.706Y103.37
G1 X55.826Y103.141
G1 X55.925Y102.924
G1 X56.001Y102.719
G1 X56.055Y102.526
G1 X56.088Y102.347
G1 X56.098Y102.182
G1 X56.087Y102.032
G1 X56.053Y101.897
G1 X55.999Y101.778
G1 X55.923Y101.676
G1 X55.825Y101.59
G1 X55.706Y101.523
G1 X55.566Y101.474
G1 X55.405Y101.444
G1 X55.222
G1 X55.037
G1 X54.88Y101.469
G1 X54.738Y101.531
G1 X54.601Y101.637
G1 X54.454Y101.799
G1 X54.287Y102.029
G1 X54.191Y102.173
G1 X54.086Y102.338
G1 X53.84Y102.738
G1 X53.702Y102.978
G1 X53.585Y103.205
G1 X53.491Y103.42
G1 X53.418Y103.622
G1 X53.367Y103.811
G1 X53.338Y103.985
G1 Y104.146
G1 Y104.291
G1 X53.378Y104.421
G1 X53.434Y104.535
G1 X53.511Y104.634
G1 X53.609Y104.715
G1 X53.728Y104.779
G1 X53.868Y104.825
G1 X54.029Y104.853
G1 X54.211
G1 X54.392
G1 X54.542Y104.834
G1 X54.676Y104.78
G1 X54.806Y104.683
G1 X54.947Y104.53
G1 X55.11Y104.308
G1 X55.205Y104.168
G1 X55.311Y104.006
G1 X55.563Y103.61
G0 X55.648Y103.663
G1 X55.793Y103.419
G1 X55.916Y103.185
G1 X56.018Y102.962
G1 X56.096Y102.75
G1 X56.153Y102.548
G1 X56.187Y102.359
G1 X56.198Y102.181
G1 X56.186Y102.016
G1 X56.148Y101.864
G1 X56.085Y101.727
G1 X55.996Y101.607
G1 X55.883Y101.508
G1 X55.748Y101.431
G1 X55.592Y101.377
G1 X55.417Y101.345
G1 X55.223Y101.334
G1 X55.026
G1 X54.851Y101.373
G1 X54.687Y101.444
G1 X54.532Y101.563
G1 X54.376Y101.736
G1 X54.205Y101.972
G1 X54.107Y102.118
G1 X54.001Y102.285
G1 X53.754Y102.687
G1 X53.614Y102.93
G1 X53.495Y103.162
G1 X53.398Y103.383
G1 X53.323Y103.592
G1 X53.27Y103.789
G1 X53.238Y103.974
G1 Y104.148
G1 Y104.309
G1 X53.284Y104.456
G1 X53.349Y104.589
G1 X53.439Y104.704
G1 X53.553Y104.798
G1 X53.689Y104.871
G1 X53.844Y104.922
G1 X54.018Y104.953
G1 X54.209
G1 X54.401
G1 X54.569Y104.931
G1 X54.726Y104.868
G1 X54.874Y104.757
G1 X55.024Y104.594
G1 X55.192Y104.366
G1 X55.289Y104.223
G1 X55.395Y104.06
G1 X55.648Y103.663
G0 X55.733Y103.715
G1 X55.88Y103.468
G1 X56.006Y103.229
G1 X56.11Y103
G1 X56.192Y102.781
G1 X56.25Y102.571
G1 X56.287Y102.371
G1 X56.299Y102.18
G1 X56.285Y102
G1 X56.243Y101.831
G1 X56.172Y101.675
G1 X56.07Y101.539
G1 X55.941Y101.426
G1 X55.789Y101.34
G1 X55.617Y101.28
G1 X55.428Y101.245
G1 X55.224Y101.234
G1 X55.016
G1 X54.822Y101.277
G1 X54.636Y101.357
G1 X54.464Y101.49
G1 X54.299Y101.673
G1 X54.122Y101.915
G1 X54.023Y102.064
G1 X53.917Y102.232
G1 X53.668Y102.636
G1 X53.526Y102.882
G1 X53.405Y103.119
G1 X53.305Y103.346
G1 X53.228Y103.562
G1 X53.172Y103.768
G1 X53.139Y103.964
G1 Y104.15
G1 Y104.326
G1 X53.19Y104.492
G1 X53.264Y104.642
G1 X53.367Y104.774
G1 X53.497Y104.882
G1 X53.649Y104.963
G1 X53.82Y105.02
G1 X54.007Y105.052
G1 X54.208Y105.063
G1 X54.41
G1 X54.596Y105.029
G1 X54.775Y104.956
G1 X54.941Y104.832
G1 X55.101Y104.657
G1 X55.274Y104.424
G1 X55.372Y104.279
G1 X55.479Y104.114
G1 X55.733Y103.715
G0 X63.213Y99.165
G1 X63.193Y99.131
G1 Y99.098
G1 Y99.062
G1 X63.241Y98.995
G1 X63.272Y98.969
G1 X63.371Y99.055
G1 X63.395Y99.112
G1 X63.383Y99.135
G1 X63.362Y99.156
G1 X63.298Y99.193
G1 X63.268
G1 X63.241
G1 X63.213Y99.165
G0 X63.137Y99.231
G1 X63.098Y99.168
G1 X63.085Y99.097
G1 X63.101Y99.021
G1 X63.167Y98.927
G1 X63.234Y98.87
G1 X63.261Y98.858
G1 X63.278
G1 X63.334Y98.887
G1 X63.454Y98.995
G1 X63.497Y99.096
G1 Y99.119
G1 Y99.155
G1 X63.463Y99.196
G1 X63.424Y99.236
G1 X63.328Y99.29
G1 X63.257
G1 X63.194Y99.277
G1 X63.137Y99.231
G0 X63.061Y99.299
G1 X63.003Y99.204
G1 X62.983Y99.096
G1 X63.007Y98.981
G1 X63.092Y98.859
G1 X63.181Y98.784
G1 X63.246Y98.757
G1 X63.304
G1 X63.391Y98.803
G1 X63.537Y98.936
G1 X63.597Y99.074
G1 Y99.132
G1 X63.58Y99.194
G1 X63.543Y99.257
G1 X63.485Y99.317
G1 X63.359Y99.387
G1 X63.248Y99.399
G1 X63.145Y99.366
G1 X63.061Y99.299
G0 X62.984Y99.365
G1 X62.908Y99.241
G1 X62.881Y99.095
G1 X62.914Y98.941
G1 X63.017Y98.792
G1 X63.129Y98.697
G1 X63.229Y98.655
G1 X63.331
G1 X63.447Y98.72
G1 X63.62Y98.876
G1 X63.697Y99.054
G1 Y99.145
G1 X63.673Y99.234
G1 X63.623Y99.318
G1 X63.547Y99.397
G1 X63.39Y99.485
G1 X63.236Y99.5
G1 X63.097Y99.456
G1 X62.984Y99.365
G0 X62.645Y99.726
G1 X62.792Y99.847
G1 X62.962Y99.946
G1 X63.134Y100.013
G1 X63.286Y100.037
G1 X63.438Y100.013
G1 X63.61Y99.946
G1 X63.78Y99.847
G1 X63.927Y99.726
G1 X64.048Y99.579
G1 X64.147Y99.409
G1 X64.214Y99.237
G1 X64.238Y99.085
G1 X64.214Y98.933
G1 X64.147Y98.761
G1 X64.048Y98.591
G1 X63.927Y98.444
G1 X63.78Y98.323
G1 X63.61Y98.224
G1 X63.438Y98.157
G1 X63.286Y98.133
G1 X63.134Y98.157
G1 X62.962Y98.224
G1 X62.792Y98.323
G1 X62.645Y98.444
G1 X62.524Y98.591
G1 X62.425Y98.761
G1 X62.358Y98.933
G1 X62.333Y99.085
G1 X62.358Y99.237
G1 X62.425Y99.409
G1 X62.524Y99.579
G1 X62.645Y99.726
G0 X62.574Y99.797
G1 X62.735Y99.929
G1 X62.918Y100.036
G1 X63.107Y100.11
G1 X63.286Y100.139
G1 X63.465Y100.11
G1 X63.654Y100.036
G1 X63.837Y99.929
G1 X63.998Y99.797
G1 X64.13Y99.636
G1 X64.237Y99.453
G1 X64.311Y99.264
G1 X64.34Y99.085
G1 X64.311Y98.906
G1 X64.237Y98.717
G1 X64.13Y98.534
G1 X63.998Y98.373
G1 X63.837Y98.241
G1 X63.654Y98.134
G1 X63.465Y98.06
G1 X63.286Y98.031
G1 X63.107Y98.06
G1 X62.918Y98.134
G1 X62.735Y98.241
G1 X62.574Y98.373
G1 X62.442Y98.534
G1 X62.335Y98.717
G1 X62.261Y98.906
G1 X62.232Y99.085
G1 X62.261Y99.264
G1 X62.335Y99.453
G1 X62.442Y99.636
G1 X62.574Y99.797
G0 X62.503Y99.868
G1 X62.677Y100.011
G1 X62.875Y100.126
G1 X63.081Y100.207
G1 X63.286Y100.24
G1 X63.491Y100.207
G1 X63.697Y100.126
G1 X63.894Y100.011
G1 X64.069Y99.868
G1 X64.212Y99.693
G1 X64.327Y99.496
G1 X64.408Y99.29
G1 X64.441Y99.085
G1 X64.408Y98.88
G1 X64.327Y98.674
G1 X64.212Y98.477
G1 X64.069Y98.302
G1 X63.894Y98.159
G1 X63.697Y98.043
G1 X63.491Y97.963
G1 X63.286Y97.93
G1 X63.081Y97.963
G1 X62.875Y98.043
G1 X62.677Y98.159
G1 X62.503Y98.302
G1 X62.36Y98.477
G1 X62.244Y98.674
G1 X62.164Y98.88
G1 X62.131Y99.085
G1 X62.164Y99.29
G1 X62.244Y99.496
G1 X62.36Y99.693
G1 X62.503Y99.868
G0 X78.425Y99.098
G1 Y99.062
G1 X78.479Y98.995
G1 X78.51Y98.969
G1 X78.609Y99.055
G1 X78.633Y99.112
G1 X78.621Y99.135
G1 X78.6Y99.156
G1 X78.536Y99.193
G1 X78.506
G1 X78.479
G1 X78.451Y99.165
G1 X78.431Y99.131
G1 Y99.098
G0 X78.323
G1 X78.339Y99.021
G1 X78.405Y98.927
G1 X78.472Y98.87
G1 X78.499Y98.858
G1 X78.516
G1 X78.573Y98.887
G1 X78.692Y98.995
G1 X78.735Y99.096
G1 Y99.119
G1 Y99.155
G1 X78.701Y99.196
G1 X78.662Y99.236
G1 X78.566Y99.29
G1 X78.495
G1 X78.432Y99.277
G1 X78.375Y99.231
G1 X78.336Y99.168
G1 X78.323Y99.097
G0 X78.221
G1 X78.245Y98.981
G1 X78.33Y98.859
G1 X78.419Y98.784
G1 X78.484Y98.757
G1 X78.542
G1 X78.629Y98.803
G1 X78.775Y98.936
G1 X78.835Y99.074
G1 Y99.132
G1 X78.818Y99.194
G1 X78.781Y99.257
G1 X78.723Y99.317
G1 X78.597Y99.387
G1 X78.486Y99.399
G1 X78.383Y99.366
G1 X78.299Y99.299
G1 X78.241Y99.204
G1 X78.221Y99.096
G0 X78.119
G1 X78.152Y98.941
G1 X78.255Y98.792
G1 X78.367Y98.697
G1 X78.467Y98.655
G1 X78.569
G1 X78.685Y98.72
G1 X78.858Y98.876
G1 X78.935Y99.054
G1 Y99.145
G1 X78.911Y99.234
G1 X78.861Y99.318
G1 X78.785Y99.397
G1 X78.628Y99.485
G1 X78.474Y99.5
G1 X78.335Y99.456
G1 X78.222Y99.365
G1 X78.146Y99.241
G1 X78.119Y99.095
G0 X77.595Y99.248
G1 X77.661Y99.412
G1 X77.761Y99.573
G1 X77.889Y99.72
G1 X78.037Y99.848
G1 X78.197Y99.948
G1 X78.362Y100.014
G1 X78.524Y100.037
G1 X78.676Y100.013
G1 X78.848Y99.946
G1 X79.018Y99.847
G1 X79.165Y99.726
G1 X79.286Y99.579
G1 X79.385Y99.409
G1 X79.452Y99.237
G1 X79.476Y99.085
G1 X79.453Y98.923
G1 X79.387Y98.758
G1 X79.287Y98.598
G1 X79.159Y98.45
G1 X79.011Y98.322
G1 X78.851Y98.222
G1 X78.687Y98.156
G1 X78.524Y98.133
G1 X78.362Y98.156
G1 X78.197Y98.222
G1 X78.037Y98.322
G1 X77.889Y98.45
G1 X77.761Y98.598
G1 X77.661Y98.758
G1 X77.595Y98.923
G1 X77.572Y99.085
G1 X77.595Y99.248
G0 X77.498Y99.274
G1 X77.571Y99.458
G1 X77.681Y99.632
G1 X77.818Y99.791
G1 X77.977Y99.928
G1 X78.151Y100.038
G1 X78.335Y100.111
G1 X78.525Y100.138
G1 X78.703Y100.11
G1 X78.892Y100.036
G1 X79.075Y99.929
G1 X79.236Y99.797
G1 X79.368Y99.636
G1 X79.475Y99.453
G1 X79.549Y99.264
G1 X79.577Y99.086
G1 X79.55Y98.896
G1 X79.477Y98.712
G1 X79.367Y98.538
G1 X79.23Y98.379
G1 X79.071Y98.242
G1 X78.897Y98.132
G1 X78.713Y98.059
G1 X78.524Y98.031
G1 X78.335Y98.059
G1 X78.151Y98.132
G1 X77.977Y98.242
G1 X77.818Y98.379
G1 X77.681Y98.538
G1 X77.571Y98.712
G1 X77.498Y98.896
G1 X77.47Y99.085
G1 X77.498Y99.274
G0 X77.401Y99.3
G1 X77.482Y99.503
G1 X77.6Y99.692
G1 X77.747Y99.862
G1 X77.917Y100.009
G1 X78.105Y100.127
G1 X78.31Y100.208
G1 X78.526Y100.24
G1 X78.729Y100.207
G1 X78.935Y100.126
G1 X79.132Y100.011
G1 X79.307Y99.868
G1 X79.45Y99.693
G1 X79.565Y99.496
G1 X79.646Y99.29
G1 X79.679Y99.087
G1 X79.647Y98.871
G1 X79.566Y98.667
G1 X79.448Y98.479
G1 X79.301Y98.308
G1 X79.13Y98.161
G1 X78.942Y98.043
G1 X78.739Y97.962
G1 X78.524Y97.93
G1 X78.31Y97.962
G1 X78.106Y98.043
G1 X77.917Y98.161
G1 X77.747Y98.308
G1 X77.6Y98.479
G1 X77.482Y98.667
G1 X77.401Y98.871
G1 X77.369Y99.085
G1 X77.401Y99.3
G0 X63.394Y94.036
G1 X63.383Y94.055
G1 X63.362Y94.077
G1 X63.297Y94.113
G1 X63.268
G1 X63.241
G1 X63.213Y94.085
G1 X63.193Y94.052
G1 Y94.019
G1 Y93.983
G1 X63.241Y93.916
G1 X63.272Y93.889
G1 X63.371Y93.976
G1 X63.395Y94.033
G0 X63.487Y94.075
G1 X63.463Y94.116
G1 X63.423Y94.157
G1 X63.328Y94.21
G1 X63.257
G1 X63.194Y94.198
G1 X63.137Y94.152
G1 X63.098Y94.089
G1 X63.085Y94.018
G1 X63.101Y93.942
G1 X63.167Y93.848
G1 X63.234Y93.791
G1 X63.262Y93.779
G1 X63.277
G1 X63.335Y93.808
G1 X63.454Y93.915
G1 X63.497Y94.017
G1 Y94.039
G1 Y94.075
G0 X63.58Y94.115
G1 X63.543Y94.178
G1 X63.486Y94.237
G1 X63.359Y94.308
G1 X63.248Y94.319
G1 X63.145Y94.287
G1 X63.061Y94.219
G1 X63.003Y94.125
G1 X62.983Y94.017
G1 X63.007Y93.902
G1 X63.092Y93.78
G1 X63.181Y93.705
G1 X63.246Y93.677
G1 X63.304
G1 X63.391Y93.724
G1 X63.537Y93.856
G1 X63.597Y93.995
G1 Y94.053
G1 X63.58Y94.115
G0 X63.673Y94.154
G1 X63.623Y94.239
G1 X63.547Y94.317
G1 X63.39Y94.405
G1 X63.236Y94.421
G1 X63.097Y94.377
G1 X62.984Y94.286
G1 X62.908Y94.161
G1 X62.881Y94.015
G1 X62.914Y93.862
G1 X63.017Y93.712
G1 X63.129Y93.618
G1 X63.229Y93.576
G1 X63.331
G1 X63.447Y93.64
G1 X63.62Y93.797
G1 X63.697Y93.974
G1 Y94.065
G1 X63.673Y94.154
G0 X64.147Y94.33
G1 X64.214Y94.158
G1 X64.238Y94.006
G1 X64.215Y93.843
G1 X64.149Y93.678
G1 X64.049Y93.518
G1 X63.921Y93.371
G1 X63.773Y93.243
G1 X63.613Y93.143
G1 X63.448Y93.077
G1 X63.286Y93.053
G1 X63.123Y93.077
G1 X62.958Y93.143
G1 X62.799Y93.243
G1 X62.651Y93.371
G1 X62.523Y93.518
G1 X62.423Y93.678
G1 X62.357Y93.843
G1 X62.333Y94.006
G1 X62.357Y94.168
G1 X62.423Y94.333
G1 X62.523Y94.493
G1 X62.651Y94.641
G1 X62.799Y94.768
G1 X62.958Y94.869
G1 X63.123Y94.935
G1 X63.286Y94.958
G1 X63.438Y94.933
G1 X63.61Y94.866
G1 X63.78Y94.767
G1 X63.927Y94.646
G1 X64.048Y94.499
G1 X64.147Y94.33
G0 X64.237Y94.373
G1 X64.311Y94.184
G1 X64.339Y94.006
G1 X64.312Y93.817
G1 X64.239Y93.633
G1 X64.129Y93.459
G1 X63.992Y93.3
G1 X63.833Y93.162
G1 X63.659Y93.053
G1 X63.474Y92.98
G1 X63.286Y92.952
G1 X63.097Y92.98
G1 X62.913Y93.053
G1 X62.739Y93.162
G1 X62.58Y93.3
G1 X62.443Y93.459
G1 X62.333Y93.633
G1 X62.26Y93.817
G1 X62.232Y94.006
G1 X62.26Y94.194
G1 X62.333Y94.378
G1 X62.443Y94.553
G1 X62.58Y94.712
G1 X62.739Y94.849
G1 X62.913Y94.958
G1 X63.097Y95.032
G1 X63.287Y95.059
G1 X63.465Y95.03
G1 X63.654Y94.957
G1 X63.837Y94.85
G1 X63.998Y94.717
G1 X64.13Y94.557
G1 X64.237Y94.373
G0 X64.327Y94.417
G1 X64.408Y94.211
G1 X64.441Y94.007
G1 X64.409Y93.791
G1 X64.328Y93.587
G1 X64.21Y93.399
G1 X64.063Y93.229
G1 X63.892Y93.082
G1 X63.704Y92.963
G1 X63.5Y92.882
G1 X63.286Y92.851
G1 X63.071Y92.882
G1 X62.868Y92.964
G1 X62.679Y93.082
G1 X62.509Y93.229
G1 X62.362Y93.399
G1 X62.244Y93.587
G1 X62.162Y93.791
G1 X62.131Y94.006
G1 X62.162Y94.22
G1 X62.244Y94.424
G1 X62.362Y94.612
G1 X62.509Y94.782
G1 X62.679Y94.93
G1 X62.867Y95.048
G1 X63.071Y95.129
G1 X63.288Y95.16
G1 X63.491Y95.127
G1 X63.697Y95.047
G1 X63.894Y94.932
G1 X64.069Y94.788
G1 X64.212Y94.614
G1 X64.327Y94.417
G0 X63.297Y89.034
G1 X63.268
G1 X63.242
G1 X63.213Y89.005
G1 X63.193Y88.973
G1 Y88.939
G1 Y88.904
G1 X63.241Y88.836
G1 X63.272Y88.81
G1 X63.371Y88.896
G1 X63.395Y88.954
G1 X63.383Y88.976
G1 X63.362Y88.998
G1 X63.297Y89.034
G0 X63.328Y89.131
G1 X63.258
G1 X63.194Y89.118
G1 X63.137Y89.072
G1 X63.098Y89.009
G1 X63.085Y88.939
G1 X63.101Y88.863
G1 X63.167Y88.768
G1 X63.234Y88.711
G1 X63.262Y88.699
G1 X63.277
G1 X63.335Y88.729
G1 X63.454Y88.836
G1 X63.497Y88.937
G1 Y88.96
G1 Y88.996
G1 X63.463Y89.037
G1 X63.423Y89.078
G1 X63.328Y89.131
G0 X63.359Y89.229
G1 X63.247Y89.24
G1 X63.146Y89.208
G1 X63.061Y89.14
G1 X63.003Y89.046
G1 X62.983Y88.937
G1 X63.007Y88.823
G1 X63.092Y88.7
G1 X63.181Y88.625
G1 X63.246Y88.598
G1 X63.304
G1 X63.391Y88.645
G1 X63.537Y88.777
G1 X63.597Y88.916
G1 Y88.973
G1 X63.58Y89.035
G1 X63.543Y89.099
G1 X63.486Y89.157
G1 X63.359Y89.229
G0 X63.39Y89.326
G1 X63.236Y89.342
G1 X63.097Y89.297
G1 X62.984Y89.207
G1 X62.908Y89.082
G1 X62.881Y88.936
G1 X62.914Y88.782
G1 X63.017Y88.633
G1 X63.129Y88.539
G1 X63.229Y88.496
G1 X63.331
G1 X63.447Y88.561
G1 X63.62Y88.717
G1 X63.697Y88.895
G1 Y88.986
G1 X63.673Y89.075
G1 X63.623Y89.16
G1 X63.547Y89.238
G1 X63.39Y89.326
G0 X63.61Y89.787
G1 X63.78Y89.688
G1 X63.927Y89.567
G1 X64.048Y89.42
G1 X64.147Y89.25
G1 X64.214Y89.079
G1 X64.238Y88.926
G1 X64.215Y88.764
G1 X64.149Y88.599
G1 X64.049Y88.439
G1 X63.921Y88.291
G1 X63.773Y88.164
G1 X63.613Y88.063
G1 X63.448Y87.998
G1 X63.286Y87.974
G1 X63.123Y87.998
G1 X62.958Y88.063
G1 X62.799Y88.164
G1 X62.651Y88.291
G1 X62.523Y88.439
G1 X62.423Y88.599
G1 X62.357Y88.764
G1 X62.333Y88.926
G1 X62.357Y89.089
G1 X62.423Y89.254
G1 X62.523Y89.414
G1 X62.651Y89.561
G1 X62.799Y89.689
G1 X62.958Y89.789
G1 X63.123Y89.855
G1 X63.286Y89.879
G1 X63.438Y89.854
G1 X63.61Y89.787
G0 X63.654Y89.877
G1 X63.837Y89.77
G1 X63.998Y89.638
G1 X64.13Y89.477
G1 X64.237Y89.294
G1 X64.311Y89.105
G1 X64.339Y88.927
G1 X64.312Y88.738
G1 X64.239Y88.553
G1 X64.129Y88.379
G1 X63.992Y88.22
G1 X63.833Y88.083
G1 X63.659Y87.974
G1 X63.474Y87.9
G1 X63.286Y87.873
G1 X63.097Y87.9
G1 X62.913Y87.974
G1 X62.739Y88.083
G1 X62.58Y88.22
G1 X62.443Y88.379
G1 X62.333Y88.553
G1 X62.26Y88.738
G1 X62.232Y88.926
G1 X62.26Y89.115
G1 X62.333Y89.299
G1 X62.443Y89.473
G1 X62.58Y89.632
G1 X62.739Y89.77
G1 X62.913Y89.879
G1 X63.097Y89.952
G1 X63.287Y89.98
G1 X63.465Y89.951
G1 X63.654Y89.877
G0 X63.697Y89.968
G1 X63.894Y89.853
G1 X64.069Y89.709
G1 X64.212Y89.535
G1 X64.327Y89.338
G1 X64.408Y89.132
G1 X64.441Y88.928
G1 X64.409Y88.712
G1 X64.328Y88.508
G1 X64.21Y88.32
G1 X64.063Y88.149
G1 X63.892Y88.002
G1 X63.704Y87.884
G1 X63.5Y87.803
G1 X63.286Y87.772
G1 X63.071Y87.803
G1 X62.868Y87.884
G1 X62.679Y88.002
G1 X62.509Y88.149
G1 X62.362Y88.32
G1 X62.244Y88.508
G1 X62.162Y88.712
G1 X62.131Y88.926
G1 X62.162Y89.141
G1 X62.244Y89.345
G1 X62.362Y89.533
G1 X62.509Y89.703
G1 X62.679Y89.85
G1 X62.867Y89.968
G1 X63.071Y90.05
G1 X63.288Y90.081
G1 X63.491Y90.048
G1 X63.697Y89.968
G0 X63.298Y86.494
G1 X63.268
G1 X63.241
G1 X63.213Y86.466
G1 X63.193Y86.433
G1 Y86.399
G1 Y86.363
G1 X63.24Y86.297
G1 X63.272Y86.27
G1 X63.371Y86.357
G1 X63.395Y86.414
G1 X63.383Y86.437
G1 X63.362Y86.458
G1 X63.298Y86.494
G0 X63.329Y86.592
G1 X63.257
G1 X63.194Y86.579
G1 X63.137Y86.533
G1 X63.098Y86.469
G1 X63.085Y86.399
G1 X63.101Y86.323
G1 X63.166Y86.229
G1 X63.234Y86.171
G1 X63.262Y86.16
G1 X63.277
G1 X63.335Y86.189
G1 X63.454Y86.296
G1 X63.497Y86.397
G1 Y86.42
G1 Y86.456
G1 X63.463Y86.498
G1 X63.423Y86.538
G1 X63.329Y86.592
G0 X63.359Y86.689
G1 X63.247Y86.7
G1 X63.145Y86.668
G1 X63.061Y86.6
G1 X63.003Y86.506
G1 X62.983Y86.397
G1 X63.007Y86.283
G1 X63.092Y86.161
G1 X63.181Y86.085
G1 X63.246Y86.058
G1 X63.304
G1 X63.391Y86.105
G1 X63.537Y86.237
G1 X63.597Y86.376
G1 Y86.434
G1 X63.58Y86.496
G1 X63.543Y86.559
G1 X63.486Y86.618
G1 X63.359Y86.689
G0 X63.39Y86.786
G1 X63.236Y86.802
G1 X63.097Y86.758
G1 X62.984Y86.667
G1 X62.908Y86.542
G1 X62.881Y86.396
G1 X62.914Y86.242
G1 X63.017Y86.093
G1 X63.129Y85.999
G1 X63.229Y85.957
G1 X63.331
G1 X63.447Y86.021
G1 X63.62Y86.178
G1 X63.697Y86.355
G1 Y86.446
G1 X63.673Y86.535
G1 X63.623Y86.62
G1 X63.547Y86.698
G1 X63.39Y86.786
G0 X63.61Y87.247
G1 X63.78Y87.148
G1 X63.927Y87.027
G1 X64.048Y86.88
G1 X64.147Y86.71
G1 X64.214Y86.539
G1 X64.238Y86.387
G1 X64.215Y86.224
G1 X64.149Y86.059
G1 X64.049Y85.899
G1 X63.921Y85.752
G1 X63.773Y85.624
G1 X63.613Y85.523
G1 X63.448Y85.458
G1 X63.286Y85.434
G1 X63.123Y85.458
G1 X62.958Y85.523
G1 X62.799Y85.624
G1 X62.651Y85.752
G1 X62.523Y85.899
G1 X62.423Y86.059
G1 X62.357Y86.224
G1 X62.333Y86.387
G1 X62.357Y86.549
G1 X62.423Y86.714
G1 X62.523Y86.874
G1 X62.651Y87.021
G1 X62.799Y87.149
G1 X62.958Y87.25
G1 X63.123Y87.315
G1 X63.286Y87.339
G1 X63.438Y87.314
G1 X63.61Y87.247
G0 X63.654Y87.338
G1 X63.837Y87.231
G1 X63.998Y87.098
G1 X64.13Y86.938
G1 X64.237Y86.754
G1 X64.311Y86.565
G1 X64.339Y86.387
G1 X64.312Y86.198
G1 X64.239Y86.014
G1 X64.129Y85.84
G1 X63.992Y85.681
G1 X63.833Y85.543
G1 X63.659Y85.434
G1 X63.474Y85.361
G1 X63.286Y85.333
G1 X63.097Y85.361
G1 X62.913Y85.434
G1 X62.739Y85.543
G1 X62.58Y85.681
G1 X62.443Y85.84
G1 X62.333Y86.014
G1 X62.26Y86.198
G1 X62.232Y86.387
G1 X62.26Y86.575
G1 X62.333Y86.76
G1 X62.443Y86.934
G1 X62.58Y87.093
G1 X62.739Y87.23
G1 X62.913Y87.339
G1 X63.097Y87.413
G1 X63.287Y87.44
G1 X63.465Y87.411
G1 X63.654Y87.338
G0 X63.697Y87.428
G1 X63.894Y87.313
G1 X64.069Y87.169
G1 X64.212Y86.995
G1 X64.327Y86.798
G1 X64.408Y86.592
G1 X64.441Y86.388
G1 X64.409Y86.172
G1 X64.328Y85.968
G1 X64.21Y85.78
G1 X64.063Y85.61
G1 X63.893Y85.463
G1 X63.704Y85.344
G1 X63.5Y85.263
G1 X63.286Y85.232
G1 X63.071Y85.263
G1 X62.867Y85.344
G1 X62.679Y85.463
G1 X62.509Y85.61
G1 X62.362Y85.78
G1 X62.244Y85.968
G1 X62.162Y86.172
G1 X62.131Y86.387
G1 X62.162Y86.601
G1 X62.244Y86.805
G1 X62.362Y86.993
G1 X62.509Y87.163
G1 X62.679Y87.31
G1 X62.867Y87.429
G1 X63.071Y87.51
G1 X63.288Y87.542
G1 X63.491Y87.509
G1 X63.697Y87.428
G0 X63.297Y83.955
G1 X63.268
G1 X63.242
G1 X63.213Y83.926
G1 X63.193Y83.893
G1 Y83.86
G1 Y83.824
G1 X63.241Y83.757
G1 X63.272Y83.73
G1 X63.371Y83.817
G1 X63.395Y83.874
G1 X63.383Y83.896
G1 X63.362Y83.918
G1 X63.297Y83.955
G0 X63.328Y84.052
G1 X63.258
G1 X63.194Y84.039
G1 X63.137Y83.993
G1 X63.098Y83.929
G1 X63.085Y83.859
G1 X63.101Y83.783
G1 X63.166Y83.689
G1 X63.234Y83.632
G1 X63.262Y83.62
G1 X63.277
G1 X63.335Y83.649
G1 X63.454Y83.757
G1 X63.497Y83.858
G1 Y83.881
G1 Y83.917
G1 X63.463Y83.958
G1 X63.423Y83.999
G1 X63.328Y84.052
G0 X63.359Y84.149
G1 X63.247Y84.161
G1 X63.146Y84.129
G1 X63.061Y84.06
G1 X63.003Y83.966
G1 X62.983Y83.858
G1 X63.007Y83.743
G1 X63.092Y83.621
G1 X63.181Y83.545
G1 X63.246Y83.519
G1 X63.304
G1 X63.391Y83.565
G1 X63.537Y83.698
G1 X63.597Y83.836
G1 Y83.894
G1 X63.58Y83.956
G1 X63.543Y84.019
G1 X63.486Y84.078
G1 X63.359Y84.149
G0 X63.39Y84.247
G1 X63.236Y84.262
G1 X63.097Y84.218
G1 X62.984Y84.127
G1 X62.908Y84.002
G1 X62.881Y83.857
G1 X62.914Y83.703
G1 X63.017Y83.553
G1 X63.129Y83.459
G1 X63.229Y83.417
G1 X63.331
G1 X63.447Y83.482
G1 X63.62Y83.638
G1 X63.697Y83.816
G1 Y83.906
G1 X63.673Y83.996
G1 X63.623Y84.08
G1 X63.547Y84.158
G1 X63.39Y84.247
G0 X63.61Y84.708
G1 X63.78Y84.609
G1 X63.927Y84.488
G1 X64.048Y84.341
G1 X64.147Y84.171
G1 X64.214Y83.999
G1 X64.238Y83.847
G1 X64.215Y83.685
G1 X64.149Y83.52
G1 X64.049Y83.36
G1 X63.921Y83.212
G1 X63.773Y83.084
G1 X63.613Y82.984
G1 X63.448Y82.918
G1 X63.286Y82.895
G1 X63.123Y82.918
G1 X62.958Y82.984
G1 X62.799Y83.084
G1 X62.651Y83.212
G1 X62.523Y83.36
G1 X62.423Y83.52
G1 X62.357Y83.685
G1 X62.333Y83.847
G1 X62.357Y84.01
G1 X62.423Y84.174
G1 X62.523Y84.334
G1 X62.651Y84.482
G1 X62.799Y84.61
G1 X62.958Y84.71
G1 X63.123Y84.776
G1 X63.286Y84.799
G1 X63.438Y84.775
G1 X63.61Y84.708
G0 X63.654Y84.798
G1 X63.837Y84.691
G1 X63.998Y84.559
G1 X64.13Y84.398
G1 X64.237Y84.215
G1 X64.311Y84.026
G1 X64.339Y83.848
G1 X64.312Y83.658
G1 X64.239Y83.474
G1 X64.129Y83.3
G1 X63.992Y83.141
G1 X63.833Y83.004
G1 X63.659Y82.894
G1 X63.474Y82.821
G1 X63.286Y82.793
G1 X63.097Y82.821
G1 X62.913Y82.894
G1 X62.739Y83.004
G1 X62.58Y83.141
G1 X62.443Y83.3
G1 X62.333Y83.474
G1 X62.26Y83.658
G1 X62.232Y83.847
G1 X62.26Y84.036
G1 X62.333Y84.22
G1 X62.443Y84.394
G1 X62.58Y84.553
G1 X62.739Y84.69
G1 X62.913Y84.8
G1 X63.097Y84.873
G1 X63.287Y84.9
G1 X63.465Y84.872
G1 X63.654Y84.798
G0 X63.697Y84.888
G1 X63.894Y84.773
G1 X64.069Y84.63
G1 X64.212Y84.455
G1 X64.327Y84.258
G1 X64.408Y84.052
G1 X64.441Y83.848
G1 X64.409Y83.633
G1 X64.328Y83.429
G1 X64.21Y83.24
G1 X64.063Y83.07
G1 X63.892Y82.923
G1 X63.704Y82.805
G1 X63.5Y82.724
G1 X63.286Y82.692
G1 X63.071Y82.724
G1 X62.868Y82.805
G1 X62.679Y82.923
G1 X62.509Y83.07
G1 X62.362Y83.24
G1 X62.244Y83.428
G1 X62.162Y83.633
G1 X62.131Y83.847
G1 X62.162Y84.062
G1 X62.244Y84.265
G1 X62.362Y84.453
G1 X62.509Y84.624
G1 X62.679Y84.771
G1 X62.867Y84.889
G1 X63.071Y84.97
G1 X63.288Y85.002
G1 X63.491Y84.969
G1 X63.697Y84.888
G0 X63.298Y81.415
G1 X63.268
G1 X63.241
G1 X63.213Y81.387
G1 X63.193Y81.354
G1 Y81.32
G1 Y81.284
G1 X63.24Y81.218
G1 X63.272Y81.191
G1 X63.371Y81.277
G1 X63.395Y81.334
G1 X63.383Y81.357
G1 X63.362Y81.379
G1 X63.298Y81.415
G0 X63.329Y81.512
G1 X63.257
G1 X63.194Y81.499
G1 X63.137Y81.454
G1 X63.098Y81.39
G1 X63.085Y81.32
G1 X63.101Y81.244
G1 X63.166Y81.15
G1 X63.234Y81.092
G1 X63.261Y81.081
G1 X63.278
G1 X63.335Y81.11
G1 X63.454Y81.217
G1 X63.497Y81.318
G1 Y81.341
G1 Y81.377
G1 X63.463Y81.418
G1 X63.423Y81.459
G1 X63.329Y81.512
G0 X63.359Y81.609
G1 X63.247Y81.621
G1 X63.145Y81.589
G1 X63.061Y81.521
G1 X63.003Y81.427
G1 X62.983Y81.318
G1 X63.007Y81.203
G1 X63.092Y81.082
G1 X63.181Y81.006
G1 X63.246Y80.979
G1 X63.304
G1 X63.391Y81.026
G1 X63.537Y81.158
G1 X63.597Y81.297
G1 Y81.354
G1 X63.58Y81.417
G1 X63.543Y81.48
G1 X63.486Y81.539
G1 X63.359Y81.609
G0 X63.39Y81.707
G1 X63.236Y81.722
G1 X63.097Y81.678
G1 X62.984Y81.588
G1 X62.908Y81.463
G1 X62.881Y81.317
G1 X62.914Y81.163
G1 X63.017Y81.014
G1 X63.129Y80.919
G1 X63.229Y80.877
G1 X63.331
G1 X63.447Y80.942
G1 X63.62Y81.098
G1 X63.697Y81.276
G1 Y81.367
G1 X63.673Y81.456
G1 X63.623Y81.541
G1 X63.547Y81.619
G1 X63.39Y81.707
G0 X63.61Y82.168
G1 X63.78Y82.069
G1 X63.927Y81.948
G1 X64.048Y81.801
G1 X64.147Y81.631
G1 X64.214Y81.459
G1 X64.238Y81.307
G1 X64.215Y81.145
G1 X64.149Y80.98
G1 X64.049Y80.82
G1 X63.921Y80.672
G1 X63.773Y80.545
G1 X63.613Y80.444
G1 X63.448Y80.378
G1 X63.286Y80.355
G1 X63.123Y80.378
G1 X62.958Y80.444
G1 X62.799Y80.545
G1 X62.651Y80.672
G1 X62.523Y80.82
G1 X62.423Y80.98
G1 X62.357Y81.145
G1 X62.333Y81.307
G1 X62.357Y81.47
G1 X62.423Y81.635
G1 X62.523Y81.795
G1 X62.651Y81.942
G1 X62.799Y82.07
G1 X62.958Y82.17
G1 X63.123Y82.236
G1 X63.286Y82.26
G1 X63.438Y82.235
G1 X63.61Y82.168
G0 X63.654Y82.258
G1 X63.837Y82.151
G1 X63.998Y82.019
G1 X64.13Y81.858
G1 X64.237Y81.675
G1 X64.311Y81.486
G1 X64.339Y81.308
G1 X64.312Y81.119
G1 X64.239Y80.934
G1 X64.129Y80.76
G1 X63.992Y80.601
G1 X63.833Y80.464
G1 X63.659Y80.354
G1 X63.474Y80.281
G1 X63.286Y80.254
G1 X63.097Y80.281
G1 X62.913Y80.354
G1 X62.739Y80.464
G1 X62.58Y80.601
G1 X62.443Y80.76
G1 X62.333Y80.934
G1 X62.26Y81.119
G1 X62.232Y81.307
G1 X62.26Y81.496
G1 X62.333Y81.68
G1 X62.443Y81.854
G1 X62.58Y82.013
G1 X62.739Y82.15
G1 X62.913Y82.26
G1 X63.097Y82.333
G1 X63.287Y82.361
G1 X63.465Y82.332
G1 X63.654Y82.258
G0 X63.697Y82.349
G1 X63.894Y82.233
G1 X64.069Y82.09
G1 X64.212Y81.916
G1 X64.327Y81.718
G1 X64.408Y81.512
G1 X64.441Y81.309
G1 X64.409Y81.093
G1 X64.328Y80.889
G1 X64.21Y80.7
G1 X64.063Y80.531
G1 X63.893Y80.384
G1 X63.704Y80.265
G1 X63.5Y80.184
G1 X63.286Y80.153
G1 X63.071Y80.184
G1 X62.867Y80.265
G1 X62.679Y80.384
G1 X62.509Y80.531
G1 X62.362Y80.7
G1 X62.244Y80.889
G1 X62.162Y81.093
G1 X62.131Y81.307
G1 X62.162Y81.522
G1 X62.244Y81.726
G1 X62.362Y81.914
G1 X62.509Y82.084
G1 X62.679Y82.231
G1 X62.867Y82.349
G1 X63.071Y82.431
G1 X63.288Y82.462
G1 X63.491Y82.429
G1 X63.697Y82.349
G0 X78.431Y76.274
G1 Y76.241
G1 Y76.205
G1 X78.479Y76.138
G1 X78.51Y76.111
G1 X78.609Y76.198
G1 X78.633Y76.255
G1 X78.621Y76.278
G1 X78.6Y76.299
G1 X78.536Y76.335
G1 X78.506
G1 X78.479
G1 X78.451Y76.307
G1 X78.431Y76.274
G0 X78.336Y76.311
G1 X78.323Y76.24
G1 X78.339Y76.164
G1 X78.404Y76.07
G1 X78.472Y76.013
G1 X78.5Y76.001
G1 X78.516
G1 X78.572Y76.03
G1 X78.692Y76.138
G1 X78.735Y76.239
G1 Y76.261
G1 Y76.298
G1 X78.701Y76.339
G1 X78.662Y76.379
G1 X78.566Y76.433
G1 X78.495
G1 X78.432Y76.42
G1 X78.375Y76.374
G1 X78.336Y76.311
G0 X78.241Y76.347
G1 X78.221Y76.239
G1 X78.245Y76.124
G1 X78.33Y76.002
G1 X78.419Y75.927
G1 X78.484Y75.9
G1 X78.542
G1 X78.629Y75.947
G1 X78.775Y76.078
G1 X78.835Y76.217
G1 Y76.275
G1 X78.818Y76.337
G1 X78.781Y76.4
G1 X78.723Y76.459
G1 X78.597Y76.53
G1 X78.486Y76.542
G1 X78.383Y76.509
G1 X78.299Y76.441
G1 X78.241Y76.347
G0 X78.146Y76.384
G1 X78.119Y76.238
G1 X78.152Y76.084
G1 X78.255Y75.935
G1 X78.367Y75.84
G1 X78.467Y75.798
G1 X78.569
G1 X78.685Y75.863
G1 X78.858Y76.019
G1 X78.935Y76.197
G1 Y76.287
G1 X78.911Y76.376
G1 X78.861Y76.461
G1 X78.785Y76.54
G1 X78.628Y76.627
G1 X78.474Y76.643
G1 X78.335Y76.599
G1 X78.222Y76.508
G1 X78.146Y76.384
G0 X77.663Y76.552
G1 X77.762Y76.722
G1 X77.883Y76.869
G1 X78.03Y76.99
G1 X78.2Y77.089
G1 X78.372Y77.156
G1 X78.524Y77.18
G1 X78.676Y77.156
G1 X78.848Y77.089
G1 X79.018Y76.99
G1 X79.165Y76.869
G1 X79.286Y76.722
G1 X79.385Y76.552
G1 X79.452Y76.38
G1 X79.476Y76.228
G1 X79.452Y76.075
G1 X79.385Y75.904
G1 X79.286Y75.734
G1 X79.165Y75.587
G1 X79.018Y75.466
G1 X78.848Y75.367
G1 X78.676Y75.3
G1 X78.524Y75.275
G1 X78.372Y75.3
G1 X78.2Y75.367
G1 X78.03Y75.466
G1 X77.883Y75.587
G1 X77.762Y75.734
G1 X77.663Y75.904
G1 X77.596Y76.075
G1 X77.572Y76.228
G1 X77.596Y76.38
G1 X77.663Y76.552
G0 X77.573Y76.595
G1 X77.68Y76.779
G1 X77.812Y76.94
G1 X77.973Y77.072
G1 X78.156Y77.179
G1 X78.345Y77.253
G1 X78.524Y77.281
G1 X78.703Y77.253
G1 X78.892Y77.179
G1 X79.075Y77.072
G1 X79.236Y76.94
G1 X79.368Y76.779
G1 X79.475Y76.595
G1 X79.549Y76.406
G1 X79.578Y76.228
G1 X79.549Y76.049
G1 X79.475Y75.86
G1 X79.368Y75.677
G1 X79.236Y75.516
G1 X79.075Y75.384
G1 X78.892Y75.277
G1 X78.703Y75.203
G1 X78.524Y75.174
G1 X78.345Y75.203
G1 X78.156Y75.277
G1 X77.973Y75.384
G1 X77.812Y75.516
G1 X77.68Y75.677
G1 X77.573Y75.86
G1 X77.499Y76.049
G1 X77.47Y76.228
G1 X77.499Y76.406
G1 X77.573Y76.595
G0 X77.482Y76.639
G1 X77.598Y76.836
G1 X77.741Y77.011
G1 X77.916Y77.154
G1 X78.113Y77.269
G1 X78.319Y77.35
G1 X78.524Y77.383
G1 X78.729Y77.35
G1 X78.935Y77.269
G1 X79.132Y77.154
G1 X79.307Y77.011
G1 X79.45Y76.836
G1 X79.565Y76.639
G1 X79.646Y76.433
G1 X79.679Y76.228
G1 X79.646Y76.022
G1 X79.565Y75.817
G1 X79.45Y75.619
G1 X79.307Y75.445
G1 X79.132Y75.302
G1 X78.935Y75.187
G1 X78.729Y75.106
G1 X78.524Y75.073
G1 X78.319Y75.106
G1 X78.113Y75.187
G1 X77.916Y75.302
G1 X77.741Y75.445
G1 X77.598Y75.619
G1 X77.482Y75.817
G1 X77.402Y76.022
G1 X77.369Y76.228
G1 X77.402Y76.433
G1 X77.482Y76.639
G0 X68.474Y73.719
G1 X68.463Y73.738
G1 X68.441Y73.76
G1 X68.377Y73.796
G1 X68.347
G1 X68.321
G1 X68.293Y73.768
G1 X68.273Y73.735
G1 Y73.701
G1 Y73.666
G1 X68.32Y73.598
G1 X68.352Y73.572
G1 X68.45Y73.658
G1 X68.475Y73.716
G0 X68.567Y73.758
G1 X68.543Y73.799
G1 X68.503Y73.84
G1 X68.408Y73.893
G1 X68.337
G1 X68.273Y73.88
G1 X68.216Y73.834
G1 X68.177Y73.771
G1 X68.164Y73.701
G1 X68.18Y73.625
G1 X68.246Y73.531
G1 X68.314Y73.473
G1 X68.341Y73.462
G1 X68.357
G1 X68.414Y73.49
G1 X68.533Y73.598
G1 X68.576Y73.699
G1 Y73.722
G1 Y73.758
G0 X68.66Y73.797
G1 X68.622Y73.861
G1 X68.565Y73.919
G1 X68.438Y73.991
G1 X68.326Y74.002
G1 X68.225Y73.97
G1 X68.14Y73.902
G1 X68.083Y73.808
G1 X68.063Y73.699
G1 X68.087Y73.584
G1 X68.171Y73.462
G1 X68.26Y73.387
G1 X68.325Y73.36
G1 X68.384
G1 X68.47Y73.407
G1 X68.617Y73.539
G1 X68.676Y73.677
G1 Y73.735
G1 X68.66Y73.797
G0 X68.752Y73.837
G1 X68.702Y73.922
G1 X68.626Y74
G1 X68.469Y74.088
G1 X68.316Y74.104
G1 X68.177Y74.059
G1 X68.064Y73.969
G1 X67.988Y73.844
G1 X67.96Y73.698
G1 X67.993Y73.544
G1 X68.096Y73.395
G1 X68.208Y73.3
G1 X68.309Y73.258
G1 X68.411
G1 X68.526Y73.323
G1 X68.7Y73.479
G1 X68.776Y73.657
G1 Y73.748
G1 X68.752Y73.837
G0 X69.318Y73.71
G1 Y73.422
G1 Y73.165
G1 X69.302Y72.936
G1 X69.288Y72.735
G1 X69.24Y72.408
G1 X69.163Y72.17
G1 X69.05Y72.009
G1 X68.894Y71.91
G1 X68.689Y71.861
G1 X68.429Y71.847
G1 X68.159Y71.863
G1 X67.944Y71.918
G1 X67.778Y72.024
G1 X67.654Y72.191
G1 X67.568Y72.43
G1 X67.513Y72.751
G1 X67.496Y72.947
G1 X67.485Y73.167
G1 Y73.414
G1 Y73.688
G1 Y74.064
G1 Y74.369
G1 X67.499Y74.613
G1 X67.521Y74.805
G1 X67.594Y75.076
G1 X67.718Y75.262
G1 X67.849Y75.371
G1 X68.01Y75.452
G1 X68.193Y75.504
G1 X68.388Y75.527
G1 X68.585
G1 X68.773Y75.484
G1 X68.943Y75.417
G1 X69.085Y75.319
G1 X69.152Y75.248
G1 X69.205Y75.16
G1 X69.246Y75.046
G1 X69.276Y74.895
G1 X69.296Y74.697
G1 X69.309Y74.44
G1 Y74.115
G1 Y73.71
G0 X69.418
G1 Y73.421
G1 Y73.162
G1 X69.402Y72.93
G1 X69.387Y72.724
G1 X69.338Y72.385
G1 X69.254Y72.125
G1 X69.12Y71.935
G1 X68.934Y71.817
G1 X68.703Y71.761
G1 X68.428Y71.747
G1 X68.144Y71.764
G1 X67.904Y71.825
G1 X67.708Y71.949
G1 X67.565Y72.143
G1 X67.471Y72.404
G1 X67.414Y72.739
G1 X67.396Y72.94
G1 X67.385Y73.164
G1 Y73.412
G1 Y73.688
G1 Y74.066
G1 Y74.373
G1 X67.399Y74.621
G1 X67.422Y74.824
G1 X67.502Y75.118
G1 X67.643Y75.33
G1 X67.793Y75.455
G1 X67.974Y75.546
G1 X68.174Y75.602
G1 X68.384Y75.627
G1 X68.596
G1 X68.801Y75.58
G1 X68.99Y75.506
G1 X69.151Y75.396
G1 X69.232Y75.308
G1 X69.296Y75.203
G1 X69.343Y75.073
G1 X69.375Y74.91
G1 X69.396Y74.704
G1 X69.409Y74.444
G1 Y74.116
G1 Y73.71
G0 X69.518
G1 Y73.42
G1 Y73.158
G1 X69.501Y72.925
G1 X69.487Y72.713
G1 X69.436Y72.363
G1 X69.344Y72.08
G1 X69.191Y71.861
G1 X68.973Y71.723
G1 X68.718Y71.662
G1 X68.428Y71.647
G1 X68.128Y71.665
G1 X67.864Y71.732
G1 X67.639Y71.875
G1 X67.476Y72.095
G1 X67.374Y72.379
G1 X67.315Y72.726
G1 X67.297Y72.933
G1 X67.285Y73.16
G1 Y73.411
G1 Y73.688
G1 Y74.067
G1 Y74.377
G1 X67.299Y74.63
G1 X67.323Y74.843
G1 X67.409Y75.16
G1 X67.568Y75.397
G1 X67.738Y75.54
G1 X67.938Y75.639
G1 X68.154Y75.701
G1 X68.38Y75.727
G1 X68.607
G1 X68.829Y75.677
G1 X69.037Y75.595
G1 X69.217Y75.472
G1 X69.313Y75.369
G1 X69.387Y75.246
G1 X69.439Y75.099
G1 X69.474Y74.925
G1 X69.496Y74.712
G1 X69.509Y74.447
G1 Y74.117
G1 Y73.71
G0 X73.346
G1 Y73.666
G1 X73.4Y73.598
G1 X73.431Y73.572
G1 X73.53Y73.658
G1 X73.554Y73.716
G1 X73.542Y73.738
G1 X73.521Y73.76
G1 X73.456Y73.796
G1 X73.427
G1 X73.401
G1 X73.372Y73.768
G1 X73.352Y73.735
G1 Y73.701
G0 X73.244
G1 X73.26Y73.625
G1 X73.325Y73.531
G1 X73.393Y73.473
G1 X73.42Y73.462
G1 X73.437
G1 X73.493Y73.49
G1 X73.612Y73.598
G1 X73.656Y73.699
G1 Y73.722
G1 X73.646Y73.758
G1 X73.622Y73.799
G1 X73.582Y73.84
G1 X73.487Y73.893
G1 X73.416
G1 X73.352Y73.88
G1 X73.296Y73.834
G1 X73.257Y73.771
G1 X73.244Y73.701
G0 X73.142
G1 X73.166Y73.584
G1 X73.25Y73.462
G1 X73.34Y73.387
G1 X73.404Y73.36
G1 X73.463
G1 X73.549Y73.407
G1 X73.696Y73.539
G1 X73.755Y73.677
G1 Y73.735
G1 X73.739Y73.797
G1 X73.702Y73.861
G1 X73.644Y73.919
G1 X73.517Y73.991
G1 X73.406Y74.002
G1 X73.304Y73.97
G1 X73.219Y73.902
G1 X73.162Y73.808
G1 X73.142Y73.699
G0 X73.04
G1 X73.072Y73.544
G1 X73.176Y73.395
G1 X73.287Y73.3
G1 X73.388Y73.258
G1 X73.49
G1 X73.606Y73.323
G1 X73.779Y73.479
G1 X73.855Y73.657
G1 Y73.748
G1 X73.832Y73.837
G1 X73.782Y73.922
G1 X73.706Y74
G1 X73.549Y74.088
G1 X73.395Y74.104
G1 X73.256Y74.059
G1 X73.143Y73.969
G1 X73.067Y73.844
G1 X73.04Y73.698
G0 X72.556
G1 Y74.064
G1 Y74.369
G1 X72.578Y74.613
G1 X72.6Y74.805
G1 X72.673Y75.076
G1 X72.798Y75.262
G1 X72.928Y75.371
G1 X73.09Y75.452
G1 X73.273Y75.504
G1 X73.468Y75.527
G1 X73.664
G1 X73.852Y75.484
G1 X74.022Y75.417
G1 X74.165Y75.319
G1 X74.232Y75.248
G1 X74.285Y75.16
G1 X74.325Y75.046
G1 X74.355Y74.895
G1 X74.376Y74.697
G1 X74.388Y74.44
G1 Y74.115
G1 Y73.71
G1 Y73.422
G1 Y73.165
G1 Y72.936
G1 X74.367Y72.735
G1 X74.32Y72.408
G1 X74.243Y72.17
G1 X74.129Y72.009
G1 X73.973Y71.91
G1 X73.768Y71.861
G1 X73.508Y71.847
G1 X73.239Y71.863
G1 X73.024Y71.918
G1 X72.857Y72.024
G1 X72.733Y72.191
G1 X72.647Y72.43
G1 X72.593Y72.751
G1 X72.575Y72.947
G1 X72.564Y73.167
G1 Y73.414
G1 Y73.688
G0 X72.456
G1 Y74.066
G1 Y74.373
G1 X72.479Y74.621
G1 X72.501Y74.824
G1 X72.581Y75.118
G1 X72.722Y75.33
G1 X72.873Y75.455
G1 X73.053Y75.546
G1 X73.253Y75.602
G1 X73.463Y75.627
G1 X73.675
G1 X73.88Y75.58
G1 X74.07Y75.506
G1 X74.23Y75.396
G1 X74.312Y75.308
G1 X74.375Y75.203
G1 X74.422Y75.073
G1 X74.454Y74.91
G1 X74.476Y74.704
G1 X74.488Y74.444
G1 Y74.116
G1 Y73.71
G1 Y73.421
G1 Y73.162
G1 Y72.93
G1 X74.467Y72.724
G1 X74.417Y72.385
G1 X74.333Y72.125
G1 X74.2Y71.935
G1 X74.013Y71.817
G1 X73.783Y71.761
G1 X73.508Y71.747
G1 X73.223Y71.764
G1 X72.983Y71.825
G1 X72.788Y71.949
G1 X72.644Y72.143
G1 X72.55Y72.404
G1 X72.493Y72.739
G1 X72.476Y72.94
G1 X72.464Y73.164
G1 Y73.412
G1 Y73.688
G0 X72.356
G1 Y74.067
G1 Y74.377
G1 X72.379Y74.63
G1 X72.403Y74.843
G1 X72.489Y75.16
G1 X72.647Y75.397
G1 X72.818Y75.54
G1 X73.017Y75.639
G1 X73.233Y75.701
G1 X73.459Y75.727
G1 X73.687
G1 X73.908Y75.677
G1 X74.117Y75.595
G1 X74.296Y75.472
G1 X74.392Y75.369
G1 X74.466Y75.247
G1 X74.519Y75.099
G1 X74.553Y74.925
G1 X74.575Y74.712
G1 X74.588Y74.447
G1 Y74.117
G1 Y73.71
G1 Y73.42
G1 Y73.159
G1 Y72.925
G1 X74.566Y72.713
G1 X74.515Y72.363
G1 X74.424Y72.08
G1 X74.27Y71.861
G1 X74.052Y71.723
G1 X73.797Y71.662
G1 X73.507Y71.647
G1 X73.208Y71.665
G1 X72.943Y71.732
G1 X72.719Y71.875
G1 X72.555Y72.095
G1 X72.453Y72.379
G1 X72.394Y72.726
G1 X72.376Y72.933
G1 X72.364Y73.16
G1 Y73.411
G1 Y73.688
G0 X71.014Y73.715
G1 X71.002Y73.739
G1 X70.981Y73.76
G1 X70.917Y73.796
G1 X70.886
G1 X70.861
G1 X70.832Y73.768
G1 X70.813Y73.735
G1 Y73.701
G1 Y73.665
G1 X70.86Y73.598
G1 X70.891Y73.572
G1 X70.99Y73.658
G1 X71.014Y73.715
G0 X71.106Y73.758
G1 X71.082Y73.8
G1 X71.043Y73.84
G1 X70.948Y73.893
G1 X70.876
G1 X70.813Y73.88
G1 X70.756Y73.834
G1 X70.718Y73.771
G1 X70.704Y73.7
G1 X70.72Y73.625
G1 X70.786Y73.53
G1 X70.853Y73.473
G1 X70.88Y73.462
G1 X70.897
G1 X70.953Y73.49
G1 X71.073Y73.598
G1 X71.116Y73.699
G1 Y73.722
G1 Y73.758
G0 X71.199Y73.797
G1 X71.162Y73.861
G1 X71.104Y73.919
G1 X70.979Y73.99
G1 X70.865Y74.002
G1 X70.765Y73.97
G1 X70.679Y73.901
G1 X70.623Y73.808
G1 X70.602Y73.699
G1 X70.626Y73.584
G1 X70.71Y73.463
G1 X70.801Y73.386
G1 X70.865Y73.36
G1 X70.923
G1 X71.01Y73.407
G1 X71.156Y73.539
G1 X71.216Y73.677
G1 Y73.735
G1 X71.199Y73.797
G0 X71.292Y73.837
G1 X71.242Y73.922
G1 X71.166Y74
G1 X71.009Y74.088
G1 X70.855Y74.104
G1 X70.716Y74.059
G1 X70.603Y73.969
G1 X70.528Y73.844
G1 X70.5Y73.698
G1 X70.532Y73.544
G1 X70.636Y73.395
G1 X70.748Y73.3
G1 X70.848Y73.258
G1 X70.95
G1 X71.066Y73.323
G1 X71.239Y73.479
G1 X71.316Y73.657
G1 Y73.748
G1 X71.292Y73.837
G0 X71.857Y73.71
G1 Y73.422
G1 Y73.165
G1 X71.842Y72.936
G1 X71.827Y72.735
G1 X71.78Y72.408
G1 X71.703Y72.17
G1 X71.59Y72.009
G1 X71.434Y71.91
G1 X71.229Y71.861
G1 X70.969Y71.847
G1 X70.699Y71.863
G1 X70.484Y71.918
G1 X70.317Y72.024
G1 X70.194Y72.191
G1 X70.108Y72.43
G1 X70.053Y72.751
G1 X70.036Y72.947
G1 X70.024Y73.167
G1 Y73.414
G1 Y73.688
G1 Y74.064
G1 Y74.369
G1 X70.039Y74.613
G1 X70.06Y74.805
G1 X70.134Y75.076
G1 X70.258Y75.262
G1 X70.388Y75.371
G1 X70.55Y75.452
G1 X70.733Y75.504
G1 X70.928Y75.527
G1 X71.124
G1 X71.313Y75.484
G1 X71.483Y75.417
G1 X71.625Y75.319
G1 X71.692Y75.248
G1 X71.745Y75.16
G1 X71.786Y75.046
G1 X71.815Y74.895
G1 X71.836Y74.697
G1 X71.849Y74.44
G1 Y74.115
G1 Y73.71
G0 X71.957
G1 Y73.421
G1 Y73.162
G1 X71.941Y72.93
G1 X71.927Y72.724
G1 X71.878Y72.385
G1 X71.793Y72.125
G1 X71.66Y71.935
G1 X71.473Y71.817
G1 X71.243Y71.761
G1 X70.968Y71.747
G1 X70.683Y71.764
G1 X70.444Y71.825
G1 X70.248Y71.949
G1 X70.105Y72.143
G1 X70.01Y72.404
G1 X69.954Y72.739
G1 X69.936Y72.94
G1 X69.925Y73.164
G1 Y73.412
G1 Y73.688
G1 Y74.066
G1 Y74.373
G1 X69.939Y74.621
G1 X69.961Y74.824
G1 X70.042Y75.118
G1 X70.183Y75.33
G1 X70.333Y75.455
G1 X70.513Y75.546
G1 X70.714Y75.602
G1 X70.924Y75.627
G1 X71.135
G1 X71.341Y75.58
G1 X71.53Y75.506
G1 X71.691Y75.396
G1 X71.772Y75.308
G1 X71.836Y75.203
G1 X71.882Y75.073
G1 X71.914Y74.91
G1 X71.936Y74.704
G1 X71.949Y74.444
G1 Y74.116
G1 Y73.71
G0 X72.057
G1 Y73.42
G1 Y73.159
G1 X72.041Y72.925
G1 X72.026Y72.713
G1 X71.976Y72.363
G1 X71.884Y72.08
G1 X71.73Y71.861
G1 X71.513Y71.723
G1 X71.258Y71.662
G1 X70.968Y71.647
G1 X70.668Y71.665
G1 X70.404Y71.732
G1 X70.179Y71.875
G1 X70.016Y72.095
G1 X69.914Y72.379
G1 X69.854Y72.726
G1 X69.836Y72.933
G1 X69.824Y73.16
G1 Y73.411
G1 Y73.688
G1 Y74.067
G1 Y74.377
G1 X69.839Y74.629
G1 X69.863Y74.843
G1 X69.949Y75.16
G1 X70.107Y75.397
G1 X70.278Y75.54
G1 X70.477Y75.639
G1 X70.694Y75.701
G1 X70.919Y75.727
G1 X71.147
G1 X71.368Y75.677
G1 X71.577Y75.595
G1 X71.756Y75.472
G1 X71.852Y75.369
G1 X71.926Y75.247
G1 X71.979Y75.099
G1 X72.013Y74.925
G1 X72.036Y74.712
G1 X72.049Y74.447
G1 Y74.117
G1 Y73.71
G0 X75.885
G1 Y73.665
G1 X75.939Y73.598
G1 X75.971Y73.572
G1 X76.069Y73.658
G1 X76.094Y73.715
G1 X76.081Y73.739
G1 X76.061Y73.76
G1 X75.996Y73.796
G1 X75.966
G1 X75.94
G1 X75.912Y73.768
G1 X75.892Y73.735
G1 Y73.701
G0 X75.783
G1 X75.799Y73.625
G1 X75.865Y73.53
G1 X75.932Y73.473
G1 X75.959Y73.462
G1 X75.976
G1 X76.033Y73.49
G1 X76.152Y73.598
G1 X76.195Y73.699
G1 Y73.722
G1 Y73.758
G1 X76.161Y73.8
G1 X76.122Y73.84
G1 X76.027Y73.893
G1 X75.956
G1 X75.892Y73.88
G1 X75.835Y73.834
G1 X75.797Y73.771
G1 X75.783Y73.7
G0 X75.682
G1 X75.706Y73.584
G1 X75.79Y73.463
G1 X75.88Y73.386
G1 X75.944Y73.36
G1 X76.003
G1 X76.089Y73.407
G1 X76.235Y73.539
G1 X76.295Y73.677
G1 Y73.735
G1 X76.279Y73.797
G1 X76.241Y73.861
G1 X76.184Y73.919
G1 X76.058Y73.99
G1 X75.945Y74.002
G1 X75.844Y73.97
G1 X75.759Y73.901
G1 X75.702Y73.808
G1 X75.682Y73.699
G0 X75.58
G1 X75.612Y73.544
G1 X75.715Y73.395
G1 X75.827Y73.3
G1 X75.927Y73.258
G1 X76.03
G1 X76.145Y73.323
G1 X76.319Y73.479
G1 X76.395Y73.657
G1 Y73.748
G1 X76.371Y73.837
G1 X76.321Y73.922
G1 X76.245Y74
G1 X76.088Y74.088
G1 X75.935Y74.104
G1 X75.796Y74.059
G1 X75.683Y73.969
G1 X75.607Y73.844
G1 X75.58Y73.698
G0 X75.095
G1 Y74.064
G1 Y74.369
G1 X75.118Y74.613
G1 X75.139Y74.805
G1 X75.213Y75.076
G1 X75.337Y75.262
G1 X75.468Y75.371
