; LightBurn 1.1.04
; GRBL device profile, absolute coords
; Bounds: X40 Y40 to X94.3 Y124.39
G00 G17 G40 G21 G54
G90
M4
; Cut @ 500 mm/min, 20% power
M8
G0 X47.849Y40.078
G0 Z0
; Layer C07
G1 X47.828Y40.094S200F500
G1 X47.813Y40.116
G1 X47.803Y40.14
G1 X47.761Y40.493
G1 X47.721Y40.644
G1 X47.638Y40.81
G1 X47.519Y40.984
G1 X47.373Y41.156
G1 X47.217Y41.305
G1 X47.059Y41.425
G1 X46.918Y41.499
G1 X46.796Y41.525
G1 X46.759
G1 X46.733Y41.535
G1 X46.677Y41.565
G1 X46.657Y41.583
G1 X46.617Y41.639
G1 Y41.654
G1 X46.577Y41.75
G1 X46.55Y41.898
G1 X46.529Y42.1
G1 X46.512Y42.37
G1 X46.499Y42.722
G1 X46.488Y43.167
G1 X46.476Y44.035
G1 Y45.624
G1 X46.461Y50.666
G1 Y52.89
G1 X46.447Y54.193
G1 X46.434Y55.365
G1 X46.418Y56.418
G1 X46.397Y57.361
G1 X46.37Y58.207
G1 X46.354Y58.597
G1 X46.337Y58.968
G1 X46.318Y59.319
G1 X46.297Y59.653
G1 X46.275Y59.973
G1 X46.25Y60.275
G1 X46.195Y60.847
G1 X46.133Y61.375
G1 X45.979Y62.362
G1 X45.786Y63.317
G1 X45.594Y64.118
G1 X45.376Y64.9
G1 X45.12Y65.691
G1 X44.819Y66.514
G1 X44.649Y66.94
G1 X44.466Y67.38
G1 X44.267Y67.839
G1 X44.051Y68.319
G1 X43.819Y68.821
G1 X43.568Y69.348
G1 X43.297Y69.903
G1 X42.717Y71.075
G1 X42.448Y71.633
G1 X42.198Y72.167
G1 X41.966Y72.679
G1 X41.752Y73.173
G1 X41.554Y73.651
G1 X41.371Y74.116
G1 X41.203Y74.57
G1 X40.906Y75.459
G1 X40.654Y76.341
G1 X40.44Y77.238
G1 X40.255Y78.172
G1 X40.2Y78.515
G1 X40.152Y78.898
G1 X40.11Y79.315
G1 X40.075Y79.762
G1 X40.046Y80.232
G1 X40.024Y80.723
G1 X40.009Y81.227
G1 Y81.74
G1 Y82.774
G1 X40.033Y83.785
G1 X40.058Y84.269
G1 X40.091Y84.731
G1 X40.13Y85.167
G1 X40.177Y85.572
G1 X40.223Y85.894
G1 X40.281Y86.235
G1 X40.349Y86.591
G1 X40.427Y86.961
G1 X40.611Y87.735
G1 X40.828Y88.541
G1 X41.073Y89.364
G1 X41.342Y90.184
G1 X41.629Y90.988
G1 X41.93Y91.756
G1 X42.123Y92.204
G1 X42.332Y92.652
G1 X42.556Y93.1
G1 X42.796Y93.547
G1 X43.319Y94.437
G1 X43.897Y95.319
G1 X44.526Y96.189
G1 X45.2Y97.041
G1 X45.916Y97.871
G1 X46.67Y98.675
G1 X47.457Y99.448
G1 X48.273Y100.187
G1 X49.113Y100.885
G1 X49.974Y101.541
G1 X50.85Y102.148
G1 X51.738Y102.702
G1 X52.634Y103.2
G1 X53.532Y103.636
G1 X54.309Y103.968
G1 X55.12Y104.284
G1 X55.952Y104.58
G1 X56.791Y104.851
G1 X57.624Y105.094
G1 X58.436Y105.304
G1 X58.83Y105.396
G1 X59.214Y105.477
G1 X59.585Y105.548
G1 X59.944Y105.608
G1 X60.627Y105.718
G1 X61.358Y105.839
G1 X62.049Y105.958
G1 X62.612Y106.06
G1 X63.085Y106.161
G1 X63.554Y106.291
G1 X64.003Y106.442
G1 X64.441Y106.618
G1 X64.867Y106.818
G1 X65.272Y107.037
G1 X65.663Y107.28
G1 X66.04Y107.544
G1 X66.39Y107.824
G1 X66.731Y108.13
G1 X67.043Y108.447
G1 X67.339Y108.787
G1 X67.61Y109.141
G1 X67.859Y109.513
G1 X68.082Y109.897
G1 X68.281Y110.301
G1 X68.377Y110.529
G1 X68.477Y110.802
G1 X68.577Y111.111
G1 X68.679Y111.458
G1 X68.781Y111.838
G1 X68.884Y112.249
G1 X68.982Y112.68
G1 X69.21Y113.757
G1 X69.348Y114.345
G1 X69.493Y114.901
G1 X69.645Y115.428
G1 X69.807Y115.928
G1 X69.979Y116.405
G1 X70.162Y116.859
G1 X70.359Y117.293
G1 X70.569Y117.71
G1 X70.794Y118.112
G1 X71.035Y118.502
G1 X71.293Y118.881
G1 X71.57Y119.252
G1 X71.865Y119.618
G1 X72.182Y119.98
G1 X72.52Y120.342
G1 X73.107Y120.917
G1 X73.72Y121.451
G1 X74.355Y121.942
G1 X75.012Y122.39
G1 X75.688Y122.794
G1 X76.384Y123.154
G1 X77.096Y123.469
G1 X77.824Y123.739
G1 X78.566Y123.962
G1 X79.321Y124.14
G1 X80.088Y124.271
G1 X80.864Y124.355
G1 X81.649Y124.391
G1 X82.441Y124.379
G1 X83.239Y124.318
G1 X84.041Y124.208
G1 X84.732Y124.066
G1 X85.422Y123.873
G1 X86.106Y123.631
G1 X86.78Y123.343
G1 X87.443Y123.011
G1 X88.091Y122.637
G1 X88.72Y122.225
G1 X89.328Y121.776
G1 X89.913Y121.293
G1 X90.47Y120.778
G1 X90.998Y120.233
G1 X91.492Y119.661
G1 X91.95Y119.065
G1 X92.368Y118.446
G1 X92.745Y117.807
G1 X93.076Y117.15
G1 X93.328Y116.571
G1 X93.552Y115.991
G1 X93.746Y115.41
G1 X93.91Y114.826
G1 X94.046Y114.24
G1 X94.153Y113.653
G1 X94.23Y113.063
G1 X94.279Y112.47
G1 X94.298Y111.876
G1 Y111.279
G1 X94.249Y110.679
G1 X94.181Y110.077
G1 X94.084Y109.472
G1 X93.958Y108.865
G1 X93.802Y108.254
G1 X93.618Y107.641
G1 X93.465Y107.201
G1 X93.29Y106.766
G1 X93.094Y106.337
G1 X92.877Y105.912
G1 X92.637Y105.491
G1 X92.376Y105.074
G1 X92.092Y104.662
G1 X91.786Y104.253
G1 X91.457Y103.846
G1 X91.105Y103.443
G1 X90.73Y103.042
G1 X90.332Y102.644
G1 X89.91Y102.247
G1 X89.464Y101.852
G1 X88.994Y101.457
G1 X88.104Y100.749
G1 X87.739Y100.444
G1 X87.399Y100.142
G1 X87.084Y99.844
G1 X86.792Y99.545
G1 X86.526Y99.251
G1 X86.284Y98.958
G1 X86.059Y98.657
G1 X85.858Y98.359
G1 X85.678Y98.058
G1 X85.515Y97.748
G1 X85.371Y97.434
G1 X85.241Y97.106
G1 X85.129Y96.773
G1 X85.032Y96.431
G1 X84.949Y96.073
G1 X84.833Y95.39
G1 X84.779Y94.718
G1 Y94.373
G1 Y94.027
G1 X84.817Y93.67
G1 X84.863Y93.305
G1 X84.928Y92.92
G1 X85.009Y92.523
G1 X85.109Y92.107
G1 X85.228Y91.669
G1 X85.365Y91.211
G1 X85.523Y90.723
G1 X85.699Y90.209
G1 X85.896Y89.664
G1 X85.984Y89.411
G1 X86.082Y89.103
G1 X86.184Y88.756
G1 X86.29Y88.379
G1 X86.495Y87.585
G1 X86.673Y86.812
G1 X86.791Y86.245
G1 X86.84Y85.996
G1 X86.882Y85.762
G1 X86.949Y85.32
G1 X86.996Y84.873
G1 X87.013Y84.634
G1 X87.026Y84.378
G1 X87.036Y84.099
G1 Y83.793
G1 X87.048Y83.453
G1 Y83.074
G1 Y81.716
G1 Y80.929
G1 Y80.593
G1 X87.037Y80.289
G1 Y80.012
G1 X87.015Y79.757
G1 X87Y79.52
G1 X86.958Y79.08
G1 X86.898Y78.654
G1 X86.861Y78.433
G1 X86.819Y78.204
G1 X86.716Y77.695
G1 X86.511Y76.782
G1 X86.276Y75.893
G1 X86.004Y75.01
G1 X85.688Y74.11
G1 X85.511Y73.648
G1 X85.321Y73.175
G1 X85.115Y72.689
G1 X84.894Y72.186
G1 X84.656Y71.664
G1 X84.401Y71.121
G1 X84.127Y70.554
G1 X83.551Y69.389
G1 X83.289Y68.849
G1 X83.048Y68.34
G1 X82.824Y67.853
G1 X82.62Y67.391
G1 X82.43Y66.945
G1 X82.254Y66.512
G1 X82.094Y66.094
G1 X81.804Y65.267
G1 X81.552Y64.443
G1 X81.326Y63.591
G1 X81.116Y62.681
G1 X80.775Y61.106
G1 X80.709Y47.548
G1 X80.69Y44.883
G1 X80.675Y43.752
G1 X80.663Y43.167
G1 X80.649Y42.698
G1 X80.632Y42.335
G1 Y42.187
G1 X80.613Y42.061
G1 X80.602Y41.954
G1 X80.59Y41.864
G1 X80.576Y41.789
G1 X80.545Y41.679
G1 Y41.663
G1 X80.498Y41.594
G1 X80.48Y41.574
G1 X80.424Y41.54
G1 X80.399
G1 X80.282Y41.516
G1 X80.213Y41.494
G1 X80.13Y41.455
G1 X80.038Y41.4
G1 X79.838Y41.255
G1 X79.635Y41.075
G1 X79.452Y40.883
G1 X79.301Y40.687
G1 X79.247Y40.601
G1 X79.206Y40.52
G1 X79.182Y40.452
G1 Y40.396
G1 Y40.091
G1 X79.168Y40.065
G1 X79.156Y40.042
G1 X79.138Y40.022
G1 X79.115Y40.009
G1 X79.09
G1 X47.9Y40.064
G1 X47.874
G1 X47.849Y40.078
M9
G1 S0
M5
G90
; return to user-defined finish pos
G0 X0 Y0
M2
