; LightBurn 1.1.04
; GRBL device profile, absolute coords
; Bounds: X40 Y40 to X94.3 Y124.39
G00 G17 G40 G21 G54
G90
M4
; Offset @ 500 mm/min, 30% power
M8
G0 X74.127Y92.866
G0 Z0
; Layer C01
G1 X74.166Y92.898S300F500
G1 X74.188Y92.922
G1 X74.151Y92.97
G1 X74.127Y92.992
G1 X74.117
G1 X74.078Y92.956
G1 X74.057Y92.932
G1 Y92.922
G1 X74.094Y92.883
G1 X74.117Y92.861
G1 X74.127
G0 X74.182Y92.782
G1 X74.235Y92.824
G1 X74.272Y92.867
G1 X74.289Y92.894
G1 Y92.908
G1 Y92.926
G1 Y92.949
G1 X74.266Y92.987
G1 X74.225Y93.039
G1 X74.182Y93.077
G1 X74.155Y93.094
G1 X74.141
G1 X74.124
G1 X74.1
G1 X74.062Y93.07
G1 X74.01Y93.029
G1 X73.971Y92.986
G1 X73.955Y92.959
G1 Y92.945
G1 Y92.928
G1 Y92.904
G1 X73.978Y92.867
G1 X74.02Y92.814
G1 X74.063Y92.776
G1 X74.09Y92.76
G1 X74.104
G1 X74.122
G1 X74.145
G1 X74.182Y92.782
G0 X74.238Y92.699
G1 X74.304Y92.752
G1 X74.353Y92.806
G1 X74.38Y92.852
G1 X74.392Y92.885
G1 Y92.914
G1 Y92.946
G1 X74.38Y92.987
G1 X74.35Y93.042
G1 X74.297Y93.108
G1 X74.241Y93.158
G1 X74.197Y93.185
G1 X74.165Y93.196
G1 X74.135
G1 X74.103
G1 X74.062Y93.184
G1 X74.007Y93.154
G1 X73.941Y93.102
G1 X73.89Y93.045
G1 X73.864Y93.001
G1 X73.853Y92.969
G1 Y92.939
G1 Y92.907
G1 X73.865Y92.867
G1 X73.895Y92.811
G1 X73.948Y92.744
G1 X74.003Y92.695
G1 X74.047Y92.669
G1 X74.081Y92.657
G1 X74.109
G1 X74.141
G1 X74.183Y92.669
G1 X74.238Y92.699
G0 X74.294Y92.616
G1 X74.372Y92.678
G1 X74.435Y92.748
G1 X74.471Y92.808
G1 X74.49Y92.862
G1 Y92.913
G1 Y92.965
G1 X74.472Y93.026
G1 X74.434Y93.098
G1 X74.37Y93.177
G1 X74.301Y93.239
G1 X74.241Y93.275
G1 X74.186Y93.294
G1 X74.137
G1 X74.084
G1 X74.023Y93.276
G1 X73.951Y93.238
G1 X73.872Y93.175
G1 X73.81Y93.105
G1 X73.773Y93.044
G1 X73.755Y92.99
G1 Y92.941
G1 Y92.888
G1 X73.772Y92.828
G1 X73.812Y92.754
G1 X73.874Y92.677
G1 X73.943Y92.615
G1 X74.005Y92.578
G1 X74.058Y92.559
G1 X74.109
G1 X74.161
G1 X74.221Y92.576
G1 X74.294Y92.616
G0 X74.348Y92.531
G1 X74.441Y92.605
G1 X74.515Y92.688
G1 X74.562Y92.766
G1 X74.588Y92.839
G1 Y92.911
G1 Y92.984
G1 X74.565Y93.065
G1 X74.517Y93.154
G1 X74.443Y93.246
G1 X74.362Y93.319
G1 X74.283Y93.366
G1 X74.209Y93.392
G1 X74.138
G1 X74.065
G1 X73.984Y93.369
G1 X73.895Y93.321
G1 X73.803Y93.247
G1 X73.73Y93.166
G1 X73.682Y93.087
G1 X73.657Y93.014
G1 Y92.942
G1 Y92.869
G1 X73.68Y92.788
G1 X73.727Y92.7
G1 X73.801Y92.608
G1 X73.884Y92.534
G1 X73.962Y92.486
G1 X74.035Y92.461
G1 X74.107
G1 X74.18
G1 X74.261Y92.484
G1 X74.348Y92.531
G0 X74.405Y92.448
G1 X74.51Y92.532
G1 X74.596Y92.628
G1 X74.653Y92.723
G1 X74.686Y92.816
G1 X74.697Y92.909
G1 Y93.004
G1 X74.657Y93.104
G1 X74.601Y93.208
G1 X74.516Y93.315
G1 X74.421Y93.4
G1 X74.325Y93.458
G1 X74.232Y93.49
G1 X74.139Y93.501
G1 X74.046
G1 X73.944Y93.461
G1 X73.841Y93.406
G1 X73.734Y93.32
G1 X73.648Y93.225
G1 X73.592Y93.13
G1 X73.559Y93.036
G1 X73.547Y92.944
G1 Y92.85
G1 X73.587Y92.749
G1 X73.644Y92.644
G1 X73.728Y92.539
G1 X73.824Y92.453
G1 X73.918Y92.396
G1 X74.012Y92.363
G1 X74.105Y92.352
G1 X74.2
G1 X74.3Y92.392
G1 X74.405Y92.448
G0 X74.46Y92.365
G1 X74.579Y92.459
G1 X74.677Y92.569
G1 X74.744Y92.681
G1 X74.784Y92.794
G1 X74.798Y92.907
G1 X74.787Y93.025
G1 X74.75Y93.142
G1 X74.685Y93.263
G1 X74.589Y93.384
G1 X74.48Y93.481
G1 X74.368Y93.549
G1 X74.256Y93.588
G1 X74.141Y93.602
G1 X74.024Y93.591
G1 X73.906Y93.554
G1 X73.786Y93.489
G1 X73.665Y93.393
G1 X73.567Y93.284
G1 X73.5Y93.172
G1 X73.461Y93.06
G1 X73.447Y92.946
G1 X73.458Y92.828
G1 X73.494Y92.711
G1 X73.561Y92.588
G1 X73.655Y92.47
G1 X73.765Y92.372
G1 X73.876Y92.305
G1 X73.989Y92.265
G1 X74.103Y92.251
G1 X74.219Y92.262
G1 X74.338Y92.299
G1 X74.46Y92.365
G0 X74.515Y92.281
G1 X74.648Y92.386
G1 X74.758Y92.509
G1 X74.835Y92.637
G1 X74.881Y92.771
G1 X74.898Y92.906
G1 X74.885Y93.044
G1 X74.843Y93.182
G1 X74.768Y93.32
G1 X74.662Y93.452
G1 X74.54Y93.562
G1 X74.411Y93.639
G1 X74.277Y93.686
G1 X74.143Y93.703
G1 X74.005Y93.69
G1 X73.867Y93.647
G1 X73.729Y93.573
G1 X73.596Y93.467
G1 X73.487Y93.344
G1 X73.41Y93.216
G1 X73.363Y93.082
G1 X73.346Y92.948
G1 X73.359Y92.809
G1 X73.402Y92.671
G1 X73.476Y92.534
G1 X73.582Y92.401
G1 X73.705Y92.291
G1 X73.833Y92.214
G1 X73.966Y92.167
G1 X74.102Y92.151
G1 X74.24Y92.163
G1 X74.377Y92.206
G1 X74.515Y92.281
G0 X74.57Y92.197
G1 X74.717Y92.314
G1 X74.839Y92.449
G1 X74.926Y92.595
G1 X74.979Y92.748
G1 X74.999Y92.905
G1 X74.984Y93.063
G1 X74.935Y93.221
G1 X74.852Y93.375
G1 X74.735Y93.521
G1 X74.599Y93.643
G1 X74.454Y93.73
G1 X74.301Y93.784
G1 X74.144Y93.803
G1 X73.986Y93.788
G1 X73.828Y93.74
G1 X73.674Y93.656
G1 X73.527Y93.539
G1 X73.406Y93.404
G1 X73.318Y93.258
G1 X73.265Y93.105
G1 X73.246Y92.948
G1 X73.26Y92.79
G1 X73.309Y92.632
G1 X73.392Y92.479
G1 X73.51Y92.332
G1 X73.645Y92.21
G1 X73.791Y92.123
G1 X73.943Y92.069
G1 X74.1Y92.05
G1 X74.259Y92.065
G1 X74.417Y92.114
G1 X74.57Y92.197
G0 X74.724Y92.001
G1 X74.531Y91.885
G1 X74.328Y91.81
G1 X74.122Y91.784
G1 X73.916Y91.81
G1 X73.713Y91.885
G1 X73.521Y92.001
G1 X73.346Y92.15
G1 X73.197Y92.325
G1 X73.081Y92.518
G1 X73.006Y92.721
G1 X72.979Y92.927
G1 X73.002Y93.127
G1 X73.07Y93.32
G1 X73.186Y93.509
G1 X73.351Y93.698
G1 X73.54Y93.863
G1 X73.729Y93.979
G1 X73.922Y94.047
G1 X74.122Y94.069
G1 X74.328Y94.043
G1 X74.531Y93.968
G1 X74.724Y93.852
G1 X74.898Y93.703
G1 X75.048Y93.528
G1 X75.163Y93.336
G1 X75.238Y93.133
G1 X75.265Y92.927
G1 X75.238Y92.721
G1 X75.163Y92.518
G1 X75.048Y92.325
G1 X74.898Y92.15
G1 X74.724Y92.001
G0 X74.782Y91.92
G1 X74.575Y91.795
G1 X74.352Y91.713
G1 X74.122Y91.683
G1 X73.892Y91.713
G1 X73.67Y91.795
G1 X73.462Y91.92
G1 X73.275Y92.08
G1 X73.115Y92.266
G1 X72.99Y92.474
G1 X72.908Y92.697
G1 X72.879Y92.926
G1 X72.904Y93.149
G1 X72.979Y93.363
G1 X73.105Y93.569
G1 X73.28Y93.769
G1 X73.48Y93.944
G1 X73.686Y94.07
G1 X73.899Y94.145
G1 X74.123Y94.17
G1 X74.352Y94.14
G1 X74.575Y94.058
G1 X74.782Y93.933
G1 X74.969Y93.774
G1 X75.129Y93.587
G1 X75.254Y93.379
G1 X75.336Y93.157
G1 X75.366Y92.927
G1 X75.336Y92.697
G1 X75.254Y92.474
G1 X75.129Y92.266
G1 X74.969Y92.079
G1 X74.782Y91.92
G0 X74.841Y91.838
G1 X74.618Y91.704
G1 X74.376Y91.615
G1 X74.122Y91.582
G1 X73.868Y91.615
G1 X73.626Y91.704
G1 X73.403Y91.838
G1 X73.204Y92.009
G1 X73.034Y92.208
G1 X72.9Y92.431
G1 X72.811Y92.673
G1 X72.778Y92.925
G1 X72.805Y93.172
G1 X72.888Y93.406
G1 X73.024Y93.628
G1 X73.209Y93.84
G1 X73.421Y94.025
G1 X73.643Y94.16
G1 X73.877Y94.243
G1 X74.124Y94.271
G1 X74.376Y94.238
G1 X74.618Y94.149
G1 X74.841Y94.015
G1 X75.04Y93.845
G1 X75.21Y93.646
G1 X75.344Y93.423
G1 X75.434Y93.181
G1 X75.467Y92.927
G1 X75.434Y92.673
G1 X75.344Y92.431
G1 X75.21Y92.208
G1 X75.04Y92.009
G1 X74.841Y91.838
G0 X74.9Y91.757
G1 X74.662Y91.614
G1 X74.4Y91.517
G1 X74.122Y91.481
G1 X73.844Y91.517
G1 X73.583Y91.614
G1 X73.344Y91.757
G1 X73.133Y91.938
G1 X72.953Y92.149
G1 X72.809Y92.387
G1 X72.713Y92.649
G1 X72.677Y92.924
G1 X72.707Y93.195
G1 X72.798Y93.449
G1 X72.943Y93.687
G1 X73.138Y93.911
G1 X73.362Y94.106
G1 X73.599Y94.251
G1 X73.854Y94.342
G1 X74.125Y94.372
G1 X74.4Y94.336
G1 X74.662Y94.24
G1 X74.9Y94.096
G1 X75.111Y93.916
G1 X75.292Y93.704
G1 X75.435Y93.466
G1 X75.531Y93.205
G1 X75.568Y92.927
G1 X75.531Y92.648
G1 X75.435Y92.387
G1 X75.292Y92.149
G1 X75.111Y91.938
G1 X74.9Y91.757
G0 X52.981Y92.922
G1 X52.946Y92.969
G1 X52.921Y92.992
G1 X52.911
G1 X52.872Y92.955
G1 X52.851Y92.931
G1 X52.886Y92.883
G1 X52.911Y92.861
G1 X52.96Y92.898
G1 X52.981Y92.922
G0 X53.066Y92.867
G1 X53.083Y92.894
G1 Y92.908
G1 Y92.926
G1 Y92.949
G1 X53.06Y92.987
G1 X53.019Y93.038
G1 X52.975Y93.077
G1 X52.948Y93.093
G1 X52.934
G1 X52.917
G1 X52.894
G1 X52.855Y93.07
G1 X52.803Y93.029
G1 X52.765Y92.986
G1 X52.749Y92.959
G1 Y92.945
G1 Y92.927
G1 Y92.904
G1 X52.772Y92.867
G1 X52.813Y92.815
G1 X52.857Y92.776
G1 X52.883Y92.76
G1 X52.897
G1 X52.915
G1 X52.938
G1 X52.977Y92.783
G1 X53.028Y92.824
G1 X53.066Y92.867
G0 X53.147Y92.806
G1 X53.174Y92.852
G1 X53.186Y92.885
G1 Y92.914
G1 Y92.946
G1 X53.173Y92.987
G1 X53.144Y93.042
G1 X53.091Y93.108
G1 X53.035Y93.158
G1 X52.991Y93.184
G1 X52.957Y93.196
G1 X52.929
G1 X52.897
G1 X52.856Y93.184
G1 X52.8Y93.154
G1 X52.734Y93.101
G1 X52.685Y93.046
G1 X52.658Y93.001
G1 X52.646Y92.969
G1 Y92.938
G1 Y92.907
G1 X52.658Y92.867
G1 X52.688Y92.811
G1 X52.741Y92.745
G1 X52.796Y92.695
G1 X52.841Y92.669
G1 X52.875Y92.657
G1 X52.903
G1 X52.935
G1 X52.976Y92.669
G1 X53.031Y92.699
G1 X53.098Y92.752
G1 X53.147Y92.806
G0 X53.228Y92.748
G1 X53.264Y92.808
G1 X53.283Y92.862
G1 Y92.913
G1 Y92.965
G1 X53.266Y93.026
G1 X53.227Y93.098
G1 X53.165Y93.176
G1 X53.095Y93.238
G1 X53.033Y93.275
G1 X52.979Y93.294
G1 X52.931
G1 X52.878
G1 X52.816Y93.276
G1 X52.744Y93.237
G1 X52.666Y93.175
G1 X52.604Y93.105
G1 X52.567Y93.044
G1 X52.548Y92.99
G1 Y92.94
G1 Y92.888
G1 X52.566Y92.828
G1 X52.605Y92.755
G1 X52.667Y92.677
G1 X52.737Y92.615
G1 X52.799Y92.578
G1 X52.851Y92.559
G1 X52.902
G1 X52.954
G1 X53.015Y92.577
G1 X53.088Y92.616
G1 X53.166Y92.678
G1 X53.228Y92.748
G0 X53.309Y92.688
G1 X53.356Y92.766
G1 X53.382Y92.839
G1 Y92.911
G1 Y92.984
G1 X53.358Y93.065
G1 X53.311Y93.153
G1 X53.237Y93.245
G1 X53.155Y93.319
G1 X53.076Y93.367
G1 X53.003Y93.392
G1 X52.931
G1 X52.858
G1 X52.778Y93.369
G1 X52.689Y93.321
G1 X52.597Y93.248
G1 X52.523Y93.165
G1 X52.476Y93.087
G1 X52.45Y93.014
G1 Y92.941
G1 Y92.869
G1 X52.473Y92.788
G1 X52.52Y92.701
G1 X52.595Y92.607
G1 X52.677Y92.534
G1 X52.756Y92.486
G1 X52.829Y92.461
G1 X52.9
G1 X52.973
G1 X53.054Y92.484
G1 X53.143Y92.532
G1 X53.235Y92.605
G1 X53.309Y92.688
G0 X53.389Y92.628
G1 X53.447Y92.723
G1 X53.479Y92.816
G1 X53.491Y92.909
G1 Y93.004
G1 X53.451Y93.104
G1 X53.395Y93.208
G1 X53.31Y93.315
G1 X53.214Y93.4
G1 X53.12Y93.457
G1 X53.025Y93.49
G1 X52.933Y93.501
G1 X52.839
G1 X52.738Y93.461
G1 X52.634Y93.405
G1 X52.528Y93.321
G1 X52.442Y93.225
G1 X52.385Y93.13
G1 X52.352Y93.036
G1 X52.341Y92.945
G1 Y92.849
G1 X52.381Y92.749
G1 X52.437Y92.645
G1 X52.522Y92.538
G1 X52.618Y92.453
G1 X52.712Y92.396
G1 X52.806Y92.363
G1 X52.898Y92.352
G1 X52.994
G1 X53.094Y92.392
G1 X53.198Y92.448
G1 X53.304Y92.532
G1 X53.389Y92.628
G0 X53.47Y92.569
G1 X53.538Y92.681
G1 X53.577Y92.794
G1 X53.591Y92.907
G1 X53.581Y93.025
G1 X53.544Y93.142
G1 X53.478Y93.264
G1 X53.384Y93.383
G1 X53.273Y93.481
G1 X53.162Y93.548
G1 X53.049Y93.588
G1 X52.935Y93.602
G1 X52.818Y93.591
G1 X52.7Y93.554
G1 X52.579Y93.489
G1 X52.459Y93.394
G1 X52.361Y93.284
G1 X52.294Y93.172
G1 X52.255Y93.06
G1 X52.24Y92.946
G1 X52.251Y92.828
G1 X52.288Y92.711
G1 X52.354Y92.588
G1 X52.449Y92.47
G1 X52.559Y92.372
G1 X52.67Y92.305
G1 X52.783Y92.265
G1 X52.897Y92.251
G1 X53.014Y92.262
G1 X53.132Y92.299
G1 X53.253Y92.364
G1 X53.373Y92.459
G1 X53.47Y92.569
G0 X53.551Y92.509
G1 X53.628Y92.637
G1 X53.675Y92.771
G1 X53.692Y92.906
G1 X53.679Y93.044
G1 X53.636Y93.182
G1 X53.563Y93.319
G1 X53.455Y93.453
G1 X53.333Y93.562
G1 X53.205Y93.639
G1 X53.071Y93.686
G1 X52.937Y93.703
G1 X52.798Y93.69
G1 X52.661Y93.647
G1 X52.523Y93.573
G1 X52.39Y93.467
G1 X52.281Y93.344
G1 X52.203Y93.216
G1 X52.156Y93.082
G1 X52.14Y92.948
G1 X52.153Y92.809
G1 X52.195Y92.671
G1 X52.27Y92.534
G1 X52.376Y92.401
G1 X52.498Y92.291
G1 X52.627Y92.214
G1 X52.76Y92.167
G1 X52.896Y92.151
G1 X53.033Y92.163
G1 X53.171Y92.206
G1 X53.309Y92.281
G1 X53.442Y92.386
G1 X53.551Y92.509
G0 X53.632Y92.449
G1 X53.72Y92.595
G1 X53.773Y92.748
G1 X53.792Y92.905
G1 X53.778Y93.063
G1 X53.729Y93.221
G1 X53.646Y93.375
G1 X53.529Y93.521
G1 X53.393Y93.643
G1 X53.247Y93.73
G1 X53.095Y93.784
G1 X52.938Y93.803
G1 X52.779Y93.788
G1 X52.622Y93.74
G1 X52.468Y93.656
G1 X52.321Y93.539
G1 X52.199Y93.404
G1 X52.112Y93.258
G1 X52.059Y93.105
G1 X52.039Y92.948
G1 X52.054Y92.79
G1 X52.103Y92.632
G1 X52.186Y92.479
G1 X52.303Y92.332
G1 X52.439Y92.21
G1 X52.584Y92.123
G1 X52.737Y92.069
G1 X52.894Y92.05
G1 X53.052Y92.065
G1 X53.21Y92.114
G1 X53.364Y92.197
G1 X53.511Y92.314
G1 X53.632Y92.449
G0 X53.853Y92.344
G1 X53.688Y92.155
G1 X53.499Y91.99
G1 X53.309Y91.874
G1 X53.116Y91.806
G1 X52.916Y91.784
G1 X52.716Y91.806
G1 X52.522Y91.874
G1 X52.333Y91.99
G1 X52.144Y92.155
G1 X51.979Y92.344
G1 X51.864Y92.533
G1 X51.795Y92.726
G1 X51.773Y92.927
G1 X51.795Y93.127
G1 X51.864Y93.32
G1 X51.979Y93.509
G1 X52.144Y93.698
G1 X52.333Y93.863
G1 X52.522Y93.979
G1 X52.716Y94.047
G1 X52.916Y94.069
G1 X53.122Y94.043
G1 X53.325Y93.968
G1 X53.518Y93.852
G1 X53.692Y93.703
G1 X53.841Y93.528
G1 X53.957Y93.336
G1 X54.032Y93.133
G1 X54.059Y92.927
G1 X54.036Y92.726
G1 X53.968Y92.533
G1 X53.853Y92.344
G0 X53.933Y92.285
G1 X53.758Y92.084
G1 X53.558Y91.909
G1 X53.353Y91.783
G1 X53.139Y91.708
G1 X52.916Y91.683
G1 X52.693Y91.708
G1 X52.479Y91.783
G1 X52.274Y91.909
G1 X52.073Y92.084
G1 X51.898Y92.285
G1 X51.773Y92.49
G1 X51.697Y92.704
G1 X51.672Y92.927
G1 X51.697Y93.149
G1 X51.773Y93.363
G1 X51.898Y93.569
G1 X52.073Y93.769
G1 X52.274Y93.944
G1 X52.479Y94.07
G1 X52.693Y94.145
G1 X52.917Y94.17
G1 X53.146Y94.14
G1 X53.368Y94.058
G1 X53.576Y93.933
G1 X53.763Y93.774
G1 X53.923Y93.587
G1 X54.048Y93.379
G1 X54.13Y93.157
G1 X54.16Y92.927
G1 X54.135Y92.704
G1 X54.059Y92.49
G1 X53.933Y92.285
G0 X54.014Y92.225
G1 X53.829Y92.013
G1 X53.617Y91.828
G1 X53.396Y91.693
G1 X53.161Y91.61
G1 X52.916Y91.583
G1 X52.671Y91.61
G1 X52.436Y91.693
G1 X52.215Y91.828
G1 X52.002Y92.013
G1 X51.817Y92.225
G1 X51.682Y92.447
G1 X51.599Y92.681
G1 X51.572Y92.927
G1 X51.599Y93.172
G1 X51.682Y93.406
G1 X51.817Y93.628
G1 X52.003Y93.84
G1 X52.215Y94.025
G1 X52.436Y94.16
G1 X52.671Y94.243
G1 X52.918Y94.271
G1 X53.17Y94.238
G1 X53.412Y94.149
G1 X53.635Y94.015
G1 X53.834Y93.845
G1 X54.004Y93.646
G1 X54.138Y93.423
G1 X54.227Y93.181
G1 X54.26Y92.928
G1 X54.233Y92.681
G1 X54.15Y92.447
G1 X54.014Y92.225
G0 X54.095Y92.166
G1 X53.9Y91.942
G1 X53.677Y91.747
G1 X53.439Y91.602
G1 X53.184Y91.512
G1 X52.916Y91.482
G1 X52.648Y91.512
G1 X52.393Y91.602
G1 X52.155Y91.747
G1 X51.932Y91.942
G1 X51.737Y92.166
G1 X51.591Y92.404
G1 X51.501Y92.659
G1 X51.471Y92.927
G1 X51.501Y93.195
G1 X51.591Y93.449
G1 X51.737Y93.688
G1 X51.932Y93.911
G1 X52.155Y94.106
G1 X52.393Y94.251
G1 X52.648Y94.342
G1 X52.919Y94.372
G1 X53.194Y94.336
G1 X53.455Y94.24
G1 X53.694Y94.096
G1 X53.905Y93.916
G1 X54.085Y93.704
G1 X54.229Y93.466
G1 X54.325Y93.205
G1 X54.361Y92.929
G1 X54.331Y92.659
G1 X54.241Y92.404
G1 X54.095Y92.166
G0 X52.921Y71.658
G1 X52.911
G1 X52.872Y71.622
G1 X52.851Y71.598
G1 Y71.588
G1 X52.886Y71.55
G1 X52.911Y71.528
G1 X52.96Y71.564
G1 X52.981Y71.588
G1 Y71.598
G1 X52.945Y71.637
G1 X52.921Y71.658
G0 X52.976Y71.743
G1 X52.948Y71.76
G1 X52.935
G1 X52.917
G1 X52.894
G1 X52.855Y71.737
G1 X52.803Y71.696
G1 X52.765Y71.653
G1 X52.749Y71.626
G1 Y71.612
G1 Y71.594
G1 Y71.572
G1 X52.772Y71.533
G1 X52.813Y71.482
G1 X52.857Y71.443
G1 X52.883Y71.427
G1 X52.897
G1 X52.915
G1 X52.938
G1 X52.977Y71.45
G1 X53.028Y71.491
G1 X53.067Y71.534
G1 X53.083Y71.561
G1 Y71.574
G1 Y71.592
G1 Y71.616
G1 X53.06Y71.653
G1 X53.018Y71.706
G1 X52.976Y71.743
G0 X53.035Y71.824
G1 X52.991Y71.851
G1 X52.957Y71.863
G1 X52.929
G1 X52.897
G1 X52.856Y71.851
G1 X52.8Y71.821
G1 X52.734Y71.768
G1 X52.685Y71.713
G1 X52.658Y71.668
G1 X52.646Y71.636
G1 Y71.605
G1 Y71.574
G1 X52.658Y71.533
G1 X52.688Y71.478
G1 X52.741Y71.412
G1 X52.796Y71.362
G1 X52.841Y71.335
G1 X52.875Y71.324
G1 X52.903
G1 X52.935
G1 X52.976Y71.336
G1 X53.031Y71.366
G1 X53.098Y71.419
G1 X53.147Y71.474
G1 X53.174Y71.518
G1 X53.186Y71.552
G1 Y71.58
G1 Y71.612
G1 X53.174Y71.653
G1 X53.144Y71.709
G1 X53.091Y71.775
G1 X53.035Y71.824
G0 X53.095Y71.905
G1 X53.033Y71.942
G1 X52.98Y71.961
G1 X52.929
G1 X52.878
G1 X52.816Y71.943
G1 X52.744Y71.904
G1 X52.666Y71.842
G1 X52.604Y71.772
G1 X52.567Y71.711
G1 X52.548Y71.657
G1 Y71.607
G1 Y71.555
G1 X52.566Y71.495
G1 X52.605Y71.422
G1 X52.667Y71.343
G1 X52.737Y71.281
G1 X52.799Y71.244
G1 X52.851Y71.226
G1 X52.902
G1 X52.954
G1 X53.015Y71.243
G1 X53.087Y71.282
G1 X53.166Y71.344
G1 X53.228Y71.414
G1 X53.265Y71.475
G1 X53.283Y71.529
G1 Y71.58
G1 Y71.631
G1 X53.266Y71.692
G1 X53.227Y71.765
G1 X53.165Y71.843
G1 X53.095Y71.905
G0 X53.156Y71.985
G1 X53.076Y72.033
G1 X53.003Y72.059
G1 X52.931
G1 X52.858
G1 X52.778Y72.036
G1 X52.689Y71.988
G1 X52.597Y71.915
G1 X52.523Y71.832
G1 X52.476Y71.754
G1 X52.45Y71.681
G1 Y71.608
G1 Y71.535
G1 X52.473Y71.455
G1 X52.52Y71.368
G1 X52.595Y71.274
G1 X52.677Y71.201
G1 X52.756Y71.153
G1 X52.829Y71.128
G1 X52.9
G1 X52.973
G1 X53.054Y71.151
G1 X53.143Y71.198
G1 X53.235Y71.272
G1 X53.309Y71.354
G1 X53.356Y71.433
G1 X53.381Y71.505
G1 Y71.578
G1 Y71.651
G1 X53.358Y71.732
G1 X53.311Y71.819
G1 X53.237Y71.913
G1 X53.156Y71.985
G0 X53.214Y72.067
G1 X53.12Y72.124
G1 X53.026Y72.156
G1 X52.933Y72.168
G1 X52.838
G1 X52.738Y72.128
G1 X52.634Y72.072
G1 X52.528Y71.988
G1 X52.442Y71.891
G1 X52.385Y71.797
G1 X52.353Y71.703
G1 X52.341Y71.611
G1 Y71.515
G1 X52.381Y71.416
G1 X52.437Y71.312
G1 X52.522Y71.205
G1 X52.618Y71.119
G1 X52.712Y71.063
G1 X52.806Y71.03
G1 X52.898Y71.019
G1 X52.994
G1 X53.094Y71.058
G1 X53.198Y71.115
G1 X53.304Y71.199
G1 X53.39Y71.295
G1 X53.447Y71.389
G1 X53.479Y71.483
G1 X53.491Y71.575
G1 Y71.671
G1 X53.451Y71.771
G1 X53.395Y71.875
G1 X53.311Y71.981
G1 X53.214Y72.067
G0 X53.275Y72.147
G1 X53.162Y72.215
G1 X53.049Y72.255
G1 X52.935Y72.269
G1 X52.818Y72.258
G1 X52.7Y72.221
G1 X52.579Y72.156
G1 X52.459Y72.06
G1 X52.361Y71.951
G1 X52.294Y71.839
G1 X52.255Y71.727
G1 X52.24Y71.612
G1 X52.251Y71.496
G1 X52.288Y71.377
G1 X52.354Y71.256
G1 X52.449Y71.136
G1 X52.559Y71.038
G1 X52.67Y70.971
G1 X52.783Y70.932
G1 X52.897Y70.918
G1 X53.014Y70.929
G1 X53.132Y70.965
G1 X53.253Y71.031
G1 X53.373Y71.126
G1 X53.471Y71.236
G1 X53.538Y71.347
G1 X53.577Y71.46
G1 X53.591Y71.574
G1 X53.581Y71.691
G1 X53.544Y71.809
G1 X53.478Y71.931
G1 X53.383Y72.051
G1 X53.275Y72.147
G0 X53.333Y72.229
G1 X53.205Y72.306
G1 X53.072Y72.352
G1 X52.936Y72.369
G1 X52.798Y72.356
G1 X52.661Y72.314
G1 X52.523Y72.239
G1 X52.39Y72.133
G1 X52.28Y72.011
G1 X52.203Y71.882
G1 X52.156Y71.749
G1 X52.14Y71.614
G1 X52.153Y71.476
G1 X52.196Y71.338
G1 X52.27Y71.2
G1 X52.376Y71.067
G1 X52.498Y70.958
G1 X52.627Y70.881
G1 X52.76Y70.834
G1 X52.896Y70.817
G1 X53.033Y70.83
G1 X53.171Y70.873
G1 X53.309Y70.947
G1 X53.442Y71.053
G1 X53.551Y71.176
G1 X53.629Y71.304
G1 X53.675Y71.437
G1 X53.692Y71.573
G1 X53.679Y71.711
G1 X53.636Y71.848
G1 X53.562Y71.986
G1 X53.457Y72.118
G1 X53.333Y72.229
G0 X53.393Y72.31
G1 X53.247Y72.397
G1 X53.095Y72.45
G1 X52.938Y72.47
G1 X52.779Y72.455
G1 X52.622Y72.406
G1 X52.468Y72.323
G1 X52.321Y72.206
G1 X52.199Y72.07
G1 X52.112Y71.925
G1 X52.059Y71.772
G1 X52.039Y71.615
G1 X52.054Y71.457
G1 X52.103Y71.299
G1 X52.186Y71.146
G1 X52.303Y70.998
G1 X52.439Y70.877
G1 X52.584Y70.79
G1 X52.737Y70.736
G1 X52.894Y70.717
G1 X53.052Y70.731
G1 X53.21Y70.78
G1 X53.364Y70.863
G1 X53.511Y70.98
G1 X53.632Y71.116
G1 X53.72Y71.262
G1 X53.773Y71.414
G1 X53.792Y71.571
G1 X53.778Y71.73
G1 X53.729Y71.887
G1 X53.646Y72.041
G1 X53.529Y72.188
G1 X53.393Y72.31
G0 X53.518Y72.519
G1 X53.692Y72.37
G1 X53.841Y72.195
G1 X53.957Y72.002
G1 X54.032Y71.799
G1 X54.059Y71.593
G1 X54.032Y71.387
G1 X53.957Y71.184
G1 X53.841Y70.992
G1 X53.692Y70.817
G1 X53.518Y70.668
G1 X53.325Y70.552
G1 X53.122Y70.477
G1 X52.916Y70.45
G1 X52.71Y70.477
G1 X52.507Y70.552
G1 X52.314Y70.668
G1 X52.14Y70.817
G1 X51.991Y70.992
G1 X51.875Y71.184
G1 X51.8Y71.387
G1 X51.773Y71.593
G1 X51.795Y71.793
G1 X51.864Y71.987
G1 X51.979Y72.176
G1 X52.144Y72.365
G1 X52.333Y72.53
G1 X52.522Y72.646
G1 X52.716Y72.714
G1 X52.916Y72.736
G1 X53.122Y72.709
G1 X53.325Y72.634
G1 X53.518Y72.519
G0 X53.576Y72.6
G1 X53.763Y72.441
G1 X53.923Y72.253
G1 X54.048Y72.046
G1 X54.13Y71.823
G1 X54.16Y71.593
G1 X54.13Y71.363
G1 X54.048Y71.141
G1 X53.923Y70.933
G1 X53.763Y70.746
G1 X53.576Y70.586
G1 X53.368Y70.462
G1 X53.146Y70.379
G1 X52.916Y70.35
G1 X52.686Y70.379
G1 X52.463Y70.462
G1 X52.256Y70.586
G1 X52.069Y70.746
G1 X51.909Y70.933
G1 X51.784Y71.141
G1 X51.702Y71.363
G1 X51.672Y71.592
G1 X51.697Y71.816
G1 X51.773Y72.03
G1 X51.898Y72.235
G1 X52.073Y72.436
G1 X52.274Y72.611
G1 X52.479Y72.736
G1 X52.693Y72.812
G1 X52.917Y72.837
G1 X53.146Y72.807
G1 X53.368Y72.725
G1 X53.576Y72.6
G0 X53.635Y72.681
G1 X53.834Y72.511
G1 X54.004Y72.312
G1 X54.138Y72.089
G1 X54.227Y71.847
G1 X54.26Y71.593
G1 X54.227Y71.339
G1 X54.138Y71.097
G1 X54.004Y70.875
G1 X53.834Y70.675
G1 X53.635Y70.505
G1 X53.412Y70.371
G1 X53.17Y70.281
G1 X52.916Y70.249
G1 X52.662Y70.281
G1 X52.42Y70.371
G1 X52.197Y70.505
G1 X51.998Y70.675
G1 X51.828Y70.875
G1 X51.694Y71.097
G1 X51.604Y71.339
G1 X51.572Y71.592
G1 X51.599Y71.838
G1 X51.682Y72.073
G1 X51.817Y72.295
G1 X52.003Y72.507
G1 X52.215Y72.692
G1 X52.436Y72.827
G1 X52.671Y72.91
G1 X52.918Y72.938
G1 X53.17Y72.905
G1 X53.412Y72.815
G1 X53.635Y72.681
G0 X53.693Y72.763
G1 X53.905Y72.583
G1 X54.086Y72.371
G1 X54.229Y72.133
G1 X54.325Y71.872
G1 X54.361Y71.593
G1 X54.325Y71.315
G1 X54.229Y71.054
G1 X54.086Y70.816
G1 X53.905Y70.604
G1 X53.693Y70.424
G1 X53.455Y70.281
G1 X53.194Y70.184
G1 X52.916Y70.148
G1 X52.638Y70.184
G1 X52.376Y70.281
G1 X52.138Y70.424
G1 X51.927Y70.604
G1 X51.746Y70.816
G1 X51.603Y71.054
G1 X51.507Y71.315
G1 X51.471Y71.591
G1 X51.501Y71.861
G1 X51.591Y72.116
G1 X51.737Y72.354
G1 X51.932Y72.578
G1 X52.155Y72.772
G1 X52.393Y72.918
G1 X52.648Y73.008
G1 X52.919Y73.038
G1 X53.194Y73.003
G1 X53.455Y72.906
G1 X53.693Y72.763
G0 X74.057Y71.598
G1 X74.094Y71.549
G1 X74.117Y71.528
G1 X74.127
G1 X74.166Y71.564
G1 X74.188Y71.588
G1 Y71.598
G1 X74.151Y71.637
G1 X74.127Y71.658
G1 X74.117
G1 X74.078Y71.622
G1 X74.057Y71.598
G0 X73.971Y71.653
G1 X73.955Y71.626
G1 Y71.612
G1 Y71.594
G1 Y71.571
G1 X73.978Y71.533
G1 X74.02Y71.481
G1 X74.063Y71.443
G1 X74.09Y71.427
G1 X74.104
G1 X74.122
G1 X74.145
G1 X74.182Y71.449
G1 X74.235Y71.491
G1 X74.273Y71.534
G1 X74.289Y71.561
G1 Y71.574
G1 Y71.592
G1 Y71.616
G1 X74.266Y71.653
G1 X74.225Y71.705
G1 X74.182Y71.743
G1 X74.155Y71.76
G1 X74.141
G1 X74.123
G1 X74.1
G1 X74.062Y71.737
G1 X74.01Y71.696
G1 X73.971Y71.653
G0 X73.89Y71.712
G1 X73.864Y71.668
G1 X73.853Y71.636
G1 Y71.606
G1 Y71.574
G1 X73.865Y71.533
G1 X73.895Y71.478
G1 X73.948Y71.411
G1 X74.003Y71.362
G1 X74.047Y71.335
G1 X74.081Y71.324
G1 X74.109
G1 X74.141
G1 X74.183Y71.336
G1 X74.238Y71.366
G1 X74.304Y71.419
G1 X74.354Y71.474
G1 X74.38Y71.518
G1 X74.392Y71.552
G1 Y71.58
G1 Y71.612
G1 X74.38Y71.653
G1 X74.35Y71.709
G1 X74.297Y71.775
G1 X74.242Y71.824
G1 X74.197Y71.851
G1 X74.164Y71.863
G1 X74.135
G1 X74.103
G1 X74.062Y71.851
G1 X74.007Y71.821
G1 X73.941Y71.768
G1 X73.89Y71.712
G0 X73.81Y71.772
G1 X73.773Y71.711
G1 X73.755Y71.657
G1 Y71.608
G1 Y71.555
G1 X73.772Y71.494
G1 X73.812Y71.421
G1 X73.874Y71.344
G1 X73.943Y71.281
G1 X74.005Y71.244
G1 X74.058Y71.226
G1 X74.109
G1 X74.161
G1 X74.221Y71.243
G1 X74.294Y71.283
G1 X74.372Y71.344
G1 X74.434Y71.414
G1 X74.471Y71.475
G1 X74.49Y71.529
G1 Y71.58
G1 Y71.631
G1 X74.472Y71.692
G1 X74.433Y71.765
G1 X74.371Y71.843
G1 X74.301Y71.906
G1 X74.241Y71.942
G1 X74.187Y71.961
G1 X74.136
G1 X74.084
G1 X74.023Y71.943
G1 X73.951Y71.905
G1 X73.872Y71.841
G1 X73.81Y71.772
G0 X73.73Y71.833
G1 X73.682Y71.754
G1 X73.657Y71.681
G1 Y71.609
G1 Y71.536
G1 X73.68Y71.455
G1 X73.727Y71.367
G1 X73.801Y71.274
G1 X73.884Y71.201
G1 X73.962Y71.153
G1 X74.035Y71.128
G1 X74.107
G1 X74.18
G1 X74.261Y71.151
G1 X74.348Y71.198
G1 X74.441Y71.272
G1 X74.515Y71.354
G1 X74.563Y71.433
G1 X74.588Y71.505
G1 Y71.578
G1 Y71.651
G1 X74.565Y71.732
G1 X74.517Y71.819
G1 X74.444Y71.912
G1 X74.361Y71.986
G1 X74.283Y72.033
G1 X74.209Y72.059
G1 X74.138
G1 X74.065
G1 X73.984Y72.036
G1 X73.895Y71.988
G1 X73.803Y71.914
G1 X73.73Y71.833
G0 X73.648Y71.891
G1 X73.592Y71.797
G1 X73.559Y71.703
G1 X73.547Y71.611
G1 Y71.516
G1 X73.588Y71.415
G1 X73.644Y71.311
G1 X73.728Y71.205
G1 X73.824Y71.119
G1 X73.918Y71.063
G1 X74.012Y71.03
G1 X74.105Y71.019
G1 X74.2
G1 X74.3Y71.058
G1 X74.405Y71.115
G1 X74.51Y71.199
G1 X74.596Y71.295
G1 X74.653Y71.389
G1 X74.686Y71.483
G1 X74.697Y71.575
G1 Y71.671
G1 X74.657Y71.771
G1 X74.601Y71.875
G1 X74.517Y71.981
G1 X74.421Y72.067
G1 X74.326Y72.124
G1 X74.232Y72.156
G1 X74.14Y72.168
G1 X74.044
G1 X73.944Y72.128
G1 X73.841Y72.072
G1 X73.734Y71.987
G1 X73.648Y71.891
G0 X73.567Y71.951
G1 X73.5Y71.839
G1 X73.461Y71.727
G1 X73.447Y71.613
G1 X73.458Y71.495
G1 X73.494Y71.378
G1 X73.56Y71.256
G1 X73.655Y71.136
G1 X73.765Y71.038
G1 X73.876Y70.971
G1 X73.989Y70.932
G1 X74.103Y70.918
G1 X74.219Y70.929
G1 X74.338Y70.966
G1 X74.46Y71.031
G1 X74.579Y71.126
G1 X74.677Y71.236
G1 X74.744Y71.347
G1 X74.784Y71.46
G1 X74.798Y71.574
G1 X74.787Y71.691
G1 X74.75Y71.809
G1 X74.684Y71.931
G1 X74.589Y72.05
G1 X74.48Y72.148
G1 X74.368Y72.215
G1 X74.255Y72.255
G1 X74.141Y72.269
G1 X74.024Y72.258
G1 X73.906Y72.221
G1 X73.786Y72.156
G1 X73.665Y72.06
G1 X73.567Y71.951
G0 X73.487Y72.011
G1 X73.409Y71.882
G1 X73.363Y71.749
G1 X73.346Y71.614
G1 X73.359Y71.476
G1 X73.402Y71.338
G1 X73.477Y71.2
G1 X73.582Y71.067
G1 X73.705Y70.958
G1 X73.833Y70.881
G1 X73.966Y70.834
G1 X74.102Y70.817
G1 X74.24Y70.83
G1 X74.377Y70.873
G1 X74.515Y70.947
G1 X74.648Y71.053
G1 X74.758Y71.176
G1 X74.835Y71.304
G1 X74.881Y71.437
G1 X74.898Y71.573
G1 X74.885Y71.711
G1 X74.843Y71.848
G1 X74.768Y71.986
G1 X74.662Y72.119
G1 X74.54Y72.229
G1 X74.411Y72.306
G1 X74.278Y72.352
G1 X74.142Y72.369
G1 X74.005Y72.356
G1 X73.867Y72.314
G1 X73.729Y72.239
G1 X73.596Y72.133
G1 X73.487Y72.011
G0 X73.406Y72.07
G1 X73.318Y71.925
G1 X73.265Y71.772
G1 X73.246Y71.615
G1 X73.26Y71.457
G1 X73.309Y71.299
G1 X73.392Y71.146
G1 X73.51Y70.998
G1 X73.645Y70.877
G1 X73.791Y70.79
G1 X73.943Y70.736
G1 X74.1Y70.717
G1 X74.259Y70.731
G1 X74.417Y70.78
G1 X74.57Y70.863
G1 X74.717Y70.98
G1 X74.839Y71.116
G1 X74.926Y71.262
G1 X74.979Y71.414
G1 X74.999Y71.571
G1 X74.984Y71.73
G1 X74.935Y71.887
G1 X74.852Y72.041
G1 X74.735Y72.188
G1 X74.599Y72.31
G1 X74.454Y72.397
G1 X74.301Y72.45
G1 X74.144Y72.47
G1 X73.986Y72.455
G1 X73.828Y72.406
G1 X73.674Y72.323
G1 X73.527Y72.206
G1 X73.406Y72.07
G0 X73.186Y72.176
G1 X73.351Y72.365
G1 X73.54Y72.53
G1 X73.729Y72.646
G1 X73.922Y72.714
G1 X74.122Y72.736
G1 X74.328Y72.709
G1 X74.531Y72.634
G1 X74.724Y72.519
G1 X74.898Y72.37
G1 X75.048Y72.195
G1 X75.163Y72.002
G1 X75.238Y71.799
G1 X75.265Y71.593
G1 X75.238Y71.387
G1 X75.163Y71.184
G1 X75.048Y70.992
G1 X74.898Y70.817
G1 X74.724Y70.668
G1 X74.531Y70.552
G1 X74.328Y70.477
G1 X74.122Y70.45
G1 X73.916Y70.477
G1 X73.713Y70.552
G1 X73.521Y70.668
G1 X73.346Y70.817
G1 X73.197Y70.992
G1 X73.081Y71.184
G1 X73.006Y71.387
G1 X72.979Y71.593
G1 X73.002Y71.793
G1 X73.07Y71.987
G1 X73.186Y72.176
G0 X73.105Y72.235
G1 X73.28Y72.436
G1 X73.48Y72.611
G1 X73.686Y72.736
G1 X73.899Y72.812
G1 X74.123Y72.837
G1 X74.352Y72.807
G1 X74.575Y72.725
G1 X74.782Y72.6
G1 X74.969Y72.441
G1 X75.129Y72.253
G1 X75.254Y72.046
G1 X75.336Y71.823
G1 X75.366Y71.593
G1 X75.336Y71.363
G1 X75.254Y71.141
G1 X75.129Y70.933
G1 X74.969Y70.746
G1 X74.782Y70.586
G1 X74.575Y70.462
G1 X74.352Y70.379
G1 X74.122Y70.35
G1 X73.892Y70.379
G1 X73.67Y70.462
G1 X73.462Y70.586
G1 X73.275Y70.746
G1 X73.115Y70.933
G1 X72.99Y71.141
G1 X72.908Y71.363
G1 X72.879Y71.592
G1 X72.904Y71.816
G1 X72.979Y72.03
G1 X73.105Y72.235
G0 X73.024Y72.295
G1 X73.209Y72.507
G1 X73.421Y72.692
G1 X73.643Y72.827
G1 X73.877Y72.91
G1 X74.124Y72.938
G1 X74.376Y72.905
G1 X74.618Y72.815
G1 X74.841Y72.681
G1 X75.04Y72.511
G1 X75.21Y72.312
G1 X75.344Y72.089
G1 X75.434Y71.847
G1 X75.467Y71.593
G1 X75.434Y71.339
G1 X75.344Y71.097
G1 X75.21Y70.875
G1 X75.04Y70.675
G1 X74.841Y70.505
G1 X74.618Y70.371
G1 X74.376Y70.281
G1 X74.122Y70.249
G1 X73.868Y70.281
G1 X73.626Y70.371
G1 X73.403Y70.505
G1 X73.204Y70.675
G1 X73.034Y70.875
G1 X72.9Y71.097
G1 X72.811Y71.339
G1 X72.778Y71.592
G1 X72.805Y71.838
G1 X72.888Y72.073
G1 X73.024Y72.295
G0 X72.943Y72.354
G1 X73.138Y72.578
G1 X73.362Y72.772
G1 X73.599Y72.918
G1 X73.854Y73.008
G1 X74.125Y73.038
G1 X74.4Y73.003
G1 X74.662Y72.906
G1 X74.9Y72.763
G1 X75.111Y72.583
G1 X75.292Y72.371
G1 X75.435Y72.133
G1 X75.531Y71.872
G1 X75.568Y71.593
G1 X75.531Y71.315
G1 X75.435Y71.054
G1 X75.292Y70.816
G1 X75.111Y70.604
G1 X74.9Y70.424
G1 X74.662Y70.281
G1 X74.4Y70.184
G1 X74.122Y70.148
G1 X73.844Y70.184
G1 X73.583Y70.281
G1 X73.345Y70.424
G1 X73.133Y70.604
G1 X72.953Y70.816
G1 X72.809Y71.054
G1 X72.713Y71.315
G1 X72.677Y71.591
G1 X72.707Y71.861
G1 X72.798Y72.116
G1 X72.943Y72.354
G0 X81.674Y111.711
G1 X81.697
G1 X81.718Y111.732
G1 X81.733Y111.748
G1 X81.723Y111.778
G1 X81.695Y111.793
G1 X81.67
G1 Y111.732
G1 Y111.711
G0 X81.691Y111.612
G1 X81.739Y111.628
G1 X81.782Y111.655
G1 X81.814Y111.688
G1 X81.833Y111.721
G1 Y111.757
G1 Y111.781
G1 X81.795Y111.852
G1 X81.723Y111.892
G1 X81.646
G1 X81.594Y111.869
G1 X81.571Y111.822
G1 Y111.719
G1 X81.592Y111.636
G1 X81.616Y111.614
G1 X81.64
G1 X81.691
G0 X81.71Y111.513
G1 X81.782Y111.536
G1 X81.845Y111.576
G1 X81.895Y111.627
G1 X81.928Y111.687
G1 X81.941Y111.75
G1 Y111.813
G1 X81.866Y111.927
G1 X81.752Y111.99
G1 X81.624
G1 X81.52Y111.943
G1 X81.472Y111.847
G1 Y111.706
G1 X81.504Y111.582
G1 X81.567Y111.522
G1 X81.633Y111.509
G1 X81.71
G0 X81.729Y111.414
G1 X81.825Y111.445
G1 X81.909Y111.498
G1 X81.976Y111.568
G1 X82.022Y111.651
G1 X82.042Y111.745
G1 Y111.845
G1 X81.938Y112.001
G1 X81.781Y112.089
G1 X81.602
G1 X81.445Y112.017
G1 X81.373Y111.873
G1 Y111.693
G1 X81.417Y111.527
G1 X81.519Y111.43
G1 X81.625Y111.408
G1 X81.729
G0 X81.795Y111.167
G1 X81.601
G1 X81.387Y111.227
G1 X81.276Y111.295
G1 X81.191Y111.4
G1 X81.134Y111.531
G1 X81.104Y111.679
G1 Y111.832
G1 X81.134Y111.98
G1 X81.195Y112.114
G1 X81.289Y112.222
G1 X81.416Y112.3
G1 X81.558Y112.343
G1 X81.708
G1 X81.855Y112.33
G1 X81.992Y112.279
G1 X82.11Y112.201
G1 X82.201Y112.099
G1 X82.256Y111.974
G1 X82.287Y111.761
G1 X82.268Y111.574
G1 X82.204Y111.417
G1 X82.101Y111.293
G1 X81.963Y111.209
G1 X81.795Y111.167
G0 X81.806Y111.067
G1 X81.587
G1 X81.348Y111.134
G1 X81.209Y111.219
G1 X81.105Y111.347
G1 X81.038Y111.501
G1 X81.004Y111.669
G1 Y111.842
G1 X81.038Y112.012
G1 X81.11Y112.169
G1 X81.224Y112.299
G1 X81.375Y112.392
G1 X81.541Y112.442
G1 X81.712Y112.452
G1 X81.88Y112.427
G1 X82.037Y112.369
G1 X82.176Y112.277
G1 X82.286Y112.154
G1 X82.353Y112.002
G1 X82.387Y111.763
G1 X82.366Y111.55
G1 X82.291Y111.364
G1 X82.167Y111.217
G1 X82.002Y111.116
G1 X81.806Y111.067
G0 X81.817Y110.966
G1 X81.573
G1 X81.308Y111.041
G1 X81.142Y111.142
G1 X81.019Y111.295
G1 X80.942Y111.471
G1 X80.904Y111.659
G1 Y111.852
G1 X80.943Y112.043
G1 X81.026Y112.224
G1 X81.158Y112.376
G1 X81.333Y112.484
G1 X81.523Y112.541
G1 X81.716Y112.553
G1 X81.905Y112.525
G1 X82.083Y112.459
G1 X82.242Y112.354
G1 X82.371Y112.208
G1 X82.45Y112.03
G1 X82.488Y111.765
G1 X82.464Y111.525
G1 X82.378Y111.312
G1 X82.233Y111.14
G1 X82.041Y111.022
G1 X81.817Y110.966
G0 X81.828Y110.866
G1 X81.56
G1 X81.269Y110.948
G1 X81.075Y111.066
G1 X80.933Y111.242
G1 X80.846Y111.44
G1 X80.804Y111.649
G1 Y111.862
G1 X80.847Y112.074
G1 X80.941Y112.278
G1 X81.093Y112.453
G1 X81.292Y112.576
G1 X81.505Y112.64
G1 X81.72Y112.653
G1 X81.93Y112.622
G1 X82.128Y112.549
G1 X82.308Y112.43
G1 X82.456Y112.263
G1 X82.547Y112.058
G1 X82.589Y111.767
G1 X82.562Y111.501
G1 X82.465Y111.26
G1 X82.299Y111.063
G1 X82.08Y110.929
G1 X81.828Y110.866
G0 X75.401Y105.895
G1 X75.373Y105.918
G1 X75.346
G1 X75.317
G1 X75.252Y105.887
G1 X75.231Y105.865
G1 X75.22Y105.846
G1 X75.244Y105.786
G1 X75.337Y105.701
G1 X75.374Y105.726
G1 X75.42Y105.793
G1 Y105.828
G1 Y105.862
G1 X75.401Y105.895
G0 X75.478Y105.962
G1 X75.421Y106.007
G1 X75.357Y106.028
G1 X75.286
G1 X75.191Y105.967
G1 X75.151Y105.926
G1 X75.127Y105.885
G1 Y105.849
G1 Y105.826
G1 X75.161Y105.725
G1 X75.28Y105.618
G1 X75.336Y105.59
G1 X75.353
G1 X75.38Y105.6
G1 X75.448Y105.658
G1 X75.513Y105.752
G1 X75.53Y105.828
G1 X75.516Y105.898
G1 X75.478Y105.962
G0 X75.554Y106.029
G1 X75.469Y106.097
G1 X75.367Y106.129
G1 X75.256Y106.118
G1 X75.129Y106.047
G1 X75.072Y105.988
G1 X75.034Y105.925
G1 X75.017Y105.863
G1 Y105.805
G1 X75.077Y105.666
G1 X75.224Y105.534
G1 X75.31Y105.492
G1 X75.369
G1 X75.433Y105.514
G1 X75.523Y105.59
G1 X75.607Y105.712
G1 X75.631Y105.826
G1 X75.611Y105.935
G1 X75.554Y106.029
G0 X75.63Y106.096
G1 X75.517Y106.187
G1 X75.378Y106.231
G1 X75.225Y106.215
G1 X75.068Y106.127
G1 X74.991Y106.049
G1 X74.941Y105.964
G1 X74.917Y105.875
G1 Y105.784
G1 X74.994Y105.606
G1 X75.167Y105.45
G1 X75.283Y105.394
G1 X75.385
G1 X75.486Y105.428
G1 X75.597Y105.522
G1 X75.701Y105.671
G1 X75.733Y105.825
G1 X75.706Y105.971
G1 X75.63Y106.096
G0 X76.33Y105.865
G1 X76.14Y105.532
G1 X75.908Y105.155
G1 X75.715Y104.857
G1 X75.553Y104.629
G1 X75.414Y104.461
G1 X75.291Y104.346
G1 X75.174Y104.275
G1 X75.055Y104.238
G1 X74.928
G1 X74.63
G1 Y96.56
G1 X77.17Y93.979
G1 Y87.262
G1 Y84.519
G1 X77.188Y83.162
G1 Y82.607
G1 X77.202Y82.129
G1 Y81.72
G1 X77.222Y81.376
G1 X77.235Y81.09
G1 X77.251Y80.858
G1 X77.268Y80.673
G1 X77.288Y80.531
G1 X77.311Y80.425
G1 X77.336Y80.349
G1 X77.364Y80.299
G1 X77.437Y80.179
G1 X77.496Y80.036
G1 X77.536Y79.887
G1 X77.551Y79.75
G1 X77.522Y79.587
G1 X77.442Y79.413
G1 X77.321Y79.238
G1 X77.17Y79.073
G1 X77Y78.927
G1 X76.819Y78.81
G1 X76.64Y78.732
G1 X76.471Y78.704
G1 X76.296Y78.732
G1 X76.113Y78.811
G1 X75.932Y78.929
G1 X75.763Y79.078
G1 X75.615Y79.248
G1 X75.498Y79.43
G1 X75.42Y79.614
G1 X75.392Y79.791
G1 X75.42Y79.967
G1 X75.503Y80.154
G1 X75.642Y80.349
G1 X75.836Y80.554
G1 X76.281Y80.973
G1 Y93.654
G1 X73.741Y96.149
G1 X73.763Y101.426
G1 Y102.266
G1 X73.778Y103.039
G1 X73.793Y104.031
G1 X73.809Y104.764
G1 X73.821Y105.078
G1 Y105.174
G1 X73.833Y105.228
G1 X73.853Y105.299
G1 X73.89Y105.395
G1 X73.942Y105.512
G1 X74.008Y105.647
G1 X74.17Y105.958
G1 X74.362Y106.299
G1 X74.567Y106.644
G1 X74.77Y106.966
G1 X74.956Y107.239
G1 X75.108Y107.435
G1 X75.231Y107.533
G1 X75.391Y107.603
G1 X75.577Y107.644
G1 X75.776Y107.656
G1 X75.975Y107.641
G1 X76.163Y107.597
G1 X76.326Y107.525
G1 X76.452Y107.425
G1 X76.562Y107.271
G1 X76.63Y107.097
G1 X76.655Y106.902
G1 X76.638Y106.683
G1 X76.579Y106.438
G1 X76.476Y106.166
G1 X76.33Y105.865
G0 X76.418Y105.818
G1 X76.226Y105.481
G1 X75.992Y105.102
G1 X75.798Y104.801
G1 X75.632Y104.568
G1 X75.487Y104.393
G1 X75.351Y104.266
G1 X75.215Y104.183
G1 X75.074Y104.139
G1 X74.932Y104.128
G1 X74.73
G1 Y96.601
G1 X77.27Y94.02
G1 Y87.262
G1 Y84.52
G1 X77.288Y83.163
G1 Y82.609
G1 X77.302Y82.13
G1 Y81.723
G1 X77.322Y81.38
G1 X77.335Y81.097
G1 X77.35Y80.867
G1 X77.367Y80.687
G1 X77.387Y80.548
G1 X77.408Y80.45
G1 X77.428Y80.389
G1 X77.45Y80.351
G1 X77.526Y80.225
G1 X77.591Y80.068
G1 X77.635Y79.905
G1 X77.652Y79.746
G1 X77.618Y79.557
G1 X77.529Y79.363
G1 X77.4Y79.176
G1 X77.24Y79.001
G1 X77.06Y78.846
G1 X76.867Y78.721
G1 X76.668Y78.636
G1 X76.472Y78.603
G1 X76.268Y78.636
G1 X76.066Y78.722
G1 X75.872Y78.849
G1 X75.692Y79.007
G1 X75.535Y79.188
G1 X75.409Y79.383
G1 X75.323Y79.586
G1 X75.291Y79.791
G1 X75.323Y79.996
G1 X75.416Y80.203
G1 X75.565Y80.413
G1 X75.766Y80.625
G1 X76.181Y81.016
G1 Y93.612
G1 X73.641Y96.107
G1 X73.663Y101.426
G1 Y102.267
G1 X73.678Y103.04
G1 X73.693Y104.033
G1 X73.709Y104.767
G1 X73.721Y105.083
G1 Y105.183
G1 X73.735Y105.247
G1 X73.758Y105.331
G1 X73.798Y105.434
G1 X73.852Y105.555
G1 X73.918Y105.692
G1 X74.082Y106.005
G1 X74.275Y106.349
G1 X74.482Y106.696
G1 X74.686Y107.021
G1 X74.875Y107.298
G1 X75.037Y107.505
G1 X75.179Y107.619
G1 X75.36Y107.698
G1 X75.563Y107.743
G1 X75.777Y107.757
G1 X75.991Y107.74
G1 X76.195Y107.692
G1 X76.378Y107.611
G1 X76.525Y107.494
G1 X76.65Y107.319
G1 X76.727Y107.122
G1 X76.756Y106.905
G1 X76.738Y106.667
G1 X76.675Y106.409
G1 X76.568Y106.127
G1 X76.418Y105.818
G0 X76.507Y105.771
G1 X76.312Y105.43
G1 X76.077Y105.049
G1 X75.88Y104.745
G1 X75.712Y104.507
G1 X75.56Y104.324
G1 X75.412Y104.186
G1 X75.257Y104.091
G1 X75.093Y104.041
G1 X74.936Y104.028
G1 X74.83
G1 Y96.642
G1 X77.37Y94.061
G1 Y87.263
G1 Y84.521
G1 X77.388Y83.164
G1 Y82.611
G1 X77.402Y82.133
G1 Y81.727
G1 X77.422Y81.382
G1 X77.435Y81.103
G1 X77.45Y80.877
G1 X77.468Y80.692
G1 X77.485Y80.565
G1 X77.504Y80.477
G1 X77.52Y80.431
G1 X77.535Y80.403
G1 X77.616Y80.27
G1 X77.686Y80.101
G1 X77.733Y79.923
G1 X77.753Y79.743
G1 X77.714Y79.526
G1 X77.616Y79.313
G1 X77.478Y79.113
G1 X77.31Y78.929
G1 X77.12Y78.766
G1 X76.914Y78.633
G1 X76.697Y78.539
G1 X76.472Y78.502
G1 X76.24Y78.539
G1 X76.018Y78.634
G1 X75.811Y78.769
G1 X75.621Y78.937
G1 X75.455Y79.127
G1 X75.32Y79.336
G1 X75.226Y79.559
G1 X75.19Y79.791
G1 X75.227Y80.025
G1 X75.329Y80.253
G1 X75.488Y80.477
G1 X75.695Y80.696
G1 X76.081Y81.06
G1 Y93.57
G1 X73.541Y96.065
G1 X73.563Y101.427
G1 Y102.268
G1 X73.578Y103.041
G1 X73.593Y104.035
G1 X73.609Y104.771
G1 X73.621Y105.087
G1 Y105.192
G1 X73.636Y105.266
G1 X73.663Y105.363
G1 X73.705Y105.472
G1 X73.761Y105.597
G1 X73.829Y105.738
G1 X73.994Y106.053
G1 X74.189Y106.399
G1 X74.396Y106.748
G1 X74.603Y107.076
G1 X74.794Y107.357
G1 X74.965Y107.576
G1 X75.127Y107.706
G1 X75.329Y107.794
G1 X75.549Y107.842
G1 X75.778Y107.857
G1 X76.006Y107.839
G1 X76.227Y107.787
G1 X76.43Y107.697
G1 X76.598Y107.564
G1 X76.739Y107.367
G1 X76.825Y107.147
G1 X76.856Y106.907
G1 X76.837Y106.651
G1 X76.77Y106.379
G1 X76.66Y106.087
G1 X76.507Y105.771
G0 X71.084Y99.165
G1 X71.056Y99.187
G1 X71.029
G1 X71
G1 X70.934Y99.156
G1 X70.915Y99.136
G1 X70.903Y99.116
G1 X70.927Y99.055
G1 X71.019Y98.971
G1 X71.056Y98.995
G1 X71.102Y99.063
G1 Y99.098
G1 Y99.132
G1 X71.084Y99.165
G0 X71.16Y99.232
G1 X71.104Y99.277
G1 X71.04Y99.297
G1 X70.969
G1 X70.873Y99.237
G1 X70.834Y99.197
G1 X70.81Y99.155
G1 X70.8Y99.119
G1 Y99.096
G1 X70.844Y98.995
G1 X70.963Y98.888
G1 X71.02Y98.86
G1 X71.035
G1 X71.063Y98.87
G1 X71.131Y98.927
G1 X71.196Y99.022
G1 X71.212Y99.098
G1 X71.198Y99.168
G1 X71.16Y99.232
G0 X71.237Y99.299
G1 X71.152Y99.367
G1 X71.05Y99.399
G1 X70.938Y99.388
G1 X70.811Y99.316
G1 X70.754Y99.258
G1 X70.717Y99.194
G1 X70.7Y99.132
G1 Y99.074
G1 X70.76Y98.936
G1 X70.906Y98.804
G1 X70.993Y98.762
G1 X71.052
G1 X71.115Y98.784
G1 X71.205Y98.86
G1 X71.29Y98.982
G1 X71.314Y99.096
G1 X71.293Y99.205
G1 X71.237Y99.299
G0 X71.313Y99.366
G1 X71.2Y99.457
G1 X71.061Y99.5
G1 X70.907Y99.485
G1 X70.75Y99.397
G1 X70.674Y99.319
G1 X70.624Y99.234
G1 X70.6Y99.145
G1 Y99.054
G1 X70.677Y98.876
G1 X70.85Y98.72
G1 X70.966Y98.664
G1 X71.068
G1 X71.168Y98.698
G1 X71.28Y98.792
G1 X71.384Y98.941
G1 X71.416Y99.095
G1 X71.388Y99.241
G1 X71.313Y99.366
G0 X71.646Y99.72
G1 X71.774Y99.573
G1 X71.874Y99.413
G1 X71.94Y99.248
G1 X71.964Y99.085
G1 X71.94Y98.923
G1 X71.874Y98.758
G1 X71.774Y98.598
G1 X71.646Y98.45
G1 X71.499Y98.323
G1 X71.339Y98.222
G1 X71.174Y98.156
G1 X71.011Y98.133
G1 X70.849Y98.156
G1 X70.684Y98.222
G1 X70.524Y98.323
G1 X70.376Y98.45
G1 X70.249Y98.598
G1 X70.148Y98.758
G1 X70.082Y98.923
G1 X70.059Y99.085
G1 X70.083Y99.238
G1 X70.15Y99.409
G1 X70.25Y99.579
G1 X70.37Y99.726
G1 X70.517Y99.847
G1 X70.687Y99.946
G1 X70.859Y100.013
G1 X71.011Y100.038
G1 X71.174Y100.014
G1 X71.339Y99.948
G1 X71.499Y99.848
G1 X71.646Y99.72
G0 X71.717Y99.791
G1 X71.854Y99.633
G1 X71.964Y99.458
G1 X72.037Y99.274
G1 X72.065Y99.085
G1 X72.037Y98.897
G1 X71.964Y98.712
G1 X71.854Y98.538
G1 X71.717Y98.38
G1 X71.558Y98.242
G1 X71.384Y98.133
G1 X71.2Y98.059
G1 X71.011Y98.032
G1 X70.823Y98.059
G1 X70.638Y98.133
G1 X70.464Y98.242
G1 X70.305Y98.38
G1 X70.168Y98.538
G1 X70.058Y98.712
G1 X69.985Y98.897
G1 X69.958Y99.086
G1 X69.986Y99.264
G1 X70.06Y99.453
G1 X70.167Y99.636
G1 X70.299Y99.797
G1 X70.46Y99.929
G1 X70.644Y100.036
G1 X70.833Y100.11
G1 X71.01Y100.139
G1 X71.199Y100.111
G1 X71.384Y100.038
G1 X71.558Y99.928
G1 X71.717Y99.791
G0 X71.788Y99.862
G1 X71.935Y99.692
G1 X72.053Y99.504
G1 X72.135Y99.3
G1 X72.166Y99.085
G1 X72.135Y98.871
G1 X72.053Y98.667
G1 X71.935Y98.479
G1 X71.788Y98.309
G1 X71.618Y98.161
G1 X71.429Y98.043
G1 X71.226Y97.962
G1 X71.011Y97.931
G1 X70.797Y97.962
G1 X70.593Y98.043
G1 X70.404Y98.161
G1 X70.234Y98.309
G1 X70.087Y98.479
G1 X69.969Y98.667
G1 X69.888Y98.871
G1 X69.856Y99.087
G1 X69.889Y99.29
G1 X69.97Y99.497
G1 X70.085Y99.694
G1 X70.228Y99.868
G1 X70.403Y100.011
G1 X70.6Y100.127
G1 X70.806Y100.207
G1 X71.01Y100.24
G1 X71.226Y100.209
G1 X71.43Y100.127
G1 X71.618Y100.009
G1 X71.788Y99.862
G0 X55.872Y99.098
G1 Y99.132
G1 X55.846Y99.165
G1 X55.818Y99.187
G1 X55.791
G1 X55.761
G1 X55.697Y99.157
G1 X55.676Y99.135
G1 X55.664Y99.115
G1 X55.688Y99.055
G1 X55.782Y98.971
G1 X55.818Y98.995
G1 X55.864Y99.063
G1 Y99.098
G0 X55.974
G1 X55.96Y99.168
G1 X55.922Y99.232
G1 X55.865Y99.277
G1 X55.802Y99.297
G1 X55.73
G1 X55.635Y99.237
G1 X55.596Y99.196
G1 X55.572Y99.155
G1 X55.562Y99.119
G1 Y99.097
G1 X55.605Y98.995
G1 X55.725Y98.888
G1 X55.781Y98.86
G1 X55.797
G1 X55.825Y98.87
G1 X55.893Y98.927
G1 X55.958Y99.022
G1 X55.974Y99.098
G0 X56.076
G1 X56.055Y99.205
G1 X55.999Y99.299
G1 X55.914Y99.367
G1 X55.812Y99.399
G1 X55.699Y99.387
G1 X55.573Y99.317
G1 X55.516Y99.257
G1 X55.479Y99.195
G1 X55.462Y99.132
G1 Y99.075
G1 X55.522Y98.936
G1 X55.668Y98.804
G1 X55.755Y98.762
G1 X55.813
G1 X55.877Y98.784
G1 X55.967Y98.86
G1 X56.052Y98.982
G1 X56.076Y99.096
G0 X56.178
G1 X56.15Y99.241
G1 X56.075Y99.366
G1 X55.962Y99.457
G1 X55.823Y99.5
G1 X55.669Y99.485
G1 X55.512Y99.397
G1 X55.436Y99.319
G1 X55.386Y99.234
G1 X55.361Y99.145
G1 Y99.054
G1 X55.439Y98.876
G1 X55.612Y98.72
G1 X55.728Y98.664
G1 X55.83
G1 X55.93Y98.698
G1 X56.042Y98.792
G1 X56.146Y98.941
G1 X56.178Y99.095
G0 X56.701Y99.238
G1 X56.725Y99.085
G1 X56.701Y98.933
G1 X56.634Y98.761
G1 X56.535Y98.592
G1 X56.414Y98.445
G1 X56.267Y98.323
G1 X56.097Y98.224
G1 X55.925Y98.157
G1 X55.773Y98.133
G1 X55.621Y98.157
G1 X55.449Y98.224
G1 X55.279Y98.323
G1 X55.132Y98.445
G1 X55.011Y98.592
G1 X54.912Y98.761
G1 X54.845Y98.933
G1 X54.821Y99.085
G1 X54.845Y99.238
G1 X54.912Y99.409
G1 X55.011Y99.579
G1 X55.132Y99.726
G1 X55.279Y99.847
G1 X55.449Y99.946
G1 X55.621Y100.013
G1 X55.773Y100.038
G1 X55.925Y100.013
G1 X56.097Y99.946
G1 X56.267Y99.847
G1 X56.414Y99.726
G1 X56.535Y99.579
G1 X56.634Y99.409
G1 X56.701Y99.238
G0 X56.798Y99.264
G1 X56.827Y99.085
G1 X56.798Y98.906
G1 X56.724Y98.718
G1 X56.617Y98.534
G1 X56.485Y98.374
G1 X56.324Y98.241
G1 X56.141Y98.134
G1 X55.952Y98.061
G1 X55.773Y98.031
G1 X55.594Y98.061
G1 X55.406Y98.134
G1 X55.222Y98.241
G1 X55.061Y98.374
G1 X54.929Y98.534
G1 X54.822Y98.718
G1 X54.748Y98.906
G1 X54.719Y99.085
G1 X54.748Y99.264
G1 X54.822Y99.453
G1 X54.929Y99.636
G1 X55.061Y99.797
G1 X55.222Y99.929
G1 X55.406Y100.036
G1 X55.594Y100.11
G1 X55.773Y100.139
G1 X55.952Y100.11
G1 X56.141Y100.036
G1 X56.324Y99.929
G1 X56.485Y99.797
G1 X56.617Y99.636
G1 X56.724Y99.453
G1 X56.798Y99.264
G0 X56.895Y99.29
G1 X56.928Y99.085
G1 X56.895Y98.88
G1 X56.814Y98.674
G1 X56.699Y98.477
G1 X56.556Y98.302
G1 X56.382Y98.159
G1 X56.184Y98.044
G1 X55.978Y97.963
G1 X55.773Y97.93
G1 X55.568Y97.963
G1 X55.362Y98.044
G1 X55.165Y98.159
G1 X54.99Y98.302
G1 X54.847Y98.477
G1 X54.731Y98.674
G1 X54.651Y98.88
G1 X54.618Y99.085
G1 X54.651Y99.291
G1 X54.731Y99.496
G1 X54.847Y99.694
G1 X54.99Y99.868
G1 X55.165Y100.011
G1 X55.362Y100.127
G1 X55.568Y100.207
G1 X55.773Y100.24
G1 X55.978Y100.207
G1 X56.184Y100.127
G1 X56.382Y100.011
G1 X56.556Y99.868
G1 X56.699Y99.694
G1 X56.814Y99.497
G1 X56.895Y99.29
G0 X70.902Y96.573
G1 X70.926Y96.516
G1 X71.02Y96.432
G1 X71.056Y96.456
G1 X71.102Y96.522
G1 Y96.559
G1 Y96.592
G1 X71.084Y96.625
G1 X71.055Y96.648
G1 X71.029
G1 X71
G1 X70.934Y96.616
G1 X70.914Y96.596
G1 X70.903Y96.576
G0 X70.81Y96.615
G1 X70.8Y96.579
G1 Y96.557
G1 X70.844Y96.455
G1 X70.963Y96.348
G1 X71.019Y96.321
G1 X71.036
G1 X71.063
G1 X71.13Y96.387
G1 X71.196Y96.482
G1 X71.212Y96.558
G1 X71.198Y96.629
G1 X71.16Y96.692
G1 X71.104Y96.737
G1 X71.04Y96.758
G1 X70.969
G1 X70.873Y96.697
G1 X70.834Y96.657
G1 X70.81Y96.615
G0 X70.717Y96.655
G1 X70.7Y96.593
G1 Y96.535
G1 X70.76Y96.396
G1 X70.906Y96.264
G1 X70.993Y96.222
G1 X71.052
G1 X71.115Y96.244
G1 X71.206Y96.32
G1 X71.29Y96.442
G1 X71.314Y96.556
G1 X71.293Y96.666
G1 X71.237Y96.759
G1 X71.151Y96.827
G1 X71.05Y96.859
G1 X70.938Y96.848
G1 X70.812Y96.777
G1 X70.754Y96.718
G1 X70.717Y96.655
G0 X70.624Y96.694
G1 X70.6Y96.605
G1 Y96.514
G1 X70.677Y96.337
G1 X70.85Y96.18
G1 X70.966Y96.124
G1 X71.068
G1 X71.168Y96.158
G1 X71.28Y96.252
G1 X71.384Y96.402
G1 X71.416Y96.555
G1 X71.388Y96.701
G1 X71.313Y96.826
G1 X71.2Y96.917
G1 X71.061Y96.961
G1 X70.907Y96.945
G1 X70.75Y96.857
G1 X70.674Y96.779
G1 X70.624Y96.694
G0 X70.15Y96.87
G1 X70.25Y97.039
G1 X70.37Y97.186
G1 X70.517Y97.307
G1 X70.687Y97.406
G1 X70.859Y97.473
G1 X71.011Y97.498
G1 X71.174Y97.474
G1 X71.339Y97.409
G1 X71.499Y97.308
G1 X71.646Y97.181
G1 X71.774Y97.033
G1 X71.874Y96.873
G1 X71.94Y96.708
G1 X71.964Y96.546
G1 X71.94Y96.383
G1 X71.874Y96.218
G1 X71.774Y96.058
G1 X71.646Y95.911
G1 X71.499Y95.783
G1 X71.339Y95.683
G1 X71.174Y95.617
G1 X71.011Y95.593
G1 X70.849Y95.617
G1 X70.684Y95.683
G1 X70.524Y95.783
G1 X70.376Y95.911
G1 X70.249Y96.058
G1 X70.148Y96.218
G1 X70.082Y96.383
G1 X70.059Y96.546
G1 X70.083Y96.698
G1 X70.15Y96.87
G0 X70.06Y96.913
G1 X70.167Y97.097
G1 X70.299Y97.257
G1 X70.46Y97.39
G1 X70.644Y97.497
G1 X70.833Y97.57
G1 X71.01Y97.599
G1 X71.2Y97.572
G1 X71.384Y97.498
G1 X71.558Y97.389
G1 X71.717Y97.251
G1 X71.854Y97.093
G1 X71.964Y96.918
G1 X72.037Y96.734
G1 X72.065Y96.546
G1 X72.037Y96.357
G1 X71.964Y96.173
G1 X71.854Y95.999
G1 X71.717Y95.84
G1 X71.558Y95.702
G1 X71.384Y95.593
G1 X71.2Y95.52
G1 X71.011Y95.492
G1 X70.823Y95.52
G1 X70.638Y95.593
G1 X70.464Y95.702
G1 X70.305Y95.84
G1 X70.168Y95.999
G1 X70.058Y96.173
G1 X69.985Y96.357
G1 X69.958Y96.546
G1 X69.986Y96.724
G1 X70.06Y96.913
G0 X69.97Y96.957
G1 X70.085Y97.154
G1 X70.228Y97.328
G1 X70.403Y97.472
G1 X70.6Y97.587
G1 X70.806Y97.667
G1 X71.01Y97.7
G1 X71.226Y97.669
G1 X71.429Y97.588
G1 X71.618Y97.469
G1 X71.788Y97.323
G1 X71.935Y97.152
G1 X72.053Y96.964
G1 X72.135Y96.76
G1 X72.166Y96.546
G1 X72.135Y96.331
G1 X72.053Y96.127
G1 X71.935Y95.939
G1 X71.788Y95.769
G1 X71.618Y95.622
G1 X71.43Y95.504
G1 X71.226Y95.422
G1 X71.011Y95.391
G1 X70.797Y95.422
G1 X70.593Y95.504
G1 X70.404Y95.622
G1 X70.234Y95.769
G1 X70.087Y95.939
G1 X69.969Y96.127
G1 X69.888Y96.331
G1 X69.856Y96.547
G1 X69.889Y96.751
G1 X69.97Y96.957
G0 X55.872Y96.559
G1 Y96.592
G1 X55.846Y96.625
G1 X55.817Y96.648
G1 X55.792
G1 X55.761
G1 X55.697Y96.617
G1 X55.676Y96.596
G1 X55.664Y96.576
G1 X55.688Y96.515
G1 X55.781Y96.432
G1 X55.817Y96.455
G1 X55.864Y96.523
G1 Y96.559
G0 X55.974
G1 X55.96Y96.629
G1 X55.922Y96.692
G1 X55.865Y96.737
G1 X55.802Y96.758
G1 X55.73
G1 X55.635Y96.697
G1 X55.596Y96.656
G1 X55.572Y96.616
G1 X55.562Y96.579
G1 Y96.557
G1 X55.605Y96.456
G1 X55.725Y96.348
G1 X55.781Y96.321
G1 X55.798
G1 X55.825
G1 X55.893Y96.387
G1 X55.958Y96.481
G1 X55.974Y96.558
G0 X56.076
G1 X56.055Y96.666
G1 X55.999Y96.759
G1 X55.913Y96.827
G1 X55.813Y96.859
G1 X55.699Y96.848
G1 X55.573Y96.777
G1 X55.516Y96.718
G1 X55.479Y96.655
G1 X55.462Y96.593
G1 Y96.535
G1 X55.522Y96.396
G1 X55.668Y96.264
G1 X55.755Y96.222
G1 X55.813
G1 X55.877Y96.244
G1 X55.967Y96.32
G1 X56.052Y96.442
G1 X56.076Y96.556
G0 X56.178
G1 X56.15Y96.701
G1 X56.075Y96.826
G1 X55.962Y96.917
G1 X55.823Y96.961
G1 X55.669Y96.945
G1 X55.512Y96.857
G1 X55.436Y96.779
G1 X55.386Y96.694
G1 X55.361Y96.605
G1 Y96.514
G1 X55.439Y96.337
G1 X55.612Y96.18
G1 X55.728Y96.124
G1 X55.83
G1 X55.93Y96.158
G1 X56.042Y96.252
G1 X56.146Y96.401
G1 X56.178Y96.555
G0 X56.701Y96.698
G1 X56.725Y96.546
G1 X56.701Y96.393
G1 X56.634Y96.222
G1 X56.535Y96.052
G1 X56.414Y95.905
G1 X56.267Y95.784
G1 X56.097Y95.685
G1 X55.925Y95.618
G1 X55.773Y95.593
G1 X55.621Y95.618
G1 X55.449Y95.685
G1 X55.279Y95.784
G1 X55.132Y95.905
G1 X55.011Y96.052
G1 X54.912Y96.222
G1 X54.845Y96.393
G1 X54.821Y96.546
G1 X54.845Y96.698
G1 X54.912Y96.87
G1 X55.011Y97.039
G1 X55.132Y97.186
G1 X55.279Y97.307
G1 X55.449Y97.406
G1 X55.621Y97.473
G1 X55.773Y97.498
G1 X55.925Y97.473
G1 X56.097Y97.406
G1 X56.267Y97.307
G1 X56.414Y97.186
G1 X56.535Y97.039
G1 X56.634Y96.87
G1 X56.701Y96.698
G0 X56.798Y96.724
G1 X56.827Y96.546
G1 X56.798Y96.367
G1 X56.724Y96.178
G1 X56.617Y95.995
G1 X56.485Y95.834
G1 X56.324Y95.702
G1 X56.141Y95.594
G1 X55.952Y95.521
G1 X55.773Y95.492
G1 X55.594Y95.521
G1 X55.406Y95.594
G1 X55.222Y95.702
G1 X55.061Y95.834
G1 X54.929Y95.995
G1 X54.822Y96.178
G1 X54.748Y96.367
G1 X54.719Y96.546
G1 X54.748Y96.724
G1 X54.822Y96.913
G1 X54.929Y97.097
G1 X55.061Y97.257
G1 X55.222Y97.39
G1 X55.406Y97.497
G1 X55.594Y97.57
G1 X55.773Y97.599
G1 X55.952Y97.57
G1 X56.141Y97.497
G1 X56.324Y97.39
G1 X56.485Y97.257
G1 X56.617Y97.097
G1 X56.724Y96.913
G1 X56.798Y96.724
G0 X56.895Y96.751
G1 X56.928Y96.546
G1 X56.895Y96.341
G1 X56.814Y96.134
G1 X56.699Y95.937
G1 X56.556Y95.763
G1 X56.382Y95.619
G1 X56.184Y95.504
G1 X55.978Y95.424
G1 X55.773Y95.391
G1 X55.568Y95.424
G1 X55.362Y95.504
G1 X55.165Y95.619
G1 X54.99Y95.763
G1 X54.847Y95.937
G1 X54.731Y96.134
G1 X54.651Y96.34
G1 X54.618Y96.546
G1 X54.651Y96.751
G1 X54.731Y96.957
G1 X54.847Y97.154
G1 X54.99Y97.328
G1 X55.165Y97.472
G1 X55.362Y97.587
G1 X55.568Y97.667
G1 X55.773Y97.701
G1 X55.978Y97.667
G1 X56.184Y97.587
G1 X56.382Y97.472
G1 X56.556Y97.328
G1 X56.699Y97.154
G1 X56.814Y96.957
G1 X56.895Y96.751
G0 X70.902Y94.033
G1 X70.927Y93.976
G1 X71.019Y93.892
G1 X71.056Y93.916
G1 X71.102Y93.983
G1 Y94.019
G1 Y94.053
G1 X71.084Y94.085
G1 X71.056Y94.108
G1 X71.029
G1 X71
G1 X70.935Y94.077
G1 X70.914Y94.056
G1 X70.903Y94.036
G0 X70.81Y94.076
G1 X70.8Y94.039
G1 Y94.017
G1 X70.844Y93.916
G1 X70.963Y93.808
G1 X71.02Y93.781
G1 X71.035
G1 X71.063Y93.791
G1 X71.131Y93.848
G1 X71.196Y93.942
G1 X71.212Y94.018
G1 X71.198Y94.089
G1 X71.16Y94.152
G1 X71.104Y94.198
G1 X71.04Y94.218
G1 X70.969
G1 X70.873Y94.157
G1 X70.834Y94.117
G1 X70.81Y94.076
G0 X70.717Y94.115
G1 X70.7Y94.053
G1 Y93.995
G1 X70.76Y93.856
G1 X70.906Y93.725
G1 X70.993Y93.682
G1 X71.052
G1 X71.115Y93.704
G1 X71.205Y93.781
G1 X71.29Y93.903
G1 X71.314Y94.017
G1 X71.293Y94.126
G1 X71.237Y94.219
G1 X71.152Y94.287
G1 X71.05Y94.32
G1 X70.938Y94.308
G1 X70.811Y94.237
G1 X70.754Y94.178
G1 X70.717Y94.115
G0 X70.624Y94.155
G1 X70.6Y94.065
G1 Y93.975
G1 X70.677Y93.797
G1 X70.85Y93.641
G1 X70.966Y93.584
G1 X71.068
G1 X71.168Y93.618
G1 X71.28Y93.713
G1 X71.384Y93.862
G1 X71.416Y94.016
G1 X71.388Y94.162
G1 X71.313Y94.286
G1 X71.2Y94.377
G1 X71.061Y94.421
G1 X70.907Y94.406
G1 X70.75Y94.318
G1 X70.674Y94.239
G1 X70.624Y94.155
G0 X70.15Y94.33
G1 X70.25Y94.5
G1 X70.37Y94.647
G1 X70.517Y94.768
G1 X70.687Y94.867
G1 X70.859Y94.934
G1 X71.011Y94.958
G1 X71.174Y94.935
G1 X71.339Y94.869
G1 X71.499Y94.769
G1 X71.646Y94.641
G1 X71.774Y94.493
G1 X71.874Y94.333
G1 X71.94Y94.168
G1 X71.964Y94.006
G1 X71.94Y93.844
G1 X71.874Y93.678
G1 X71.774Y93.519
G1 X71.646Y93.371
G1 X71.499Y93.243
G1 X71.339Y93.143
G1 X71.174Y93.077
G1 X71.011Y93.053
G1 X70.849Y93.077
G1 X70.684Y93.143
G1 X70.524Y93.243
G1 X70.376Y93.371
G1 X70.249Y93.519
G1 X70.148Y93.678
G1 X70.082Y93.844
G1 X70.059Y94.006
G1 X70.083Y94.158
G1 X70.15Y94.33
G0 X70.06Y94.374
G1 X70.167Y94.557
G1 X70.299Y94.718
G1 X70.46Y94.85
G1 X70.644Y94.957
G1 X70.833Y95.031
G1 X71.01Y95.059
G1 X71.199Y95.032
G1 X71.384Y94.959
G1 X71.558Y94.849
G1 X71.717Y94.712
G1 X71.854Y94.553
G1 X71.964Y94.379
G1 X72.037Y94.195
G1 X72.065Y94.006
G1 X72.037Y93.817
G1 X71.964Y93.633
G1 X71.854Y93.459
G1 X71.717Y93.3
G1 X71.558Y93.163
G1 X71.384Y93.053
G1 X71.2Y92.98
G1 X71.011Y92.952
G1 X70.823Y92.98
G1 X70.638Y93.053
G1 X70.464Y93.163
G1 X70.305Y93.3
G1 X70.168Y93.459
G1 X70.058Y93.633
G1 X69.985Y93.818
G1 X69.958Y94.007
G1 X69.986Y94.185
G1 X70.06Y94.374
G0 X69.97Y94.417
G1 X70.085Y94.615
G1 X70.228Y94.789
G1 X70.403Y94.932
G1 X70.6Y95.047
G1 X70.806Y95.128
G1 X71.01Y95.161
G1 X71.226Y95.129
G1 X71.43Y95.048
G1 X71.618Y94.93
G1 X71.788Y94.783
G1 X71.935Y94.613
G1 X72.053Y94.424
G1 X72.135Y94.221
G1 X72.166Y94.006
G1 X72.135Y93.792
G1 X72.053Y93.587
G1 X71.935Y93.399
G1 X71.788Y93.229
G1 X71.618Y93.082
G1 X71.429Y92.964
G1 X71.226Y92.883
G1 X71.011Y92.851
G1 X70.797Y92.883
G1 X70.593Y92.964
G1 X70.404Y93.082
G1 X70.234Y93.229
G1 X70.087Y93.399
G1 X69.969Y93.587
G1 X69.888Y93.792
G1 X69.856Y94.007
G1 X69.889Y94.211
G1 X69.97Y94.417
G0 X55.872Y94.019
G1 Y94.053
G1 X55.846Y94.085
G1 X55.818Y94.108
G1 X55.791
G1 X55.761
G1 X55.697Y94.078
G1 X55.676Y94.056
G1 X55.664Y94.036
G1 X55.688Y93.975
G1 X55.781Y93.892
G1 X55.818Y93.916
G1 X55.864Y93.983
G1 Y94.019
G0 X55.974
G1 X55.96Y94.089
G1 X55.922Y94.152
G1 X55.865Y94.198
G1 X55.802Y94.218
G1 X55.73
G1 X55.635Y94.157
G1 X55.596Y94.117
G1 X55.572Y94.076
G1 X55.562Y94.039
G1 Y94.017
G1 X55.605Y93.916
G1 X55.725Y93.808
G1 X55.781Y93.781
G1 X55.797
G1 X55.825Y93.791
G1 X55.893Y93.848
G1 X55.958Y93.942
G1 X55.974Y94.018
G0 X56.076
G1 X56.055Y94.126
G1 X55.999Y94.219
G1 X55.914Y94.287
G1 X55.812Y94.319
G1 X55.699Y94.308
G1 X55.574Y94.238
G1 X55.516Y94.178
G1 X55.479Y94.115
G1 X55.462Y94.053
G1 Y93.995
G1 X55.522Y93.856
G1 X55.668Y93.724
G1 X55.754Y93.682
G1 X55.813
G1 X55.877Y93.704
G1 X55.967Y93.781
G1 X56.052Y93.903
G1 X56.076Y94.017
G0 X56.178
G1 X56.15Y94.162
G1 X56.075Y94.286
G1 X55.962Y94.377
G1 X55.823Y94.421
G1 X55.669Y94.406
G1 X55.512Y94.318
G1 X55.436Y94.239
G1 X55.386Y94.155
G1 X55.361Y94.065
G1 Y93.975
G1 X55.439Y93.797
G1 X55.612Y93.641
G1 X55.728Y93.584
G1 X55.83
G1 X55.93Y93.618
G1 X56.042Y93.713
G1 X56.146Y93.862
G1 X56.178Y94.016
G0 X56.701Y94.158
G1 X56.725Y94.006
G1 X56.701Y93.854
G1 X56.634Y93.682
G1 X56.535Y93.512
G1 X56.414Y93.365
G1 X56.267Y93.244
G1 X56.097Y93.145
G1 X55.925Y93.078
G1 X55.773Y93.053
G1 X55.621Y93.078
G1 X55.449Y93.145
G1 X55.279Y93.244
G1 X55.132Y93.365
G1 X55.011Y93.512
G1 X54.912Y93.682
G1 X54.845Y93.854
G1 X54.821Y94.006
G1 X54.845Y94.158
G1 X54.912Y94.33
G1 X55.011Y94.5
G1 X55.132Y94.647
G1 X55.279Y94.768
G1 X55.449Y94.867
G1 X55.621Y94.934
G1 X55.773Y94.958
G1 X55.925Y94.934
G1 X56.097Y94.867
G1 X56.267Y94.768
G1 X56.414Y94.647
G1 X56.535Y94.5
G1 X56.634Y94.33
G1 X56.701Y94.158
G0 X56.798Y94.185
G1 X56.827Y94.006
G1 X56.798Y93.827
G1 X56.724Y93.638
G1 X56.617Y93.455
G1 X56.485Y93.294
G1 X56.324Y93.162
G1 X56.141Y93.055
G1 X55.952Y92.981
G1 X55.773Y92.952
G1 X55.594Y92.981
G1 X55.406Y93.055
G1 X55.222Y93.162
G1 X55.061Y93.294
G1 X54.929Y93.455
G1 X54.822Y93.638
G1 X54.748Y93.827
G1 X54.719Y94.006
G1 X54.748Y94.185
G1 X54.822Y94.374
G1 X54.929Y94.557
G1 X55.061Y94.718
G1 X55.222Y94.85
G1 X55.406Y94.957
G1 X55.594Y95.031
G1 X55.773Y95.06
G1 X55.952Y95.031
G1 X56.141Y94.957
G1 X56.324Y94.85
G1 X56.485Y94.718
G1 X56.617Y94.557
G1 X56.724Y94.374
G1 X56.798Y94.185
G0 X56.895Y94.211
G1 X56.928Y94.006
G1 X56.895Y93.801
G1 X56.814Y93.595
G1 X56.699Y93.397
G1 X56.556Y93.223
G1 X56.382Y93.08
G1 X56.184Y92.964
G1 X55.978Y92.884
G1 X55.773Y92.851
G1 X55.568Y92.884
G1 X55.362Y92.964
G1 X55.165Y93.08
G1 X54.99Y93.223
G1 X54.847Y93.397
G1 X54.731Y93.595
G1 X54.651Y93.801
G1 X54.618Y94.006
G1 X54.651Y94.211
G1 X54.731Y94.417
G1 X54.847Y94.615
G1 X54.99Y94.789
G1 X55.165Y94.932
G1 X55.362Y95.047
G1 X55.568Y95.128
G1 X55.773Y95.161
G1 X55.978Y95.128
G1 X56.184Y95.047
G1 X56.382Y94.932
G1 X56.556Y94.789
G1 X56.699Y94.615
G1 X56.814Y94.417
G1 X56.895Y94.211
G0 X55.817Y91.569
G1 X55.792
G1 X55.761
G1 X55.697Y91.538
G1 X55.676Y91.516
G1 X55.664Y91.497
G1 X55.688Y91.436
G1 X55.781Y91.352
G1 X55.817Y91.376
G1 X55.864Y91.443
G1 Y91.479
G1 Y91.513
G1 X55.846Y91.546
G1 X55.817Y91.569
G0 X55.865Y91.658
G1 X55.802Y91.678
G1 X55.73
G1 X55.635Y91.618
G1 X55.596Y91.577
G1 X55.572Y91.536
G1 X55.562Y91.5
G1 Y91.478
G1 X55.605Y91.376
G1 X55.725Y91.269
G1 X55.781Y91.241
G1 X55.798
G1 X55.825Y91.251
G1 X55.893Y91.308
G1 X55.958Y91.403
G1 X55.974Y91.479
G1 X55.96Y91.549
G1 X55.922Y91.613
G1 X55.865Y91.658
G0 X55.913Y91.748
G1 X55.813Y91.78
G1 X55.699Y91.769
G1 X55.573Y91.698
G1 X55.516Y91.638
G1 X55.479Y91.576
G1 X55.462Y91.513
G1 Y91.456
G1 X55.522Y91.317
G1 X55.668Y91.185
G1 X55.755Y91.143
G1 X55.813
G1 X55.877Y91.165
G1 X55.967Y91.241
G1 X56.052Y91.363
G1 X56.076Y91.477
G1 X56.055Y91.586
G1 X55.999Y91.679
G1 X55.913Y91.748
G0 X55.962Y91.837
G1 X55.823Y91.882
G1 X55.669Y91.866
G1 X55.512Y91.778
G1 X55.436Y91.7
G1 X55.386Y91.615
G1 X55.361Y91.526
G1 Y91.435
G1 X55.439Y91.257
G1 X55.612Y91.101
G1 X55.728Y91.045
G1 X55.83
G1 X55.93Y91.078
G1 X56.042Y91.173
G1 X56.146Y91.322
G1 X56.178Y91.476
G1 X56.15Y91.622
G1 X56.075Y91.747
G1 X55.962Y91.837
G0 X56.267Y92.228
G1 X56.414Y92.107
G1 X56.535Y91.96
G1 X56.634Y91.79
G1 X56.701Y91.619
G1 X56.725Y91.466
G1 X56.701Y91.314
G1 X56.634Y91.142
G1 X56.535Y90.973
G1 X56.414Y90.826
G1 X56.267Y90.705
G1 X56.097Y90.605
G1 X55.925Y90.539
G1 X55.773Y90.514
G1 X55.621Y90.539
G1 X55.449Y90.605
G1 X55.279Y90.705
G1 X55.132Y90.826
G1 X55.011Y90.973
G1 X54.912Y91.142
G1 X54.845Y91.314
G1 X54.821Y91.466
G1 X54.845Y91.619
G1 X54.912Y91.79
G1 X55.011Y91.96
G1 X55.132Y92.107
G1 X55.279Y92.228
G1 X55.449Y92.327
G1 X55.621Y92.394
G1 X55.773Y92.419
G1 X55.925Y92.394
G1 X56.097Y92.327
G1 X56.267Y92.228
G0 X56.324Y92.31
G1 X56.485Y92.178
G1 X56.617Y92.017
G1 X56.724Y91.834
G1 X56.798Y91.645
G1 X56.827Y91.466
G1 X56.798Y91.288
G1 X56.724Y91.099
G1 X56.617Y90.915
G1 X56.485Y90.755
G1 X56.324Y90.622
G1 X56.141Y90.515
G1 X55.952Y90.442
G1 X55.773Y90.413
G1 X55.594Y90.442
G1 X55.406Y90.515
G1 X55.222Y90.622
G1 X55.061Y90.755
G1 X54.929Y90.915
G1 X54.822Y91.099
G1 X54.748Y91.288
G1 X54.719Y91.466
G1 X54.748Y91.645
G1 X54.822Y91.834
G1 X54.929Y92.017
G1 X55.061Y92.178
G1 X55.222Y92.31
G1 X55.406Y92.417
G1 X55.594Y92.491
G1 X55.773Y92.52
G1 X55.952Y92.491
G1 X56.141Y92.417
G1 X56.324Y92.31
G0 X56.382Y92.393
G1 X56.556Y92.249
G1 X56.699Y92.075
G1 X56.814Y91.878
G1 X56.895Y91.671
G1 X56.928Y91.466
G1 X56.895Y91.261
G1 X56.814Y91.055
G1 X56.699Y90.858
G1 X56.556Y90.684
G1 X56.382Y90.54
G1 X56.184Y90.425
G1 X55.978Y90.344
G1 X55.773Y90.311
G1 X55.568Y90.344
G1 X55.362Y90.425
G1 X55.165Y90.54
G1 X54.99Y90.684
G1 X54.847Y90.858
G1 X54.731Y91.055
G1 X54.651Y91.261
G1 X54.618Y91.466
G1 X54.651Y91.672
G1 X54.731Y91.878
G1 X54.847Y92.075
G1 X54.99Y92.249
G1 X55.165Y92.393
G1 X55.362Y92.508
G1 X55.568Y92.588
G1 X55.773Y92.621
G1 X55.978Y92.588
G1 X56.184Y92.508
G1 X56.382Y92.393
G0 X70.902Y88.954
G1 X70.926Y88.896
G1 X71.02Y88.813
G1 X71.056Y88.837
G1 X71.102Y88.903
G1 Y88.94
G1 Y88.973
G1 X71.084Y89.006
G1 X71.056Y89.029
G1 X71.029
G1 X71
G1 X70.935Y88.998
G1 X70.914Y88.976
G1 X70.903Y88.957
G0 X70.81Y88.996
G1 X70.8Y88.96
G1 Y88.938
G1 X70.844Y88.836
G1 X70.963Y88.729
G1 X71.019Y88.701
G1 X71.036
G1 X71.062Y88.711
G1 X71.131Y88.769
G1 X71.196Y88.863
G1 X71.212Y88.939
G1 X71.198Y89.01
G1 X71.16Y89.073
G1 X71.104Y89.119
G1 X71.04Y89.139
G1 X70.969
G1 X70.873Y89.078
G1 X70.834Y89.038
G1 X70.81Y88.996
G0 X70.717Y89.036
G1 X70.7Y88.973
G1 Y88.916
G1 X70.76Y88.777
G1 X70.906Y88.645
G1 X70.993Y88.603
G1 X71.051
G1 X71.116Y88.625
G1 X71.205Y88.701
G1 X71.29Y88.823
G1 X71.314Y88.937
G1 X71.293Y89.047
G1 X71.237Y89.14
G1 X71.152Y89.208
G1 X71.05Y89.24
G1 X70.938Y89.229
G1 X70.811Y89.158
G1 X70.754Y89.099
G1 X70.717Y89.036
G0 X70.624Y89.075
G1 X70.6Y88.986
G1 Y88.895
G1 X70.677Y88.718
G1 X70.85Y88.561
G1 X70.966Y88.505
G1 X71.068
G1 X71.168Y88.539
G1 X71.28Y88.633
G1 X71.384Y88.782
G1 X71.416Y88.937
G1 X71.388Y89.082
G1 X71.313Y89.207
G1 X71.2Y89.298
G1 X71.061Y89.342
G1 X70.907Y89.326
G1 X70.75Y89.238
G1 X70.674Y89.16
G1 X70.624Y89.075
G0 X70.15Y89.25
G1 X70.25Y89.42
G1 X70.37Y89.567
G1 X70.517Y89.688
G1 X70.687Y89.787
G1 X70.859Y89.854
G1 X71.011Y89.879
G1 X71.174Y89.855
G1 X71.339Y89.79
G1 X71.499Y89.689
G1 X71.646Y89.562
G1 X71.774Y89.414
G1 X71.874Y89.254
G1 X71.94Y89.089
G1 X71.964Y88.927
G1 X71.94Y88.764
G1 X71.874Y88.599
G1 X71.774Y88.439
G1 X71.646Y88.292
G1 X71.499Y88.164
G1 X71.339Y88.063
G1 X71.174Y87.998
G1 X71.011Y87.974
G1 X70.849Y87.998
G1 X70.684Y88.063
G1 X70.524Y88.164
G1 X70.376Y88.292
G1 X70.249Y88.439
G1 X70.148Y88.599
G1 X70.082Y88.764
G1 X70.059Y88.927
G1 X70.083Y89.079
G1 X70.15Y89.25
G0 X70.06Y89.294
G1 X70.167Y89.478
G1 X70.299Y89.638
G1 X70.46Y89.771
G1 X70.644Y89.878
G1 X70.833Y89.951
G1 X71.01Y89.98
G1 X71.199Y89.953
G1 X71.384Y89.879
G1 X71.558Y89.77
G1 X71.717Y89.632
G1 X71.854Y89.474
G1 X71.964Y89.299
G1 X72.037Y89.115
G1 X72.065Y88.927
G1 X72.037Y88.738
G1 X71.964Y88.554
G1 X71.854Y88.38
G1 X71.717Y88.221
G1 X71.558Y88.083
G1 X71.384Y87.974
G1 X71.2Y87.901
G1 X71.011Y87.873
G1 X70.823Y87.901
G1 X70.638Y87.974
G1 X70.464Y88.083
G1 X70.305Y88.221
G1 X70.168Y88.38
G1 X70.058Y88.554
G1 X69.985Y88.738
G1 X69.958Y88.927
G1 X69.986Y89.105
G1 X70.06Y89.294
G0 X69.97Y89.338
G1 X70.085Y89.535
G1 X70.228Y89.709
G1 X70.403Y89.853
G1 X70.6Y89.968
G1 X70.806Y90.048
G1 X71.01Y90.081
G1 X71.226Y90.05
G1 X71.43Y89.969
G1 X71.618Y89.85
G1 X71.788Y89.703
G1 X71.935Y89.533
G1 X72.053Y89.345
G1 X72.135Y89.141
G1 X72.166Y88.927
G1 X72.135Y88.712
G1 X72.053Y88.508
G1 X71.935Y88.32
G1 X71.788Y88.15
G1 X71.618Y88.003
G1 X71.429Y87.884
G1 X71.226Y87.803
G1 X71.011Y87.772
G1 X70.797Y87.803
G1 X70.593Y87.884
G1 X70.404Y88.003
G1 X70.234Y88.15
G1 X70.087Y88.32
G1 X69.969Y88.508
G1 X69.888Y88.712
G1 X69.856Y88.928
G1 X69.889Y89.132
G1 X69.97Y89.338
G0 X55.872Y88.94
G1 Y88.973
G1 X55.846Y89.006
G1 X55.818Y89.029
G1 X55.791
G1 X55.761
G1 X55.697Y88.998
G1 X55.676Y88.976
G1 X55.664Y88.957
G1 X55.688Y88.896
G1 X55.781Y88.813
G1 X55.818Y88.837
G1 X55.864Y88.903
G1 Y88.94
G0 X55.974
G1 X55.96Y89.01
G1 X55.922Y89.073
G1 X55.865Y89.119
G1 X55.802Y89.139
G1 X55.73
G1 X55.635Y89.078
G1 X55.596Y89.038
G1 X55.572Y88.997
G1 X55.562Y88.96
G1 Y88.938
G1 X55.605Y88.836
G1 X55.725Y88.729
G1 X55.781Y88.701
G1 X55.798
G1 X55.824Y88.711
G1 X55.893Y88.769
G1 X55.958Y88.863
G1 X55.974Y88.939
G0 X56.076
G1 X56.055Y89.047
G1 X55.999Y89.14
G1 X55.914Y89.208
G1 X55.812Y89.24
G1 X55.699Y89.229
G1 X55.574Y89.158
G1 X55.516Y89.099
G1 X55.479Y89.036
G1 X55.462Y88.974
G1 Y88.916
G1 X55.522Y88.777
G1 X55.668Y88.645
G1 X55.755Y88.603
G1 X55.813
G1 X55.878Y88.625
G1 X55.967Y88.701
G1 X56.052Y88.823
G1 X56.076Y88.937
G0 X56.178
G1 X56.15Y89.082
G1 X56.075Y89.207
G1 X55.962Y89.298
G1 X55.823Y89.342
G1 X55.669Y89.326
G1 X55.512Y89.238
G1 X55.436Y89.16
G1 X55.386Y89.075
G1 X55.361Y88.986
G1 Y88.895
G1 X55.439Y88.718
G1 X55.612Y88.561
G1 X55.728Y88.505
G1 X55.83
G1 X55.93Y88.539
G1 X56.042Y88.633
G1 X56.146Y88.782
G1 X56.178Y88.937
G0 X56.701Y89.079
G1 X56.725Y88.927
G1 X56.701Y88.774
G1 X56.634Y88.603
G1 X56.535Y88.433
G1 X56.414Y88.286
G1 X56.267Y88.165
G1 X56.097Y88.066
G1 X55.925Y87.999
G1 X55.773Y87.974
G1 X55.621Y87.999
G1 X55.449Y88.066
G1 X55.279Y88.165
G1 X55.132Y88.286
G1 X55.011Y88.433
G1 X54.912Y88.603
G1 X54.845Y88.774
G1 X54.821Y88.927
G1 X54.845Y89.079
G1 X54.912Y89.25
G1 X55.011Y89.42
G1 X55.132Y89.567
G1 X55.279Y89.688
G1 X55.449Y89.787
G1 X55.621Y89.854
G1 X55.773Y89.879
G1 X55.925Y89.854
G1 X56.097Y89.787
G1 X56.267Y89.688
G1 X56.414Y89.567
G1 X56.535Y89.42
G1 X56.634Y89.25
G1 X56.701Y89.079
G0 X56.798Y89.105
G1 X56.827Y88.927
G1 X56.798Y88.748
G1 X56.724Y88.559
G1 X56.617Y88.375
G1 X56.485Y88.215
G1 X56.324Y88.083
G1 X56.141Y87.975
G1 X55.952Y87.902
G1 X55.773Y87.873
G1 X55.594Y87.902
G1 X55.406Y87.975
G1 X55.222Y88.083
G1 X55.061Y88.215
G1 X54.929Y88.375
G1 X54.822Y88.559
G1 X54.748Y88.748
G1 X54.719Y88.927
G1 X54.748Y89.105
G1 X54.822Y89.294
G1 X54.929Y89.478
G1 X55.061Y89.638
G1 X55.222Y89.771
G1 X55.406Y89.878
G1 X55.594Y89.951
G1 X55.773Y89.98
G1 X55.952Y89.951
G1 X56.141Y89.878
G1 X56.324Y89.771
G1 X56.485Y89.638
G1 X56.617Y89.478
G1 X56.724Y89.294
G1 X56.798Y89.105
G0 X56.895Y89.132
G1 X56.928Y88.927
G1 X56.895Y88.721
G1 X56.814Y88.515
G1 X56.699Y88.318
G1 X56.556Y88.144
G1 X56.382Y88
G1 X56.184Y87.885
G1 X55.978Y87.805
G1 X55.773Y87.771
G1 X55.568Y87.805
G1 X55.362Y87.885
G1 X55.165Y88
G1 X54.99Y88.144
G1 X54.847Y88.318
G1 X54.731Y88.515
G1 X54.651Y88.721
G1 X54.618Y88.927
G1 X54.651Y89.132
G1 X54.731Y89.338
G1 X54.847Y89.535
G1 X54.99Y89.709
G1 X55.165Y89.853
G1 X55.362Y89.968
G1 X55.568Y90.048
G1 X55.773Y90.082
G1 X55.978Y90.048
G1 X56.184Y89.968
G1 X56.382Y89.853
G1 X56.556Y89.709
G1 X56.699Y89.535
G1 X56.814Y89.338
G1 X56.895Y89.132
G0 X70.902Y86.414
G1 X70.927Y86.357
G1 X71.02Y86.273
G1 X71.056Y86.297
G1 X71.102Y86.364
G1 Y86.4
G1 Y86.434
G1 X71.084Y86.466
G1 X71.055Y86.489
G1 X71.029
G1 X71
G1 X70.934Y86.458
G1 X70.915Y86.438
G1 X70.903Y86.417
G0 X70.81Y86.457
G1 X70.8Y86.42
G1 Y86.397
G1 X70.843Y86.297
G1 X70.963Y86.189
G1 X71.019Y86.162
G1 X71.036
G1 X71.063
G1 X71.131Y86.229
G1 X71.196Y86.323
G1 X71.212Y86.399
G1 X71.198Y86.47
G1 X71.16Y86.533
G1 X71.104Y86.579
G1 X71.04Y86.599
G1 X70.969
G1 X70.873Y86.538
G1 X70.834Y86.499
G1 X70.81Y86.457
G0 X70.717Y86.496
G1 X70.7Y86.434
G1 Y86.376
G1 X70.76Y86.238
G1 X70.906Y86.105
G1 X70.993Y86.063
G1 X71.052
G1 X71.115Y86.085
G1 X71.205Y86.161
G1 X71.29Y86.283
G1 X71.314Y86.397
G1 X71.293Y86.507
G1 X71.237Y86.6
G1 X71.151Y86.669
G1 X71.05Y86.701
G1 X70.938Y86.689
G1 X70.812Y86.619
G1 X70.754Y86.56
G1 X70.717Y86.496
G0 X70.624Y86.535
G1 X70.6Y86.447
G1 Y86.355
G1 X70.677Y86.178
G1 X70.85Y86.022
G1 X70.966Y85.965
G1 X71.068
G1 X71.168Y85.999
G1 X71.28Y86.094
G1 X71.384Y86.243
G1 X71.416Y86.397
G1 X71.388Y86.542
G1 X71.313Y86.667
G1 X71.2Y86.758
G1 X71.061Y86.802
G1 X70.907Y86.787
G1 X70.75Y86.698
G1 X70.674Y86.62
G1 X70.624Y86.535
G0 X70.15Y86.711
G1 X70.25Y86.881
G1 X70.37Y87.028
G1 X70.517Y87.149
G1 X70.687Y87.248
G1 X70.859Y87.315
G1 X71.011Y87.339
G1 X71.174Y87.316
G1 X71.339Y87.25
G1 X71.499Y87.15
G1 X71.646Y87.022
G1 X71.774Y86.874
G1 X71.874Y86.714
G1 X71.94Y86.549
G1 X71.964Y86.387
G1 X71.94Y86.224
G1 X71.874Y86.06
G1 X71.774Y85.899
G1 X71.646Y85.752
G1 X71.499Y85.624
G1 X71.339Y85.524
G1 X71.174Y85.458
G1 X71.011Y85.435
G1 X70.849Y85.458
G1 X70.684Y85.524
G1 X70.524Y85.624
G1 X70.376Y85.752
G1 X70.249Y85.899
G1 X70.148Y86.06
G1 X70.082Y86.224
G1 X70.059Y86.387
G1 X70.083Y86.539
G1 X70.15Y86.711
G0 X70.06Y86.754
G1 X70.167Y86.938
G1 X70.299Y87.099
G1 X70.46Y87.231
G1 X70.644Y87.338
G1 X70.833Y87.412
G1 X71.01Y87.44
G1 X71.2Y87.413
G1 X71.384Y87.34
G1 X71.558Y87.23
G1 X71.717Y87.093
G1 X71.854Y86.934
G1 X71.964Y86.76
G1 X72.037Y86.575
G1 X72.065Y86.387
G1 X72.037Y86.198
G1 X71.964Y86.014
G1 X71.854Y85.84
G1 X71.717Y85.681
G1 X71.558Y85.544
G1 X71.384Y85.434
G1 X71.199Y85.361
G1 X71.011Y85.333
G1 X70.823Y85.361
G1 X70.638Y85.434
G1 X70.464Y85.544
G1 X70.305Y85.681
G1 X70.168Y85.84
G1 X70.058Y86.014
G1 X69.985Y86.198
G1 X69.958Y86.388
G1 X69.986Y86.566
G1 X70.06Y86.754
G0 X69.97Y86.798
G1 X70.085Y86.995
G1 X70.228Y87.17
G1 X70.403Y87.313
G1 X70.6Y87.428
G1 X70.806Y87.509
G1 X71.01Y87.542
G1 X71.226Y87.51
G1 X71.429Y87.429
G1 X71.618Y87.311
G1 X71.788Y87.164
G1 X71.935Y86.994
G1 X72.053Y86.805
G1 X72.135Y86.601
G1 X72.166Y86.387
G1 X72.135Y86.172
G1 X72.053Y85.969
G1 X71.935Y85.78
G1 X71.788Y85.61
G1 X71.618Y85.463
G1 X71.43Y85.345
G1 X71.226Y85.263
G1 X71.011Y85.232
G1 X70.797Y85.263
G1 X70.593Y85.345
G1 X70.404Y85.463
G1 X70.234Y85.61
G1 X70.087Y85.78
G1 X69.969Y85.969
G1 X69.888Y86.172
G1 X69.856Y86.389
G1 X69.889Y86.592
G1 X69.97Y86.798
G0 X55.872Y86.4
G1 Y86.434
G1 X55.846Y86.466
G1 X55.817Y86.489
G1 X55.792
G1 X55.761
G1 X55.697Y86.458
G1 X55.676Y86.437
G1 X55.665Y86.418
G1 X55.689Y86.356
G1 X55.781Y86.273
G1 X55.818Y86.297
G1 X55.864Y86.364
G1 Y86.4
G0 X55.974
G1 X55.96Y86.47
G1 X55.922Y86.533
G1 X55.865Y86.579
G1 X55.802Y86.599
G1 X55.73
G1 X55.635Y86.538
G1 X55.596Y86.498
G1 X55.572Y86.457
G1 X55.562Y86.42
G1 Y86.397
G1 X55.605Y86.297
G1 X55.725Y86.189
G1 X55.781Y86.162
G1 X55.798
G1 X55.825
G1 X55.893Y86.229
G1 X55.958Y86.323
G1 X55.974Y86.399
G0 X56.076
G1 X56.055Y86.507
G1 X55.999Y86.6
G1 X55.913Y86.669
G1 X55.813Y86.701
G1 X55.699Y86.689
G1 X55.573Y86.618
G1 X55.516Y86.559
G1 X55.479Y86.496
G1 X55.462Y86.434
G1 Y86.376
G1 X55.522Y86.238
G1 X55.668Y86.105
G1 X55.755Y86.063
G1 X55.813
G1 X55.877Y86.085
G1 X55.967Y86.161
G1 X56.052Y86.283
G1 X56.076Y86.397
G0 X56.178
G1 X56.15Y86.542
G1 X56.075Y86.667
G1 X55.962Y86.758
G1 X55.823Y86.802
G1 X55.669Y86.787
G1 X55.512Y86.698
G1 X55.436Y86.62
G1 X55.386Y86.535
G1 X55.361Y86.447
G1 Y86.355
G1 X55.439Y86.178
G1 X55.612Y86.022
G1 X55.728Y85.965
G1 X55.83
G1 X55.93Y85.999
G1 X56.042Y86.094
G1 X56.146Y86.243
G1 X56.178Y86.397
G0 X56.701Y86.539
G1 X56.725Y86.387
G1 X56.701Y86.235
G1 X56.634Y86.063
G1 X56.535Y85.893
G1 X56.414Y85.746
G1 X56.267Y85.625
G1 X56.097Y85.526
G1 X55.925Y85.459
G1 X55.773Y85.435
G1 X55.621Y85.459
G1 X55.449Y85.526
G1 X55.279Y85.625
G1 X55.132Y85.746
G1 X55.011Y85.893
G1 X54.912Y86.063
G1 X54.845Y86.235
G1 X54.821Y86.387
G1 X54.845Y86.539
G1 X54.912Y86.711
G1 X55.011Y86.881
G1 X55.132Y87.028
G1 X55.279Y87.149
G1 X55.449Y87.248
G1 X55.621Y87.315
G1 X55.773Y87.339
G1 X55.925Y87.315
G1 X56.097Y87.248
G1 X56.267Y87.149
G1 X56.414Y87.028
G1 X56.535Y86.881
G1 X56.634Y86.711
G1 X56.701Y86.539
G0 X56.798Y86.566
G1 X56.827Y86.387
G1 X56.798Y86.208
G1 X56.724Y86.019
G1 X56.617Y85.836
G1 X56.485Y85.675
G1 X56.324Y85.543
G1 X56.141Y85.436
G1 X55.952Y85.362
G1 X55.773Y85.333
G1 X55.594Y85.362
G1 X55.406Y85.436
G1 X55.222Y85.543
G1 X55.061Y85.675
G1 X54.929Y85.836
G1 X54.822Y86.019
G1 X54.748Y86.208
G1 X54.719Y86.387
G1 X54.748Y86.566
G1 X54.822Y86.754
G1 X54.929Y86.938
G1 X55.061Y87.099
G1 X55.222Y87.231
G1 X55.406Y87.338
G1 X55.594Y87.412
G1 X55.773Y87.441
G1 X55.952Y87.412
G1 X56.141Y87.338
G1 X56.324Y87.231
G1 X56.485Y87.099
G1 X56.617Y86.938
G1 X56.724Y86.754
G1 X56.798Y86.566
G0 X56.895Y86.592
G1 X56.928Y86.387
G1 X56.895Y86.182
G1 X56.814Y85.976
G1 X56.699Y85.778
G1 X56.556Y85.604
G1 X56.382Y85.461
G1 X56.184Y85.345
G1 X55.978Y85.265
G1 X55.773Y85.232
G1 X55.568Y85.265
G1 X55.362Y85.345
G1 X55.165Y85.461
G1 X54.99Y85.604
G1 X54.847Y85.778
G1 X54.731Y85.976
G1 X54.651Y86.182
G1 X54.618Y86.387
G1 X54.651Y86.592
G1 X54.731Y86.798
G1 X54.847Y86.995
G1 X54.99Y87.17
G1 X55.165Y87.313
G1 X55.362Y87.428
G1 X55.568Y87.509
G1 X55.773Y87.542
G1 X55.978Y87.509
G1 X56.184Y87.428
G1 X56.382Y87.313
G1 X56.556Y87.17
G1 X56.699Y86.995
G1 X56.814Y86.798
G1 X56.895Y86.592
G0 X70.902Y83.874
G1 X70.926Y83.817
G1 X71.02Y83.733
G1 X71.056Y83.757
G1 X71.102Y83.824
G1 Y83.86
G1 Y83.894
G1 X71.084Y83.927
G1 X71.056Y83.949
G1 X71.029
G1 X71
G1 X70.935Y83.918
G1 X70.914Y83.897
G1 X70.903Y83.878
G0 X70.81Y83.917
G1 X70.8Y83.881
G1 Y83.858
G1 X70.844Y83.757
G1 X70.963Y83.649
G1 X71.019Y83.622
G1 X71.036
G1 X71.062
G1 X71.131Y83.69
G1 X71.196Y83.784
G1 X71.212Y83.859
G1 X71.198Y83.93
G1 X71.16Y83.994
G1 X71.104Y84.039
G1 X71.04Y84.059
G1 X70.969
G1 X70.873Y83.999
G1 X70.834Y83.958
G1 X70.81Y83.917
G0 X70.717Y83.956
G1 X70.7Y83.894
G1 Y83.836
G1 X70.76Y83.698
G1 X70.906Y83.566
G1 X70.993Y83.524
G1 X71.051
G1 X71.116Y83.546
G1 X71.205Y83.621
G1 X71.29Y83.743
G1 X71.314Y83.858
G1 X71.293Y83.967
G1 X71.237Y84.061
G1 X71.152Y84.129
G1 X71.05Y84.161
G1 X70.938Y84.15
G1 X70.811Y84.078
G1 X70.754Y84.02
G1 X70.717Y83.956
G0 X70.624Y83.996
G1 X70.6Y83.907
G1 Y83.816
G1 X70.677Y83.638
G1 X70.85Y83.482
G1 X70.966Y83.426
G1 X71.068
G1 X71.168Y83.459
G1 X71.28Y83.554
G1 X71.384Y83.703
G1 X71.416Y83.857
G1 X71.388Y84.003
G1 X71.313Y84.128
G1 X71.2Y84.219
G1 X71.061Y84.262
G1 X70.907Y84.247
G1 X70.75Y84.159
G1 X70.674Y84.081
G1 X70.624Y83.996
G0 X70.15Y84.171
G1 X70.25Y84.341
G1 X70.37Y84.488
G1 X70.517Y84.609
G1 X70.687Y84.708
G1 X70.859Y84.775
G1 X71.011Y84.8
G1 X71.174Y84.776
G1 X71.339Y84.71
G1 X71.499Y84.61
G1 X71.646Y84.482
G1 X71.774Y84.335
G1 X71.874Y84.175
G1 X71.94Y84.01
G1 X71.964Y83.847
G1 X71.94Y83.685
G1 X71.874Y83.52
G1 X71.774Y83.36
G1 X71.646Y83.212
G1 X71.499Y83.084
G1 X71.339Y82.984
G1 X71.174Y82.918
G1 X71.011Y82.895
G1 X70.849Y82.918
G1 X70.684Y82.984
G1 X70.524Y83.084
G1 X70.376Y83.212
G1 X70.249Y83.36
G1 X70.148Y83.52
G1 X70.082Y83.685
G1 X70.059Y83.847
G1 X70.083Y84
G1 X70.15Y84.171
G0 X70.06Y84.215
G1 X70.167Y84.398
G1 X70.299Y84.559
G1 X70.46Y84.691
G1 X70.644Y84.798
G1 X70.833Y84.872
G1 X71.01Y84.901
G1 X71.2Y84.873
G1 X71.384Y84.8
G1 X71.558Y84.69
G1 X71.717Y84.553
G1 X71.854Y84.394
G1 X71.964Y84.22
G1 X72.037Y84.036
G1 X72.065Y83.847
G1 X72.037Y83.659
G1 X71.964Y83.474
G1 X71.854Y83.3
G1 X71.717Y83.141
G1 X71.558Y83.004
G1 X71.384Y82.895
G1 X71.2Y82.821
G1 X71.011Y82.794
G1 X70.823Y82.821
G1 X70.638Y82.895
G1 X70.464Y83.004
G1 X70.305Y83.141
G1 X70.168Y83.3
G1 X70.058Y83.474
G1 X69.985Y83.659
G1 X69.958Y83.848
G1 X69.986Y84.026
G1 X70.06Y84.215
G0 X69.97Y84.259
G1 X70.085Y84.456
G1 X70.228Y84.63
G1 X70.403Y84.773
G1 X70.6Y84.889
G1 X70.806Y84.969
G1 X71.01Y85.002
G1 X71.226Y84.971
G1 X71.43Y84.889
G1 X71.618Y84.771
G1 X71.788Y84.624
G1 X71.935Y84.454
G1 X72.053Y84.266
G1 X72.135Y84.062
G1 X72.166Y83.847
G1 X72.135Y83.633
G1 X72.053Y83.429
G1 X71.935Y83.24
G1 X71.788Y83.07
G1 X71.618Y82.923
G1 X71.429Y82.805
G1 X71.226Y82.724
G1 X71.011Y82.693
G1 X70.797Y82.724
G1 X70.593Y82.805
G1 X70.404Y82.923
G1 X70.234Y83.07
G1 X70.087Y83.24
G1 X69.969Y83.429
G1 X69.888Y83.633
G1 X69.856Y83.849
G1 X69.889Y84.052
G1 X69.97Y84.259
G0 X55.872Y83.86
G1 Y83.894
G1 X55.846Y83.927
G1 X55.818Y83.949
G1 X55.791
G1 X55.761
G1 X55.697Y83.918
G1 X55.676Y83.897
G1 X55.664Y83.877
G1 X55.688Y83.817
G1 X55.781Y83.733
G1 X55.818Y83.757
G1 X55.864Y83.824
G1 Y83.86
G0 X55.974
G1 X55.961Y83.93
G1 X55.922Y83.994
G1 X55.865Y84.039
G1 X55.802Y84.059
G1 X55.73
G1 X55.635Y83.999
G1 X55.596Y83.958
G1 X55.572Y83.917
G1 X55.562Y83.881
G1 Y83.859
G1 X55.605Y83.757
G1 X55.725Y83.649
G1 X55.781Y83.622
G1 X55.798
G1 X55.824
G1 X55.893Y83.69
G1 X55.958Y83.784
G1 X55.974Y83.859
G0 X56.076
G1 X56.055Y83.967
G1 X55.998Y84.061
G1 X55.914Y84.129
G1 X55.812Y84.161
G1 X55.699Y84.149
G1 X55.573Y84.078
G1 X55.516Y84.019
G1 X55.479Y83.957
G1 X55.462Y83.894
G1 Y83.837
G1 X55.522Y83.698
G1 X55.668Y83.566
G1 X55.755Y83.524
G1 X55.813
G1 X55.878Y83.546
G1 X55.967Y83.621
G1 X56.052Y83.743
G1 X56.076Y83.858
G0 X56.178
G1 X56.15Y84.003
G1 X56.075Y84.127
G1 X55.962Y84.219
G1 X55.823Y84.262
G1 X55.669Y84.247
G1 X55.512Y84.159
G1 X55.436Y84.081
G1 X55.386Y83.996
G1 X55.361Y83.907
G1 Y83.816
G1 X55.439Y83.638
G1 X55.612Y83.482
G1 X55.728Y83.426
G1 X55.83
G1 X55.93Y83.459
G1 X56.042Y83.554
G1 X56.146Y83.703
G1 X56.178Y83.857
G0 X56.701Y84
G1 X56.725Y83.847
G1 X56.701Y83.695
G1 X56.634Y83.523
G1 X56.535Y83.354
G1 X56.414Y83.207
G1 X56.267Y83.085
G1 X56.097Y82.986
G1 X55.925Y82.919
G1 X55.773Y82.895
G1 X55.621Y82.919
G1 X55.449Y82.986
G1 X55.279Y83.085
G1 X55.132Y83.207
G1 X55.011Y83.354
G1 X54.912Y83.523
G1 X54.845Y83.695
G1 X54.821Y83.847
G1 X54.845Y84
G1 X54.912Y84.171
G1 X55.011Y84.341
G1 X55.132Y84.488
G1 X55.279Y84.609
G1 X55.449Y84.708
G1 X55.621Y84.775
G1 X55.773Y84.8
G1 X55.925Y84.775
G1 X56.097Y84.708
G1 X56.267Y84.609
G1 X56.414Y84.488
G1 X56.535Y84.341
G1 X56.634Y84.171
G1 X56.701Y84
G0 X56.798Y84.026
G1 X56.827Y83.847
G1 X56.798Y83.668
G1 X56.724Y83.479
G1 X56.617Y83.296
G1 X56.485Y83.135
G1 X56.324Y83.003
G1 X56.141Y82.896
G1 X55.952Y82.823
G1 X55.773Y82.793
G1 X55.594Y82.823
G1 X55.406Y82.896
G1 X55.222Y83.003
G1 X55.061Y83.135
G1 X54.929Y83.296
G1 X54.822Y83.479
G1 X54.748Y83.668
G1 X54.719Y83.847
G1 X54.748Y84.026
G1 X54.822Y84.215
G1 X54.929Y84.398
G1 X55.061Y84.559
G1 X55.222Y84.691
G1 X55.406Y84.798
G1 X55.594Y84.872
G1 X55.773Y84.901
G1 X55.952Y84.872
G1 X56.141Y84.798
G1 X56.324Y84.691
G1 X56.485Y84.559
G1 X56.617Y84.398
G1 X56.724Y84.215
G1 X56.798Y84.026
G0 X56.895Y84.052
G1 X56.928Y83.847
G1 X56.895Y83.642
G1 X56.814Y83.436
G1 X56.699Y83.239
G1 X56.556Y83.064
G1 X56.382Y82.921
G1 X56.184Y82.806
G1 X55.978Y82.725
G1 X55.773Y82.692
G1 X55.568Y82.725
G1 X55.362Y82.806
G1 X55.165Y82.921
G1 X54.99Y83.064
G1 X54.847Y83.239
G1 X54.731Y83.436
G1 X54.651Y83.642
G1 X54.618Y83.847
G1 X54.651Y84.052
G1 X54.731Y84.259
G1 X54.847Y84.456
G1 X54.99Y84.63
G1 X55.165Y84.773
G1 X55.362Y84.889
G1 X55.568Y84.969
G1 X55.773Y85.002
G1 X55.978Y84.969
G1 X56.184Y84.889
G1 X56.382Y84.773
G1 X56.556Y84.63
G1 X56.699Y84.456
G1 X56.814Y84.259
G1 X56.895Y84.052
G0 X55.818Y81.409
G1 X55.791
G1 X55.761
G1 X55.697Y81.379
G1 X55.676Y81.357
G1 X55.665Y81.338
G1 X55.689Y81.277
G1 X55.781Y81.194
G1 X55.818Y81.217
G1 X55.864Y81.285
G1 Y81.321
G1 Y81.354
G1 X55.846Y81.387
G1 X55.818Y81.409
G0 X55.865Y81.5
G1 X55.802Y81.52
G1 X55.73
G1 X55.635Y81.459
G1 X55.596Y81.419
G1 X55.572Y81.377
G1 X55.562Y81.341
G1 Y81.318
G1 X55.605Y81.218
G1 X55.725Y81.11
G1 X55.781Y81.083
G1 X55.798
G1 X55.825
G1 X55.893Y81.149
G1 X55.958Y81.244
G1 X55.974Y81.32
G1 X55.96Y81.391
G1 X55.922Y81.454
G1 X55.865Y81.5
G0 X55.914Y81.589
G1 X55.812Y81.621
G1 X55.699Y81.61
G1 X55.573Y81.539
G1 X55.516Y81.48
G1 X55.479Y81.417
G1 X55.462Y81.354
G1 Y81.297
G1 X55.522Y81.158
G1 X55.668Y81.026
G1 X55.755Y80.984
G1 X55.813
G1 X55.877Y81.006
G1 X55.967Y81.082
G1 X56.052Y81.204
G1 X56.076Y81.318
G1 X56.055Y81.427
G1 X55.999Y81.521
G1 X55.914Y81.589
G0 X55.962Y81.679
G1 X55.823Y81.723
G1 X55.669Y81.707
G1 X55.512Y81.619
G1 X55.436Y81.541
G1 X55.386Y81.456
G1 X55.361Y81.367
G1 Y81.276
G1 X55.439Y81.099
G1 X55.612Y80.942
G1 X55.728Y80.886
G1 X55.83
G1 X55.93Y80.92
G1 X56.042Y81.014
G1 X56.146Y81.163
G1 X56.178Y81.317
G1 X56.15Y81.463
G1 X56.075Y81.588
G1 X55.962Y81.679
G0 X56.267Y82.069
G1 X56.414Y81.948
G1 X56.535Y81.801
G1 X56.634Y81.631
G1 X56.701Y81.46
G1 X56.725Y81.308
G1 X56.701Y81.155
G1 X56.634Y80.984
G1 X56.535Y80.814
G1 X56.414Y80.667
G1 X56.267Y80.546
G1 X56.097Y80.447
G1 X55.925Y80.38
G1 X55.773Y80.355
G1 X55.621Y80.38
G1 X55.449Y80.447
G1 X55.279Y80.546
G1 X55.132Y80.667
G1 X55.011Y80.814
G1 X54.912Y80.984
G1 X54.845Y81.155
G1 X54.821Y81.308
G1 X54.845Y81.46
G1 X54.912Y81.631
G1 X55.011Y81.801
G1 X55.132Y81.948
G1 X55.279Y82.069
G1 X55.449Y82.168
G1 X55.621Y82.235
G1 X55.773Y82.26
G1 X55.925Y82.235
G1 X56.097Y82.168
G1 X56.267Y82.069
G0 X56.324Y82.152
G1 X56.485Y82.019
G1 X56.617Y81.859
G1 X56.724Y81.675
G1 X56.798Y81.486
G1 X56.827Y81.308
G1 X56.798Y81.129
G1 X56.724Y80.94
G1 X56.617Y80.756
G1 X56.485Y80.596
G1 X56.324Y80.464
G1 X56.141Y80.356
G1 X55.952Y80.283
G1 X55.773Y80.254
G1 X55.594Y80.283
G1 X55.406Y80.356
G1 X55.222Y80.464
G1 X55.061Y80.596
G1 X54.929Y80.756
G1 X54.822Y80.94
G1 X54.748Y81.129
G1 X54.719Y81.308
G1 X54.748Y81.486
G1 X54.822Y81.675
G1 X54.929Y81.859
G1 X55.061Y82.019
G1 X55.222Y82.152
G1 X55.406Y82.259
G1 X55.594Y82.332
G1 X55.773Y82.361
G1 X55.952Y82.332
G1 X56.141Y82.259
G1 X56.324Y82.152
G0 X56.382Y82.234
G1 X56.556Y82.09
G1 X56.699Y81.916
G1 X56.814Y81.719
G1 X56.895Y81.513
G1 X56.928Y81.308
G1 X56.895Y81.103
G1 X56.814Y80.896
G1 X56.699Y80.699
G1 X56.556Y80.525
G1 X56.382Y80.381
G1 X56.184Y80.266
G1 X55.978Y80.186
G1 X55.773Y80.153
G1 X55.568Y80.186
G1 X55.362Y80.266
G1 X55.165Y80.381
G1 X54.99Y80.525
G1 X54.847Y80.699
G1 X54.731Y80.896
G1 X54.651Y81.102
G1 X54.618Y81.308
G1 X54.651Y81.513
G1 X54.731Y81.719
G1 X54.847Y81.916
G1 X54.99Y82.09
G1 X55.165Y82.234
G1 X55.362Y82.349
G1 X55.568Y82.429
G1 X55.773Y82.463
G1 X55.978Y82.429
G1 X56.184Y82.349
G1 X56.382Y82.234
G0 X70.902Y81.334
G1 X70.927Y81.278
G1 X71.02Y81.194
G1 X71.056Y81.217
G1 X71.102Y81.285
G1 Y81.321
G1 Y81.354
G1 X71.084Y81.387
G1 X71.056Y81.409
G1 X71.029
G1 X70.999
G1 X70.934Y81.378
G1 X70.915Y81.358
G1 X70.903Y81.338
G0 X70.81Y81.377
G1 X70.8Y81.341
G1 Y81.318
G1 X70.843Y81.218
G1 X70.963Y81.11
G1 X71.019Y81.083
G1 X71.036
G1 X71.063
G1 X71.131Y81.149
G1 X71.196Y81.244
G1 X71.212Y81.32
G1 X71.198Y81.391
G1 X71.16Y81.454
G1 X71.104Y81.5
G1 X71.04Y81.52
G1 X70.969
G1 X70.873Y81.458
G1 X70.834Y81.419
G1 X70.81Y81.377
G0 X70.717Y81.417
G1 X70.7Y81.354
G1 Y81.297
G1 X70.76Y81.158
G1 X70.906Y81.026
G1 X70.993Y80.984
G1 X71.052
G1 X71.115Y81.006
G1 X71.205Y81.082
G1 X71.29Y81.204
G1 X71.314Y81.318
G1 X71.293Y81.427
G1 X71.237Y81.521
G1 X71.152Y81.589
G1 X71.05Y81.621
G1 X70.938Y81.61
G1 X70.812Y81.539
G1 X70.754Y81.48
G1 X70.717Y81.417
G0 X70.624Y81.456
G1 X70.6Y81.367
G1 Y81.276
G1 X70.677Y81.099
G1 X70.85Y80.942
G1 X70.966Y80.886
G1 X71.068
G1 X71.168Y80.92
G1 X71.28Y81.014
G1 X71.384Y81.163
G1 X71.416Y81.317
G1 X71.388Y81.463
G1 X71.313Y81.588
G1 X71.2Y81.679
G1 X71.061Y81.723
G1 X70.907Y81.707
G1 X70.75Y81.619
G1 X70.674Y81.541
G1 X70.624Y81.456
G0 X70.15Y81.631
G1 X70.25Y81.801
G1 X70.37Y81.948
G1 X70.517Y82.069
G1 X70.687Y82.168
G1 X70.859Y82.235
G1 X71.011Y82.26
G1 X71.174Y82.236
G1 X71.339Y82.171
G1 X71.499Y82.07
G1 X71.646Y81.942
G1 X71.774Y81.795
G1 X71.874Y81.635
G1 X71.94Y81.47
G1 X71.964Y81.308
G1 X71.94Y81.145
G1 X71.874Y80.98
G1 X71.774Y80.82
G1 X71.646Y80.673
G1 X71.499Y80.545
G1 X71.339Y80.444
G1 X71.174Y80.379
G1 X71.011Y80.355
G1 X70.849Y80.379
G1 X70.684Y80.444
G1 X70.524Y80.545
G1 X70.376Y80.673
G1 X70.249Y80.82
G1 X70.148Y80.98
G1 X70.082Y81.145
G1 X70.059Y81.308
G1 X70.083Y81.46
G1 X70.15Y81.631
G0 X70.06Y81.675
G1 X70.167Y81.859
G1 X70.299Y82.019
G1 X70.46Y82.152
G1 X70.644Y82.259
G1 X70.833Y82.332
G1 X71.01Y82.361
G1 X71.2Y82.333
G1 X71.384Y82.26
G1 X71.558Y82.151
G1 X71.717Y82.013
G1 X71.854Y81.855
G1 X71.964Y81.68
G1 X72.037Y81.496
G1 X72.065Y81.308
G1 X72.037Y81.119
G1 X71.964Y80.935
G1 X71.854Y80.76
G1 X71.717Y80.602
G1 X71.558Y80.464
G1 X71.384Y80.355
G1 X71.199Y80.281
G1 X71.011Y80.254
G1 X70.823Y80.281
G1 X70.638Y80.355
G1 X70.464Y80.464
G1 X70.305Y80.602
G1 X70.168Y80.76
G1 X70.058Y80.935
G1 X69.985Y81.119
G1 X69.958Y81.308
G1 X69.986Y81.486
G1 X70.06Y81.675
G0 X69.97Y81.719
G1 X70.085Y81.916
G1 X70.228Y82.09
G1 X70.403Y82.234
G1 X70.6Y82.349
G1 X70.806Y82.429
G1 X71.01Y82.462
G1 X71.226Y82.431
G1 X71.429Y82.35
G1 X71.618Y82.231
G1 X71.788Y82.084
G1 X71.935Y81.914
G1 X72.053Y81.726
G1 X72.135Y81.522
G1 X72.166Y81.308
G1 X72.135Y81.093
G1 X72.053Y80.889
G1 X71.935Y80.701
G1 X71.788Y80.531
G1 X71.618Y80.384
G1 X71.43Y80.265
G1 X71.226Y80.184
G1 X71.011Y80.153
G1 X70.797Y80.184
G1 X70.593Y80.265
G1 X70.404Y80.384
G1 X70.234Y80.531
G1 X70.087Y80.701
G1 X69.969Y80.889
G1 X69.888Y81.093
G1 X69.856Y81.309
G1 X69.889Y81.513
G1 X69.97Y81.719
G0 X71Y78.875
G1 X70.934Y78.839
G1 X70.914Y78.818
G1 X70.903Y78.798
G1 X70.926Y78.738
G1 X71.02Y78.654
G1 X71.056Y78.678
G1 X71.102Y78.745
G1 Y78.781
G1 Y78.815
G1 X71.084Y78.847
G1 X71.056Y78.87
G1 X71.029
G1 X71
G0 X70.969Y78.973
G1 X70.873Y78.919
G1 X70.834Y78.879
G1 X70.81Y78.838
G1 X70.8Y78.801
G1 Y78.779
G1 X70.844Y78.677
G1 X70.963Y78.57
G1 X71.019Y78.543
G1 X71.036
G1 X71.062
G1 X71.131Y78.61
G1 X71.196Y78.704
G1 X71.212Y78.78
G1 X71.199Y78.851
G1 X71.16Y78.914
G1 X71.104Y78.96
G1 X71.04Y78.98
G1 X70.969
G0 X70.938Y79.07
G1 X70.812Y79
G1 X70.754Y78.94
G1 X70.717Y78.877
G1 X70.7Y78.815
G1 Y78.757
G1 X70.76Y78.618
G1 X70.906Y78.486
G1 X70.993Y78.444
G1 X71.051
G1 X71.116Y78.467
G1 X71.205Y78.542
G1 X71.29Y78.664
G1 X71.314Y78.779
G1 X71.293Y78.887
G1 X71.236Y78.981
G1 X71.152Y79.049
G1 X71.05Y79.082
G1 X70.938Y79.07
G0 X70.907Y79.167
G1 X70.75Y79.079
G1 X70.674Y79.001
G1 X70.624Y78.917
G1 X70.6Y78.827
G1 Y78.737
G1 X70.677Y78.559
G1 X70.85Y78.403
G1 X70.966Y78.346
G1 X71.068
G1 X71.168Y78.38
G1 X71.28Y78.474
G1 X71.384Y78.624
G1 X71.416Y78.778
G1 X71.388Y78.924
G1 X71.313Y79.048
G1 X71.2Y79.139
G1 X71.061Y79.183
G1 X70.907Y79.167
G0 X70.687Y79.629
G1 X70.859Y79.696
G1 X71.011Y79.72
G1 X71.174Y79.697
G1 X71.339Y79.631
G1 X71.499Y79.531
G1 X71.646Y79.403
G1 X71.774Y79.255
G1 X71.874Y79.095
G1 X71.94Y78.93
G1 X71.964Y78.768
G1 X71.94Y78.605
G1 X71.874Y78.44
G1 X71.774Y78.281
G1 X71.646Y78.133
G1 X71.499Y78.005
G1 X71.339Y77.905
G1 X71.174Y77.839
G1 X71.011Y77.815
G1 X70.849Y77.839
G1 X70.684Y77.905
G1 X70.524Y78.005
G1 X70.376Y78.133
G1 X70.249Y78.281
G1 X70.148Y78.44
G1 X70.082Y78.605
G1 X70.059Y78.768
G1 X70.083Y78.92
G1 X70.15Y79.092
G1 X70.25Y79.261
G1 X70.37Y79.408
G1 X70.517Y79.53
G1 X70.687Y79.629
G0 X70.644Y79.719
G1 X70.833Y79.792
G1 X71.01Y79.821
G1 X71.2Y79.794
G1 X71.384Y79.72
G1 X71.558Y79.611
G1 X71.717Y79.474
G1 X71.854Y79.315
G1 X71.964Y79.141
G1 X72.037Y78.957
G1 X72.065Y78.768
G1 X72.037Y78.579
G1 X71.964Y78.395
G1 X71.854Y78.221
G1 X71.717Y78.062
G1 X71.558Y77.925
G1 X71.384Y77.815
G1 X71.2Y77.742
G1 X71.011Y77.714
G1 X70.823Y77.742
G1 X70.638Y77.815
G1 X70.464Y77.925
G1 X70.305Y78.062
G1 X70.168Y78.221
G1 X70.058Y78.395
G1 X69.985Y78.58
G1 X69.958Y78.769
G1 X69.986Y78.947
G1 X70.06Y79.135
G1 X70.167Y79.319
G1 X70.299Y79.479
G1 X70.46Y79.612
G1 X70.644Y79.719
G0 X70.6Y79.809
G1 X70.806Y79.89
G1 X71.01Y79.923
G1 X71.226Y79.891
G1 X71.43Y79.81
G1 X71.618Y79.692
G1 X71.788Y79.545
G1 X71.935Y79.375
G1 X72.053Y79.186
G1 X72.135Y78.983
G1 X72.166Y78.768
G1 X72.135Y78.553
G1 X72.053Y78.349
G1 X71.935Y78.161
G1 X71.788Y77.991
G1 X71.618Y77.844
G1 X71.429Y77.726
G1 X71.226Y77.645
G1 X71.011Y77.613
G1 X70.797Y77.645
G1 X70.593Y77.726
G1 X70.404Y77.844
G1 X70.234Y77.991
G1 X70.087Y78.161
G1 X69.969Y78.349
G1 X69.888Y78.553
G1 X69.856Y78.769
G1 X69.889Y78.973
G1 X69.97Y79.179
G1 X70.085Y79.376
G1 X70.228Y79.551
G1 X70.403Y79.694
G1 X70.6Y79.809
G0 X55.872Y78.781
G1 Y78.815
G1 X55.846Y78.847
G1 X55.817Y78.87
G1 X55.792
G1 X55.761
G1 X55.697Y78.839
G1 X55.676Y78.818
G1 X55.664Y78.798
G1 X55.688Y78.737
G1 X55.781Y78.654
G1 X55.818Y78.678
G1 X55.864Y78.745
G1 Y78.781
G0 X55.974
G1 X55.961Y78.851
G1 X55.922Y78.914
G1 X55.865Y78.959
G1 X55.802Y78.98
G1 X55.73
G1 X55.635Y78.919
G1 X55.596Y78.879
G1 X55.572Y78.838
G1 X55.562Y78.802
G1 Y78.779
G1 X55.605Y78.678
G1 X55.725Y78.57
G1 X55.781Y78.543
G1 X55.798
G1 X55.824
G1 X55.893Y78.61
G1 X55.958Y78.704
G1 X55.974Y78.78
G0 X56.076
G1 X56.055Y78.887
G1 X55.998Y78.981
G1 X55.913Y79.05
G1 X55.813Y79.082
G1 X55.699Y79.07
G1 X55.573Y78.999
G1 X55.516Y78.94
G1 X55.479Y78.877
G1 X55.462Y78.815
G1 Y78.757
G1 X55.522Y78.618
G1 X55.668Y78.486
G1 X55.755Y78.444
G1 X55.813
G1 X55.878Y78.467
G1 X55.967Y78.542
G1 X56.052Y78.664
G1 X56.076Y78.779
G0 X56.178
G1 X56.15Y78.924
G1 X56.075Y79.048
G1 X55.962Y79.139
G1 X55.823Y79.183
G1 X55.669Y79.167
G1 X55.512Y79.079
G1 X55.436Y79.001
G1 X55.386Y78.917
G1 X55.361Y78.827
G1 Y78.737
G1 X55.439Y78.559
G1 X55.612Y78.403
G1 X55.728Y78.346
G1 X55.83
G1 X55.93Y78.38
G1 X56.042Y78.474
G1 X56.146Y78.624
G1 X56.178Y78.778
G0 X56.701Y78.92
G1 X56.725Y78.768
G1 X56.701Y78.615
G1 X56.634Y78.444
G1 X56.535Y78.274
G1 X56.414Y78.127
G1 X56.267Y78.006
G1 X56.097Y77.907
G1 X55.925Y77.84
G1 X55.773Y77.815
G1 X55.621Y77.84
G1 X55.449Y77.907
G1 X55.279Y78.006
G1 X55.132Y78.127
G1 X55.011Y78.274
G1 X54.912Y78.444
G1 X54.845Y78.615
G1 X54.821Y78.768
G1 X54.845Y78.92
G1 X54.912Y79.092
G1 X55.011Y79.261
G1 X55.132Y79.408
G1 X55.279Y79.53
G1 X55.449Y79.629
G1 X55.621Y79.696
G1 X55.773Y79.72
G1 X55.925Y79.696
G1 X56.097Y79.629
G1 X56.267Y79.53
G1 X56.414Y79.408
G1 X56.535Y79.261
G1 X56.634Y79.092
G1 X56.701Y78.92
G0 X56.798Y78.947
G1 X56.827Y78.768
G1 X56.798Y78.589
G1 X56.724Y78.4
G1 X56.617Y78.217
G1 X56.485Y78.056
G1 X56.324Y77.924
G1 X56.141Y77.817
G1 X55.952Y77.743
G1 X55.773Y77.714
G1 X55.594Y77.743
G1 X55.406Y77.817
G1 X55.222Y77.924
G1 X55.061Y78.056
G1 X54.929Y78.217
G1 X54.822Y78.4
G1 X54.748Y78.589
G1 X54.719Y78.768
G1 X54.748Y78.947
G1 X54.822Y79.135
G1 X54.929Y79.319
G1 X55.061Y79.479
G1 X55.222Y79.612
G1 X55.406Y79.719
G1 X55.594Y79.792
G1 X55.773Y79.822
G1 X55.952Y79.792
G1 X56.141Y79.719
G1 X56.324Y79.612
G1 X56.485Y79.479
G1 X56.617Y79.319
G1 X56.724Y79.135
G1 X56.798Y78.947
G0 X56.895Y78.973
G1 X56.928Y78.768
G1 X56.895Y78.563
G1 X56.814Y78.356
G1 X56.699Y78.159
G1 X56.556Y77.985
G1 X56.382Y77.842
G1 X56.184Y77.726
G1 X55.978Y77.646
G1 X55.773Y77.613
G1 X55.568Y77.646
G1 X55.362Y77.726
G1 X55.165Y77.842
G1 X54.99Y77.985
G1 X54.847Y78.159
G1 X54.731Y78.356
G1 X54.651Y78.563
G1 X54.618Y78.768
G1 X54.651Y78.973
G1 X54.731Y79.179
G1 X54.847Y79.376
G1 X54.99Y79.551
G1 X55.165Y79.694
G1 X55.362Y79.809
G1 X55.568Y79.89
G1 X55.773Y79.923
G1 X55.978Y79.89
G1 X56.184Y79.809
G1 X56.382Y79.694
G1 X56.556Y79.551
G1 X56.699Y79.376
G1 X56.814Y79.179
G1 X56.895Y78.973
G0 X55.818Y76.33
G1 X55.791
G1 X55.761
G1 X55.697Y76.3
G1 X55.676Y76.278
G1 X55.665Y76.259
G1 X55.689Y76.198
G1 X55.781Y76.114
G1 X55.818Y76.138
G1 X55.864Y76.205
G1 Y76.241
G1 Y76.275
G1 X55.846Y76.308
G1 X55.818Y76.33
G0 X55.865Y76.42
G1 X55.802Y76.44
G1 X55.73
G1 X55.635Y76.38
G1 X55.596Y76.34
G1 X55.572Y76.298
G1 X55.562Y76.262
G1 Y76.239
G1 X55.605Y76.139
G1 X55.725Y76.031
G1 X55.781Y76.003
G1 X55.798
G1 X55.825Y76.013
G1 X55.893Y76.07
G1 X55.958Y76.165
G1 X55.974Y76.24
G1 X55.96Y76.311
G1 X55.922Y76.375
G1 X55.865Y76.42
G0 X55.914Y76.51
G1 X55.812Y76.542
G1 X55.699Y76.53
G1 X55.573Y76.459
G1 X55.516Y76.4
G1 X55.479Y76.338
G1 X55.462Y76.275
G1 Y76.218
G1 X55.522Y76.079
G1 X55.668Y75.947
G1 X55.755Y75.905
G1 X55.813
G1 X55.877Y75.927
G1 X55.967Y76.003
G1 X56.052Y76.125
G1 X56.076Y76.239
G1 X56.055Y76.348
G1 X55.999Y76.441
G1 X55.914Y76.51
G0 X55.962Y76.599
G1 X55.823Y76.643
G1 X55.669Y76.628
G1 X55.512Y76.54
G1 X55.436Y76.462
G1 X55.386Y76.377
G1 X55.361Y76.288
G1 Y76.197
G1 X55.439Y76.019
G1 X55.612Y75.863
G1 X55.728Y75.807
G1 X55.83
G1 X55.93Y75.84
G1 X56.042Y75.935
G1 X56.146Y76.084
G1 X56.178Y76.238
G1 X56.15Y76.384
G1 X56.075Y76.509
G1 X55.962Y76.599
G0 X56.267Y76.99
G1 X56.414Y76.869
G1 X56.535Y76.722
G1 X56.634Y76.552
G1 X56.701Y76.381
G1 X56.725Y76.228
G1 X56.701Y76.076
G1 X56.634Y75.904
G1 X56.535Y75.734
G1 X56.414Y75.587
G1 X56.267Y75.467
G1 X56.097Y75.367
G1 X55.925Y75.3
G1 X55.773Y75.276
G1 X55.621Y75.3
G1 X55.449Y75.367
G1 X55.279Y75.467
G1 X55.132Y75.587
G1 X55.011Y75.734
G1 X54.912Y75.904
G1 X54.845Y76.076
G1 X54.821Y76.228
G1 X54.845Y76.381
G1 X54.912Y76.552
G1 X55.011Y76.722
G1 X55.132Y76.869
G1 X55.279Y76.99
G1 X55.449Y77.089
G1 X55.621Y77.156
G1 X55.773Y77.181
G1 X55.925Y77.156
G1 X56.097Y77.089
G1 X56.267Y76.99
G0 X56.324Y77.072
G1 X56.485Y76.94
G1 X56.617Y76.779
G1 X56.724Y76.596
G1 X56.798Y76.407
G1 X56.827Y76.228
G1 X56.798Y76.05
G1 X56.724Y75.861
G1 X56.617Y75.677
G1 X56.485Y75.516
G1 X56.324Y75.384
G1 X56.141Y75.277
G1 X55.952Y75.203
G1 X55.773Y75.175
G1 X55.594Y75.203
G1 X55.406Y75.277
G1 X55.222Y75.384
G1 X55.061Y75.516
G1 X54.929Y75.677
G1 X54.822Y75.861
G1 X54.748Y76.05
G1 X54.719Y76.228
G1 X54.748Y76.407
G1 X54.822Y76.596
G1 X54.929Y76.779
G1 X55.061Y76.94
G1 X55.222Y77.072
G1 X55.406Y77.179
G1 X55.594Y77.253
G1 X55.773Y77.282
G1 X55.952Y77.253
G1 X56.141Y77.179
G1 X56.324Y77.072
G0 X56.382Y77.155
G1 X56.556Y77.011
G1 X56.699Y76.837
G1 X56.814Y76.639
G1 X56.895Y76.434
G1 X56.928Y76.228
G1 X56.895Y76.023
G1 X56.814Y75.817
G1 X56.699Y75.62
G1 X56.556Y75.445
G1 X56.382Y75.302
G1 X56.184Y75.187
G1 X55.978Y75.106
G1 X55.773Y75.073
G1 X55.568Y75.106
G1 X55.362Y75.187
G1 X55.165Y75.302
G1 X54.99Y75.445
G1 X54.847Y75.62
G1 X54.731Y75.817
G1 X54.651Y76.023
G1 X54.618Y76.228
G1 X54.651Y76.434
G1 X54.731Y76.639
G1 X54.847Y76.837
G1 X54.99Y77.011
G1 X55.165Y77.155
G1 X55.362Y77.27
G1 X55.568Y77.35
G1 X55.773Y77.383
G1 X55.978Y77.35
G1 X56.184Y77.27
G1 X56.382Y77.155
G0 X70.902Y76.255
G1 X70.927Y76.198
G1 X71.02Y76.114
G1 X71.056Y76.138
G1 X71.102Y76.205
G1 Y76.241
G1 Y76.275
G1 X71.084Y76.308
G1 X71.056Y76.33
G1 X71.029
G1 X70.999
G1 X70.934Y76.299
G1 X70.915Y76.279
G1 X70.903Y76.259
G0 X70.81Y76.298
G1 X70.8Y76.261
G1 Y76.239
G1 X70.843Y76.138
G1 X70.963Y76.031
G1 X71.019Y76.003
G1 X71.036
G1 X71.063Y76.013
G1 X71.131Y76.07
G1 X71.196Y76.165
G1 X71.212Y76.24
G1 X71.198Y76.311
G1 X71.16Y76.375
G1 X71.104Y76.42
G1 X71.04Y76.44
G1 X70.969
G1 X70.873Y76.379
G1 X70.834Y76.34
G1 X70.81Y76.298
G0 X70.717Y76.337
G1 X70.7Y76.275
G1 Y76.218
G1 X70.76Y76.079
G1 X70.906Y75.947
G1 X70.993Y75.905
G1 X71.052
G1 X71.115Y75.927
G1 X71.205Y76.003
G1 X71.29Y76.125
G1 X71.314Y76.239
G1 X71.293Y76.348
G1 X71.237Y76.441
G1 X71.152Y76.51
G1 X71.05Y76.542
G1 X70.938Y76.53
G1 X70.812Y76.46
G1 X70.754Y76.401
G1 X70.717Y76.337
G0 X70.624Y76.377
G1 X70.6Y76.288
G1 Y76.197
G1 X70.677Y76.019
G1 X70.85Y75.863
G1 X70.966Y75.807
G1 X71.068
G1 X71.168Y75.84
G1 X71.28Y75.935
G1 X71.384Y76.084
G1 X71.416Y76.238
G1 X71.388Y76.384
G1 X71.313Y76.509
G1 X71.2Y76.599
G1 X71.061Y76.643
G1 X70.907Y76.628
G1 X70.75Y76.54
G1 X70.674Y76.462
G1 X70.624Y76.377
G0 X70.15Y76.552
G1 X70.25Y76.722
G1 X70.37Y76.869
G1 X70.517Y76.99
G1 X70.687Y77.089
G1 X70.859Y77.156
G1 X71.011Y77.181
G1 X71.174Y77.157
G1 X71.339Y77.091
G1 X71.499Y76.991
G1 X71.646Y76.863
G1 X71.774Y76.716
G1 X71.874Y76.556
G1 X71.94Y76.391
G1 X71.964Y76.228
G1 X71.94Y76.066
G1 X71.874Y75.901
G1 X71.774Y75.741
G1 X71.646Y75.593
G1 X71.499Y75.466
G1 X71.339Y75.365
G1 X71.174Y75.299
G1 X71.011Y75.276
G1 X70.849Y75.299
G1 X70.684Y75.365
G1 X70.524Y75.466
G1 X70.376Y75.593
G1 X70.249Y75.741
G1 X70.148Y75.901
G1 X70.082Y76.066
G1 X70.059Y76.228
G1 X70.083Y76.381
G1 X70.15Y76.552
G0 X70.06Y76.596
G1 X70.167Y76.779
G1 X70.299Y76.94
G1 X70.46Y77.072
G1 X70.644Y77.179
G1 X70.833Y77.253
G1 X71.01Y77.282
G1 X71.2Y77.254
G1 X71.384Y77.181
G1 X71.558Y77.072
G1 X71.717Y76.934
G1 X71.854Y76.775
G1 X71.964Y76.601
G1 X72.037Y76.417
G1 X72.065Y76.228
G1 X72.037Y76.04
G1 X71.964Y75.855
G1 X71.854Y75.681
G1 X71.717Y75.522
G1 X71.558Y75.385
G1 X71.384Y75.275
G1 X71.199Y75.202
G1 X71.011Y75.175
G1 X70.823Y75.202
G1 X70.638Y75.275
G1 X70.464Y75.385
G1 X70.305Y75.522
G1 X70.168Y75.681
G1 X70.058Y75.855
G1 X69.985Y76.04
G1 X69.958Y76.229
G1 X69.986Y76.407
G1 X70.06Y76.596
G0 X69.97Y76.639
G1 X70.085Y76.837
G1 X70.228Y77.011
G1 X70.403Y77.155
G1 X70.6Y77.27
G1 X70.806Y77.35
G1 X71.01Y77.383
G1 X71.226Y77.352
G1 X71.429Y77.271
G1 X71.618Y77.152
G1 X71.788Y77.005
G1 X71.935Y76.835
G1 X72.053Y76.647
G1 X72.135Y76.443
G1 X72.166Y76.228
G1 X72.135Y76.014
G1 X72.053Y75.81
G1 X71.935Y75.621
G1 X71.788Y75.451
G1 X71.618Y75.304
G1 X71.43Y75.186
G1 X71.226Y75.105
G1 X71.011Y75.074
G1 X70.797Y75.105
G1 X70.593Y75.186
G1 X70.404Y75.304
G1 X70.234Y75.451
G1 X70.087Y75.621
G1 X69.969Y75.81
G1 X69.888Y76.014
G1 X69.856Y76.23
G1 X69.889Y76.434
G1 X69.97Y76.639
G0 X68.515Y73.791
G1 X68.489
G1 X68.46
G1 X68.395Y73.76
G1 X68.374Y73.738
G1 X68.363Y73.719
G1 X68.386Y73.659
G1 X68.48Y73.574
G1 X68.516Y73.599
G1 X68.563Y73.666
G1 Y73.701
G1 Y73.735
G1 X68.544Y73.768
G1 X68.515Y73.791
G0 X68.564Y73.88
G1 X68.5Y73.901
G1 X68.429
G1 X68.334Y73.84
G1 X68.294Y73.799
G1 X68.27Y73.758
G1 Y73.722
G1 Y73.699
G1 X68.304Y73.598
G1 X68.423Y73.491
G1 X68.479Y73.463
G1 X68.496
G1 X68.523Y73.473
G1 X68.591Y73.531
G1 X68.656Y73.625
G1 X68.672Y73.701
G1 X68.659Y73.771
G1 X68.62Y73.835
G1 X68.564Y73.88
G0 X68.612Y73.97
G1 X68.51Y74.002
G1 X68.399Y73.991
G1 X68.272Y73.92
G1 X68.214Y73.861
G1 X68.177Y73.798
G1 X68.16Y73.736
G1 Y73.678
G1 X68.22Y73.539
G1 X68.367Y73.407
G1 X68.453Y73.365
G1 X68.511
G1 X68.576Y73.387
G1 X68.666Y73.463
G1 X68.75Y73.585
G1 X68.774Y73.699
G1 X68.754Y73.808
G1 X68.697Y73.902
G1 X68.612Y73.97
G0 X68.66Y74.06
G1 X68.521Y74.104
G1 X68.367Y74.088
G1 X68.21Y74
G1 X68.134Y73.922
G1 X68.084Y73.837
G1 X68.06Y73.748
G1 Y73.657
G1 X68.137Y73.479
G1 X68.31Y73.323
G1 X68.426Y73.267
G1 X68.528
G1 X68.629Y73.301
G1 X68.74Y73.395
G1 X68.844Y73.544
G1 X68.876Y73.698
G1 X68.849Y73.844
G1 X68.773Y73.969
G1 X68.66Y74.06
G0 X69.358
G1 Y73.688
G1 Y73.414
G1 Y73.168
G1 X69.341Y72.947
G1 X69.323Y72.752
G1 X69.269Y72.43
G1 X69.183Y72.191
G1 X69.059Y72.024
G1 X68.893Y71.919
G1 X68.677Y71.863
G1 X68.408Y71.847
G1 X68.148Y71.861
G1 X67.943Y71.91
G1 X67.787Y72.009
G1 X67.673Y72.171
G1 X67.596Y72.408
G1 X67.549Y72.735
G1 X67.535Y72.936
G1 Y73.165
G1 X67.521Y73.422
G1 Y73.71
G1 Y74.127
G1 Y74.458
G1 X67.54Y74.716
G1 X67.562Y74.913
G1 X67.594Y75.061
G1 X67.639Y75.173
G1 X67.698Y75.262
G1 X67.773Y75.339
G1 X67.904Y75.497
G1 X67.981Y75.722
G1 X68.004Y75.881
G1 X68.018Y76.082
G1 Y76.333
G1 Y76.642
G1 Y76.966
G1 Y77.226
G1 X68.001Y77.434
G1 X67.975Y77.601
G1 X67.879Y77.859
G1 X67.709Y78.093
G1 X67.573Y78.277
G1 X67.477Y78.455
G1 X67.422Y78.629
G1 X67.408Y78.8
G1 X67.435Y78.969
G1 X67.503Y79.137
G1 X67.613Y79.306
G1 X67.763Y79.476
G1 X67.94Y79.628
G1 X68.125Y79.746
G1 X68.307Y79.821
G1 X68.471Y79.847
G1 X68.642Y79.819
G1 X68.823Y79.741
G1 X69.003Y79.624
G1 X69.174Y79.477
G1 X69.324Y79.31
G1 X69.443Y79.133
G1 X69.522Y78.955
G1 X69.551Y78.787
G1 X69.526Y78.634
G1 X69.458Y78.452
G1 X69.357Y78.264
G1 X69.063Y77.857
G1 X68.968Y77.596
G1 X68.941Y77.424
G1 X68.925Y77.209
G1 Y76.939
G1 Y76.601
G1 Y76.297
G1 Y76.043
G1 X68.94Y75.834
G1 X68.961Y75.663
G1 X69.029Y75.411
G1 X69.138Y75.241
G1 X69.2Y75.16
G1 X69.249Y75.064
G1 X69.288Y74.943
G1 X69.317Y74.789
G1 X69.338Y74.595
G1 X69.351Y74.353
G1 Y74.053
G0 X69.458
G1 Y73.688
G1 Y73.413
G1 Y73.164
G1 X69.44Y72.94
G1 X69.423Y72.739
G1 X69.366Y72.404
G1 X69.272Y72.143
G1 X69.128Y71.95
G1 X68.933Y71.826
G1 X68.693Y71.764
G1 X68.408Y71.747
G1 X68.133Y71.761
G1 X67.903Y71.817
G1 X67.716Y71.935
G1 X67.583Y72.125
G1 X67.499Y72.385
G1 X67.449Y72.724
G1 X67.435Y72.931
G1 Y73.162
G1 X67.42Y73.421
G1 Y73.71
G1 Y74.129
G1 Y74.462
G1 X67.441Y74.724
G1 X67.463Y74.929
G1 X67.498Y75.09
G1 X67.55Y75.22
G1 X67.619Y75.325
G1 X67.697Y75.404
G1 X67.815Y75.547
G1 X67.884Y75.746
G1 X67.904Y75.888
G1 X67.918Y76.088
G1 Y76.333
G1 Y76.642
G1 Y76.965
G1 Y77.219
G1 X67.902Y77.422
G1 X67.878Y77.575
G1 X67.79Y77.811
G1 X67.629Y78.033
G1 X67.488Y78.223
G1 X67.384Y78.416
G1 X67.323Y78.61
G1 X67.307Y78.804
G1 X67.338Y78.996
G1 X67.414Y79.184
G1 X67.533Y79.367
G1 X67.693Y79.547
G1 X67.88Y79.709
G1 X68.079Y79.835
G1 X68.279Y79.918
G1 X68.472Y79.948
G1 X68.671Y79.916
G1 X68.87Y79.83
G1 X69.064Y79.704
G1 X69.244Y79.549
G1 X69.403Y79.371
G1 X69.531Y79.181
G1 X69.619Y78.984
G1 X69.652Y78.788
G1 X69.623Y78.608
G1 X69.549Y78.411
G1 X69.442Y78.211
G1 X69.153Y77.81
G1 X69.065Y77.57
G1 X69.041Y77.414
G1 X69.025Y77.202
G1 Y76.939
G1 Y76.602
G1 Y76.297
G1 Y76.05
G1 X69.04Y75.84
G1 X69.059Y75.682
G1 X69.121Y75.452
G1 X69.219Y75.299
G1 X69.285Y75.214
G1 X69.342Y75.102
G1 X69.385Y74.967
G1 X69.416Y74.804
G1 X69.438Y74.604
G1 X69.451Y74.357
G1 Y74.055
G0 X69.558
G1 Y73.688
G1 Y73.411
G1 Y73.16
G1 X69.54Y72.933
G1 X69.522Y72.726
G1 X69.463Y72.379
G1 X69.361Y72.095
G1 X69.198Y71.875
G1 X68.973Y71.733
G1 X68.708Y71.665
G1 X68.409Y71.647
G1 X68.119Y71.662
G1 X67.864Y71.724
G1 X67.646Y71.861
G1 X67.492Y72.08
G1 X67.401Y72.363
G1 X67.35Y72.714
G1 X67.335Y72.925
G1 Y73.159
G1 X67.321Y73.42
G1 Y73.71
G1 Y74.13
G1 Y74.466
G1 X67.341Y74.732
G1 X67.364Y74.945
G1 X67.402Y75.12
G1 X67.461Y75.266
G1 X67.541Y75.388
G1 X67.626Y75.475
G1 X67.726Y75.596
G1 X67.786Y75.769
G1 X67.805Y75.903
G1 X67.818Y76.087
G1 Y76.338
G1 Y76.641
G1 Y76.96
G1 Y77.216
G1 X67.803Y77.41
G1 X67.78Y77.55
G1 X67.701Y77.763
G1 X67.549Y77.973
G1 X67.403Y78.169
G1 X67.292Y78.377
G1 X67.224Y78.591
G1 X67.206Y78.808
G1 X67.241Y79.023
G1 X67.325Y79.23
G1 X67.453Y79.427
G1 X67.622Y79.619
G1 X67.82Y79.79
G1 X68.033Y79.924
G1 X68.252Y80.015
G1 X68.472Y80.05
G1 X68.699Y80.012
G1 X68.918Y79.918
G1 X69.124Y79.784
G1 X69.314Y79.62
G1 X69.482Y79.433
G1 X69.619Y79.23
G1 X69.715Y79.013
G1 X69.754Y78.788
G1 X69.72Y78.583
G1 X69.64Y78.37
G1 X69.527Y78.158
G1 X69.241Y77.763
G1 X69.162Y77.547
G1 X69.14Y77.4
G1 X69.125Y77.199
G1 Y76.934
G1 Y76.603
G1 Y76.302
G1 Y76.049
G1 X69.139Y75.855
G1 X69.158Y75.701
G1 X69.214Y75.493
G1 X69.303Y75.354
G1 X69.369Y75.267
G1 X69.435Y75.14
G1 X69.482Y74.992
G1 X69.515Y74.819
G1 X69.537Y74.612
G1 X69.551Y74.361
G1 Y74.056
G0 X70.902Y73.716
G1 X70.926Y73.658
G1 X71.02Y73.574
G1 X71.056Y73.599
G1 X71.102Y73.665
G1 Y73.701
G1 Y73.735
G1 X71.084Y73.768
G1 X71.055Y73.791
G1 X71.029
G1 X71
G1 X70.934Y73.759
G1 X70.914Y73.739
G1 X70.903Y73.719
G0 X70.81Y73.758
G1 X70.8Y73.722
G1 Y73.7
G1 X70.844Y73.598
G1 X70.963Y73.491
G1 X71.019Y73.463
G1 X71.036
G1 X71.062Y73.473
G1 X71.131Y73.531
G1 X71.196Y73.625
G1 X71.212Y73.701
G1 X71.198Y73.771
G1 X71.16Y73.835
G1 X71.104Y73.88
G1 X71.04Y73.901
G1 X70.969
G1 X70.873Y73.839
G1 X70.834Y73.8
G1 X70.81Y73.758
G0 X70.717Y73.798
G1 X70.7Y73.735
G1 Y73.678
G1 X70.76Y73.539
G1 X70.906Y73.407
G1 X70.993Y73.365
G1 X71.051
G1 X71.116Y73.387
G1 X71.205Y73.463
G1 X71.29Y73.585
G1 X71.314Y73.699
G1 X71.293Y73.808
G1 X71.237Y73.902
G1 X71.151Y73.97
G1 X71.05Y74.002
G1 X70.938Y73.991
G1 X70.812Y73.92
G1 X70.754Y73.861
G1 X70.717Y73.798
G0 X70.624Y73.837
G1 X70.6Y73.748
G1 Y73.657
G1 X70.677Y73.479
G1 X70.85Y73.323
G1 X70.966Y73.267
G1 X71.068
G1 X71.168Y73.301
G1 X71.28Y73.395
G1 X71.384Y73.544
G1 X71.416Y73.698
G1 X71.388Y73.844
G1 X71.313Y73.969
G1 X71.2Y74.06
G1 X71.061Y74.104
G1 X70.907Y74.088
G1 X70.75Y74
G1 X70.674Y73.922
G1 X70.624Y73.837
G0 X70.15Y74.012
G1 X70.25Y74.182
G1 X70.37Y74.329
G1 X70.517Y74.45
G1 X70.687Y74.549
G1 X70.859Y74.616
G1 X71.011Y74.641
G1 X71.174Y74.617
G1 X71.339Y74.552
G1 X71.499Y74.451
G1 X71.646Y74.323
G1 X71.774Y74.176
G1 X71.874Y74.016
G1 X71.94Y73.851
G1 X71.964Y73.688
G1 X71.94Y73.526
G1 X71.874Y73.361
G1 X71.774Y73.201
G1 X71.646Y73.053
G1 X71.499Y72.926
G1 X71.339Y72.825
G1 X71.174Y72.76
G1 X71.011Y72.736
G1 X70.849Y72.76
G1 X70.684Y72.825
G1 X70.524Y72.926
G1 X70.376Y73.053
G1 X70.249Y73.201
G1 X70.148Y73.361
G1 X70.082Y73.526
G1 X70.059Y73.688
G1 X70.083Y73.841
G1 X70.15Y74.012
G0 X70.06Y74.056
G1 X70.167Y74.24
G1 X70.299Y74.4
G1 X70.46Y74.532
G1 X70.644Y74.64
G1 X70.833Y74.713
G1 X71.01Y74.742
G1 X71.2Y74.715
G1 X71.384Y74.641
G1 X71.558Y74.532
G1 X71.717Y74.394
G1 X71.854Y74.235
G1 X71.964Y74.061
G1 X72.037Y73.877
G1 X72.065Y73.688
G1 X72.037Y73.5
G1 X71.964Y73.316
G1 X71.854Y73.142
G1 X71.717Y72.983
G1 X71.558Y72.845
G1 X71.384Y72.736
G1 X71.2Y72.663
G1 X71.011Y72.635
G1 X70.823Y72.663
G1 X70.638Y72.736
G1 X70.464Y72.845
G1 X70.305Y72.983
G1 X70.168Y73.142
G1 X70.058Y73.316
G1 X69.985Y73.5
G1 X69.958Y73.689
G1 X69.986Y73.867
G1 X70.06Y74.056
G0 X69.97Y74.1
G1 X70.085Y74.297
G1 X70.228Y74.471
G1 X70.403Y74.615
G1 X70.6Y74.73
G1 X70.806Y74.81
G1 X71.01Y74.843
G1 X71.226Y74.812
G1 X71.43Y74.73
G1 X71.618Y74.612
G1 X71.788Y74.465
G1 X71.935Y74.295
G1 X72.053Y74.107
G1 X72.135Y73.903
G1 X72.166Y73.688
G1 X72.135Y73.474
G1 X72.053Y73.27
G1 X71.935Y73.082
