(1001)
(Machine)
(  model: MaCNCek)
(  description: Finland AUDI Engeneering)
(T1  D=1 CR=0 - ZMIN=-2.122 - flat end mill)
G90 G94
G17
G21
G28 G91 Z0
G90

(Drill1)
T1
S5000 M3
G54
M8
G0 X14.935 Y35.454
Z15
Z5
Z4.765
G1 Z-2.07 F80
G0 Z5
X16.713 Y38.121
Z4.73
G1 Z-2.07 F80
G0 Z5
X18.745 Y40.534
Z4.73
G1 Z-2.07 F80
G0 Z5
X34.366 Y44.598
Z4.73
G1 Z-2.07 F80
G0 Z5
Y42.058
Z4.73
G1 Z-2.07 F80
G0 Z5
Y39.518
Z4.73
G1 Z-2.07 F80
G0 Z5
X39.455 Y37.003
Z4.73
G1 Z-2.07 F80
G0 Z5
Y39.543
Z4.73
G1 Z-2.07 F80
G0 Z5
Y42.083
Z4.73
G1 Z-2.07 F80
G0 Z5
Y44.623
Z4.73
G1 Z-2.07 F80
G0 Z5
Y47.163
Z4.73
G1 Z-2.07 F80
G0 Z5
Y49.703
Z4.73
G1 Z-2.07 F80
G0 Z5
Y52.243
Z4.73
G1 Z-2.07 F80
G0 Z5
Y54.783
Z4.73
G1 Z-2.07 F80
G0 Z5
Y57.323
Z4.73
G1 Z-2.07 F80
G0 Z5
Y59.863
Z4.73
G1 Z-2.07 F80
G0 Z5
X13.5 Y72.484
Z4.73
G1 Z-2.07 F80
G0 Z5
X14.3 Y59.203
Z4.73
G1 Z-2.07 F80
G0 Z5
X13.494 Y62.484
Z4.73
G1 Z-2.07 F80
G0 Z5
X15.626 Y63.864
Z4.73
G1 Z-2.07 F80
G0 Z5
X17.759 Y65.244
Z4.73
G1 Z-2.07 F80
G0 Z5
X19.892 Y66.623
Z4.73
G1 Z-2.07 F80
G0 Z5
X22.024 Y68.003
Z4.73
G1 Z-2.07 F80
G0 Z5
X24.215 Y59.863
Z4.73
G1 Z-2.07 F80
G0 Z5
Y57.323
Z4.73
G1 Z-2.07 F80
G0 Z5
Y54.783
Z4.73
G1 Z-2.07 F80
G0 Z5
Y52.243
Z4.73
G1 Z-2.07 F80
G0 Z5
X26.918 Y52.262
Z4.73
G1 Z-2.07 F80
G0 Z5
X24.215 Y49.703
Z4.765
G1 Z-0.57 F80
G0 Z5
Y47.163
Z4.73
G1 Z-2.07 F80
G0 Z5
Y44.623
Z4.73
G1 Z-2.07 F80
G0 Z5
Y42.083
Z4.73
G1 Z-2.07 F80
G0 Z5
X26.746 Y39.518
Z4.73
G1 Z-2.07 F80
G0 Z5
X24.215 Y39.543
Z4.73
G1 Z-2.07 F80
G0 Z5
Y37.003
Z4.73
G1 Z-2.07 F80
G0 Z5
Y31.923
Z4.73
G1 Z-2.07 F80
G0 Z5
Y34.463
Z4.73
G1 Z-2.07 F80
G0 Z5
X26.746 Y34.438
Z4.73
G1 Z-2.07 F80
G0 Z5
X29.286
Z4.73
G1 Z-2.07 F80
G0 Z5
X31.826
Z4.73
G1 Z-2.07 F80
G0 Z5
X34.366
Z4.73
G1 Z-2.07 F80
G0 Z5
X36.906
Z4.73
G1 Z-2.07 F80
G0 Z5
X39.455 Y34.463
Z4.73
G1 Z-2.07 F80
G0 Z5
Y31.923
Z4.73
G1 Z-2.07 F80
G0 Z5
X36.906 Y29.358
Z4.73
G1 Z-2.07 F80
G0 Z5
X41.45 Y12.594
Z4.73
G1 Z-2.07 F80
G0 Z5
X45.752
Z4.73
G1 Z-2.07 F80
G0 Z5
Y10.054
Z4.73
G1 Z-2.07 F80
G0 Z5
Y7.514
Z4.73
G1 Z-2.07 F80
G0 Z5
Y4.974
Z4.73
G1 Z-2.07 F80
G0 Z5
X39.065
Z4.73
G1 Z-2.07 F80
G0 Z5
X37.033 Y7.514
Z4.73
G1 Z-2.07 F80
G0 Z5
X34.747 Y10.054
Z4.73
G1 Z-2.07 F80
G0 Z5
Z15
M9
(When using Fusion 360 for Personal Use, the feedrate of)
(rapid moves is reduced to match the feedrate of cutting)
(moves, which can increase machining time. Unrestricted rapid)
(moves are available with a Fusion 360 Subscription.)

(2D Contour1)
X13.848 Y2.4
G1 Z15 F500
Z5
Z1 F80
Z-2.023
X13.855 Z-2.061 F500
X13.877 Z-2.093
X13.91 Z-2.115
X13.948 Z-2.122
X14.048
X14.086 Y2.408
X14.119 Y2.429
X14.14 Y2.462
X14.148 Y2.5
Y19.288
G3 X11.003 Y30.762 I-22.5 J0
G2 X9.5 Y52.246 I20.645 J12.238
G3 X6.574 Y61.482 I-6.921 J2.889
G2 X20.426 Y83.485 I6.926 J11.002
X26.442 Y73.711 I-6.926 J-11.002
G3 X33.37 Y66.938 I7.466 J0.708
G2 X52.293 Y30.762 I-1.722 J-23.938
G3 X49.148 Y19.288 I19.355 J-11.474
G1 Y2.5
G2 X48.648 Y2 I-0.5 J0
G3 X47.648 Y1 I0 J-1
G2 X47.148 Y0.5 I-0.5 J0
G1 X16.148
G2 X15.648 Y1 I0 J0.5
G3 X14.648 Y2 I-1 J0
G2 X14.148 Y2.5 I0 J0.5
G1 X14.14 Y2.538
X14.119 Y2.571
X14.086 Y2.592
X14.048 Y2.6
X13.948
X13.91 Z-2.115
X13.877 Z-2.093
X13.855 Z-2.061
X13.848 Z-2.023
Z15
G28 G91 Z0
G90
G28 G91 X0 Y0
G90
M5
M30
