(1001)
(T1  D=1 CR=0 - ZMIN=-2.9 - flat end mill)
G90 G94
G17
G21
G28 G91 Z0
G90

(Drill1)
T1
S5000 M3
G54
M8
G0 X42.875 Y6.244
Z15
Z5
Z4
G1 Z-2.9 F80
G0 Z5
Y8.784
Z4
G1 Z-2.9 F80
G0 Z5
Y11.324
Z4
G1 Z-2.9 F80
G0 Z5
Y13.864
Z4
G1 Z-2.9 F80
G0 Z5
Y16.404
Z4
G1 Z-2.9 F80
G0 Z5
Y29.104
Z4
G1 Z-2.9 F80
G0 Z5
X49.108 Y30.423
Z4
G1 Z-2.9 F80
G0 Z5
X43.002 Y49.805
Z4
G1 Z-2.9 F80
G0 Z5
Y47.265
Z4
G1 Z-2.9 F80
G0 Z5
X42.875 Y44.598
Z4
G1 Z-2.9 F80
G0 Z5
X36.144 Y37.105
Z4
G1 Z-2.9 F80
G0 Z5
Y34.692
Z4
G1 Z-2.9 F80
G0 Z5
Y32.025
Z4.035
G1 Z-1.4 F80
G0 Z5
X39.287 Y32.007
Z4
G1 Z-2.9 F80
G0 Z5
Y34.547
Z4
G1 Z-2.9 F80
G0 Z5
Y37.087
Z4
G1 Z-2.9 F80
G0 Z5
Y39.627
Z4
G1 Z-2.9 F80
G0 Z5
Y42.167
Z4
G1 Z-2.9 F80
G0 Z5
Y44.707
Z4
G1 Z-2.9 F80
G0 Z5
Y47.247
Z4
G1 Z-2.9 F80
G0 Z5
Y49.787
Z4
G1 Z-2.9 F80
G0 Z5
Y52.327
Z4
G1 Z-2.9 F80
G0 Z5
Y54.867
Z4.035
G1 Z-2.9 F80
G0 Z5
X36.652 Y54.885
Z4
G1 Z-2.9 F80
G0 Z5
X39.287 Y57.407
Z4
G1 Z-2.9 F80
G0 Z5
Y59.947
Z4
G1 Z-2.9 F80
G0 Z5
X20.015 Y48.154
Z4
G1 Z-2.9 F80
G0 Z5
Y45.614
Z4
G1 Z-2.9 F80
G0 Z5
Y43.074
Z4
G1 Z-2.9 F80
G0 Z5
Y40.534
Z4
G1 Z-2.9 F80
G0 Z5
Y37.994
Z4
G1 Z-2.9 F80
G0 Z5
X18.745 Y35.454
Z4.035
G1 Z-1.4 F80
G0 Z5
X24.047 Y32.007
Z4
G1 Z-2.9 F80
G0 Z5
Y34.547
Z4
G1 Z-2.9 F80
G0 Z5
Y37.087
Z4
G1 Z-2.9 F80
G0 Z5
Y39.627
Z4
G1 Z-2.9 F80
G0 Z5
Y42.167
Z4
G1 Z-2.9 F80
G0 Z5
Y44.707
Z4
G1 Z-2.9 F80
G0 Z5
Y47.247
Z4
G1 Z-2.9 F80
G0 Z5
Y49.787
Z4
G1 Z-2.9 F80
G0 Z5
Y52.327
Z4
G1 Z-2.9 F80
G0 Z5
X26.492 Y52.345
Z4
G1 Z-2.9 F80
G0 Z5
X24.047 Y54.867
Z4
G1 Z-2.9 F80
G0 Z5
Y57.407
Z4
G1 Z-2.9 F80
G0 Z5
Y59.947
Z4
G1 Z-2.9 F80
G0 Z5
X21.031 Y57.298
Z4.07
G1 Z-1.365 F80
G0 Z5
X14.494 Y61.042
Z4
G1 Z-2.9 F80
G0 Z5
X16.592 Y62.473
Z4
G1 Z-2.9 F80
G0 Z5
X18.691 Y63.905
Z4
G1 Z-2.9 F80
G0 Z5
X20.789 Y65.336
Z4
G1 Z-2.9 F80
G0 Z5
X22.887 Y66.767
Z4
G1 Z-2.9 F80
G0 Z5
X13.5 Y72.484
Z4
G1 Z-2.9 F80
G0 Z5
Z15
(When using Fusion 360 for Personal Use, the feedrate of)
(rapid moves is reduced to match the feedrate of cutting)
(moves, which can increase machining time. Unrestricted rapid)
(moves are available with a Fusion 360 Subscription.)

(2D Contour2)
X21.241 Y53.507
G1 Z15 F500
Z5
Z1 F80
Z-2.4
X21.249 Z-2.438 F500
X21.27 Z-2.471
X21.303 Z-2.492
X21.341 Z-2.5
X21.441
X21.479 Y53.514
X21.512 Y53.536
X21.534 Y53.568
X21.541 Y53.607
G3 X20.541 Y53.607 I-0.5 J0
X21.541 Y53.607 I0.5 J0
G1 X21.534 Y53.645
X21.512 Y53.677
X21.479 Y53.699
X21.441 Y53.707
X21.341
X21.303 Z-2.492
X21.27 Z-2.471
X21.249 Z-2.438
X21.241 Z-2.4
Z5
X21.244 Y32.298
Z1 F80
Z-2.4
X21.251 Y32.299 Z-2.438 F500
X21.273 Z-2.471
X21.305 Y32.3 Z-2.492
X21.344 Y32.301 Z-2.5
X21.444 Y32.303
X21.482 Y32.312
X21.514 Y32.334
X21.534 Y32.367
X21.541 Y32.406
G3 X20.541 Y32.381 I-0.5 J-0.012
X21.541 Y32.406 I0.5 J0.012
G1 X21.533 Y32.444
X21.51 Y32.476
X21.477 Y32.497
X21.439 Y32.503
X21.339 Y32.501
X21.3 Y32.5 Z-2.492
X21.268 Y32.499 Z-2.471
X21.246 Y32.498 Z-2.438
X21.239 Z-2.4
Z5
X42.454 Y32.293
Z1 F80
Z-2.4
X42.462 Z-2.438 F500
X42.484 Z-2.471
X42.516 Z-2.492
X42.554 Z-2.5
X42.654
X42.693 Y32.301
X42.725 Y32.323
X42.747 Y32.355
X42.754 Y32.393
G3 X41.754 Y32.393 I-0.5 J0
X42.754 Y32.393 I0.5 J0
G1 X42.747 Y32.432
X42.725 Y32.464
X42.693 Y32.486
X42.654 Y32.493
X42.554
X42.516 Z-2.492
X42.484 Z-2.471
X42.462 Z-2.438
X42.454 Z-2.4
Z15
Y53.507
Z5
Z1 F80
Z-2.453
X42.462 Z-2.491 F500
X42.484 Z-2.523
X42.516 Z-2.545
X42.554 Z-2.553
X42.654
X42.693 Y53.514
X42.725 Y53.536
X42.747 Y53.568
X42.754 Y53.607
G3 X41.754 Y53.607 I-0.5 J0
X42.754 Y53.607 I0.5 J0
G1 X42.747 Y53.645
X42.725 Y53.677
X42.693 Y53.699
X42.654 Y53.707
X42.554
X42.516 Z-2.545
X42.484 Z-2.523
X42.462 Z-2.491
X42.454 Z-2.453
Z15
(When using Fusion 360 for Personal Use, the feedrate of)
(rapid moves is reduced to match the feedrate of cutting)
(moves, which can increase machining time. Unrestricted rapid)
(moves are available with a Fusion 360 Subscription.)

(2D Contour1)
G0 X13.848 Y2.4
G1 Z15 F300
Z5
Z1 F80
Z-2.6
X13.855 Z-2.638 F300
X13.877 Z-2.671
X13.91 Z-2.692
X13.948 Z-2.7
X14.048
X14.086 Y2.408
X14.119 Y2.429
X14.14 Y2.462
X14.148 Y2.5
Y19.288
G3 X11.003 Y30.762 I-22.5 J0
G2 X9.5 Y52.246 I20.645 J12.238
G3 X6.574 Y61.482 I-6.921 J2.889
G2 X20.426 Y83.485 I6.926 J11.002
X26.442 Y73.711 I-6.926 J-11.002
G3 X33.37 Y66.938 I7.466 J0.708
G2 X52.293 Y30.762 I-1.722 J-23.938
G3 X49.148 Y19.288 I19.355 J-11.474
G1 Y2.5
G2 X48.648 Y2 I-0.5 J0
G3 X47.648 Y1 I0 J-1
G2 X47.148 Y0.5 I-0.5 J0
G1 X16.148
G2 X15.648 Y1 I0 J0.5
G3 X14.648 Y2 I-1 J0
G2 X14.148 Y2.5 I0 J0.5
G1 X14.14 Y2.538
X14.119 Y2.571
X14.086 Y2.592
X14.048 Y2.6
X13.948
X13.91 Z-2.692
X13.877 Z-2.671
X13.855 Z-2.638
X13.848 Z-2.6
Z15
M9
G28 G91 Z0
G90
G28 G91 X0 Y0
G90
M5
M30
